/* XPM */
static char *fa0a9477fcc843e5c0758a3b05f4cd749dPwXCsWYaV0nf2Z[] = {
/* columns rows colors chars-per-pixel */
"376 1079 182 2 ",
"   c black",
".  c #0A0F0D",
"X  c #100D0C",
"o  c #0D0D10",
"O  c #101010",
"+  c #141E1B",
"@  c gray12",
"#  c #201C13",
"$  c #201719",
"%  c #201819",
"&  c #302A1C",
"*  c #191920",
"=  c #1C2C2B",
"-  c #202020",
";  c #202E25",
":  c #302325",
">  c #252530",
",  c #2B3D32",
"<  c #263A39",
"1  c gray19",
"2  c #403526",
"3  c #403B26",
"4  c #402F32",
"5  c #503B3F",
"6  c #354C3E",
"7  c #50432F",
"8  c #504530",
"9  c #605039",
"0  c #605839",
"q  c #353443",
"w  c #2C2B6B",
"e  c #3E3D7C",
"r  c #304947",
"t  c #395756",
"y  c #00635F",
"u  c #0A6B67",
"i  c #15756C",
"p  c #137470",
"a  c #1C7D79",
"s  c #207E72",
"d  c gray25",
"f  c #5F474C",
"g  c #405B4A",
"h  c #505050",
"j  c #5F5F5F",
"k  c #60474B",
"l  c #705652",
"z  c #4B6A57",
"x  c #766847",
"c  c #7C734B",
"v  c #4B4B60",
"b  c #585870",
"n  c #7F5F65",
"m  c #436664",
"M  c #567963",
"N  c #4C7472",
"B  c #606060",
"V  c #6F6F6F",
"C  c #65647F",
"Z  c gray44",
"A  c gray50",
"S  c #801D18",
"D  c #821729",
"F  c #8B272D",
"G  c #90312E",
"H  c #922C3D",
"J  c #804A00",
"K  c #8E5A11",
"L  c #816702",
"P  c #98641C",
"I  c #927916",
"U  c #9F6C26",
"Y  c #A06D26",
"T  c #AC7A35",
"R  c #993647",
"E  c #9F4545",
"W  c #A54755",
"Q  c #AD5657",
"!  c #806A4C",
"~  c #80754C",
"^  c #907856",
"/  c #805E65",
"(  c #B15565",
")  c #8F6A72",
"_  c #906A72",
"`  c #9F767E",
"'  c #BC686F",
"]  c #A0767E",
"[  c #C3707A",
"{  c #2B8779",
"}  c #618970",
"|  c #6C987C",
" . c #9F8726",
".. c #AA9132",
"X. c #938458",
"o. c #A88C55",
"O. c #BDA64A",
"+. c #9F8B60",
"@. c #AF9369",
"#. c #BF9F72",
"$. c #AFA16A",
"%. c #BFA073",
"&. c #BFB073",
"*. c #C0904D",
"=. c #C79856",
"-. c #CFA05F",
";. c #D1B06B",
":. c #E7BB7D",
">. c #D7C269",
",. c #DFC972",
"<. c #E7D27C",
"1. c #535290",
"2. c #646480",
"3. c #757595",
"4. c #7574AD",
"5. c #C87484",
"6. c #D07F8E",
"7. c #268480",
"8. c #36938F",
"9. c #499288",
"0. c #60918F",
"q. c #55AA92",
"w. c #6EA793",
"e. c #53ACA8",
"r. c #73AFAC",
"t. c #6CBDA0",
"y. c #72BCB8",
"u. c #72C4AD",
"i. c #74C9C5",
"p. c #7CD0CC",
"a. c #808080",
"s. c gray56",
"d. c #909090",
"f. c #9F9F9F",
"g. c #AF828B",
"h. c #BF8E97",
"j. c #81B695",
"k. c #8988B3",
"l. c #9796BF",
"z. c #A0A0A0",
"x. c #AFAFAF",
"c. c gray69",
"v. c gray75",
"b. c #D68992",
"n. c #DFBA86",
"m. c #CF99A4",
"M. c #E498A6",
"N. c #DFA5B1",
"B. c #EFA9B4",
"V. c #EFB1BD",
"C. c #85CBA8",
"Z. c #96D4AE",
"A. c #8CD8B4",
"S. c #97E1BA",
"D. c #A1E4BA",
"F. c #DFCD86",
"G. c #EFC68C",
"H. c #F7CC8F",
"J. c #EFDA86",
"K. c #EFDC8F",
"L. c #FFD599",
"P. c #F7E38F",
"I. c #FFEB99",
"U. c #9493CE",
"Y. c #A2A1DA",
"T. c #ACABD9",
"R. c #B9B8EE",
"E. c #BBBAF2",
"W. c #F8B2C0",
"Q. c #FFBDCA",
"!. c #86CCC8",
"~. c #86D8D4",
"^. c #8FDBD7",
"/. c #8FE1DD",
"(. c #A1EAC0",
"). c #ACF3C7",
"_. c #99E9E5",
"`. c gray81",
"'. c #DFDFDF",
"]. c #C9C8FF",
"[. c #EFEFEF",
"{. c white",
/* pixels */
"                                                                                                                                                                                                                                                                                                                                                                                                                                                                                                                                                                                                                                                                                                                                                                                ",
"                                                                                                                                                                                                                                                                                                                                                                                                                                                                                                                                                                                                                                                                                                                                                                                ",
"                                                                                                                                                                                                                                                                                                                                                                                                                                                                                                                                                                                                                                                                                                                                                                                ",
"                                                                                                                                                                                                                                                                                                                                                                                                                                                                                                                                                                                                                                                                                                                                                                                ",
"                                                                                                                                                                                                                                                                                                                                                                                                                                                                                                                                                                                                                                                                                                                                                                                ",
"                                                                                                                                                                                                                                                                                                                                                                                                                                                                                                                                                                                                                                                                                                                                                                                ",
"                                                                                                                                                                                                                                                                                                                                                                                                                                                                                                                                                                                                                                                                                                                                                                                ",
"                                                                                                                                                                                                                                                                                                                                                                                                                                                                                                                                                                                                                                                                                                                                                                                ",
"                                                                                                                                                                                                                                                                                                                                                                                                                                                                                                                                                                                                                                                                                                                                                                                ",
"                                                                                                                                                                                                                                                                                                                                                                                                                                                                                                                                                                                                                                                                                                                                                                                ",
"                                                                                                                                                                                                                                                                                                                                                                                                                                                                                                                                                                                                                                                                                                                                                                                ",
"                                                                                                                                                                                                                                                                                                                                                                                                                                                                                                                                                                                                                                                                                                                                                                                ",
"                                                                                                                                                                                                                                                                                                                                                                                                                                                                                                                                                                                                                                                                                                                                                                                ",
"                                                                                                                                                                                                                                                                                                                                                                                                                                                                                                                                                                                                                                                                                                                                                                                ",
"                                                                                                                                                                                                                                                                                                                                                                                                                                                                                                                                                                                                                                                                                                                                                                                ",
"                                                                                                                                                                                                                                                                                                                                                                                                                                                                                                                                                                                                                                                                                                                                                                                ",
"                                                                                                                                                                                                                                                                                                                                                                                                                                                                                                                                                                                                                                                                                                                                                                                ",
"                                                                                                                                                                                                                                                                                                                                                                                                                                                                                                                                                                                                                                                                                                                                                                                ",
"                                                                                                                                                                                                                                                                                                                                                                                                                                                                                                                                                                                                                                                                                                                                                                                ",
"                                                                                                                                                                                                                                                                                                                                                                                                                                                                                                                                                                                                                                                                                                                                                                                ",
"                                                                                                                                                                                                                                                                                                                                                                                                                                                                                                                                                                                                                                                                                                                                                                                ",
"                                                                                                                                                                                                                                                                                                                                                                                                                                                                                                                                                                                                                                                                                                                                                                                ",
"                                                                                                                                                                                                                                                                                                                                                                                                                                                                                                                                                                                                                                                                                                                                                                                ",
"                                                                                                                                                                                                                                                                                                                                                                                                                                                                                                                                                                                                                                                                                                                                                                                ",
"                                                                                                                                                                                                                                                                                                                                                                                                                                                                                                                                                                                                                                                                                                                                                                                ",
"                                                                                                                                                                                                                                                                                                                                                                                                                                                                                                                                                                                                                                                                                                                                                                                ",
"                                                                                                                                                                                                                                                                                                                                                                                                                                                                                                                                                                                                                                                                                                                                                                                ",
"                                                                                                                                                                                                                                                                                                                                                                                                                                                                                                                                                                                                                                                                                                                                                                                ",
"                                                                                                                                                                                                                                                                                                                                                                                                                                                                                                                                                                                                                                                                                                                                                                                ",
"                                                                                                                                                                                                                                                                                                                                                                                                                                                                                                                                                                                                                                                                                                                                                                                ",
"                                                                                                                                                                                                                                                                                                                                                                                                                                                                                                                                                                                                                                                                                                                                                                                ",
"                                                                                                                                                                                                                                                                                                                                                                                                                                                                                                                                                                                                                                                                                                                                                                                ",
"                                                                                                                                                                                                                                                                                                                                                                                                                                                                                                                                                                                                                                                                                                                                                                                ",
"                                                                                                                                                                                                                                                                                                                                                                                                                                                                                                                                                                                                                                                                                                                                                                                ",
"                                                                                                                                                                                                                                                                                                                                                                                                                                                                                                                                                                                                                                                                                                                                                                                ",
"                                                                                                                                                                                                                                                                                                                                                                                                                                                                                                                                                                                                                                                                                                                                                                                ",
"                                                                                                                                                                                                                                                                                                                                                                                                                                                                                                                                                                                                                                                                                                                                                                                ",
"                                                                                                                                                                                                                                                                                                                                                                                                                                                                                                                                                                                                                                                                                                                                                                                ",
"                                                                                                                                                                                                                                                                                                                                                                                                                                                                                                                                                                                                                                                                                                                                                                                ",
"                                                                                                                                                                                                                                                                                                                                                                                                                                                                                                                                                                                                                                                                                                                                                                                ",
"                                                                                                                                                                                                                                                                                                                                                                                                                                                                                                                                                                                                                                                                                                                                                                                ",
"                                                                                                                                                                                                                                                                                                                                                                                                                                                                                                                                                                                                                                                                                                                                                                                ",
"                                                                                                                                                                                                                                                                                                                                                                                                                                                                                                                                                                                                                                                                                                                                                                                ",
"                                                                                                                                                                                                                                                                                                                                                                                                                                                                                                                                                                                                                                                                                                                                                                                ",
"                                                                                                                                                                                                                                                                                                                                                                                                                                                                                                                                                                                                                                                                                                                                                                                ",
"                                                                                                                                                                                                                                                                                                                                                                                                                                                                                                                                                                                                                                                                                                                                                                                ",
"                                                                                                                                                                                                                                                                                                                                                                                                                                                                                                                                                                                                                                                                                                                                                                                ",
"                                                                                                                                                                                                                                                                                                                                                                                                                                                                                                                                                                                                                                                                                                                                                                                ",
"                                                                                                                                                                                                                                                                                                                                                                                                                                                                                                                                                                                                                                                                                                                                                                                ",
"                                                                                                                                                                                                                                                                                                                                                                                                                                                                                                                                                                                                                                                                                                                                                                                ",
"                                                                                                                                                                                                                                                                                                                                                                                                                                                                                                                                                                                                                                                                                                                                                                                ",
"                                                                                                                                                                                                                                                                                                                                                                                                                                                                                                                                                                                                                                                                                                                                                                                ",
"                                                                                                                                                                                                                                                                                                                                                                                                                                                                                                                                                                                                                                                                                                                                                                                ",
"                                                                                                                                                                                                                                                                                                                                                                                                                                                                                                                                                                                                                                                                                                                                                                                ",
"                                                                                                                                                                                                                                                                                                                                                                                                                                                                                                                                                                                                                                                                                                                                                                                ",
"                                                                                                                                                                                                                                                                                                                                                                                                                                                                                                                                                                                                                                                                                                                                                                                ",
"                                                                                                                                                                                                                                                                                                                                                                                                                                                                                                                                                                                                                                                                                                                                                                                ",
"                                                                                                                                                                                                                                                                                                                                                                                                                                                                                                                                                                                                                                                                                                                                                                                ",
"                                                                                                                                                                                                                                                                                                                                                                                                                                                                                                                                                                                                                                                                                                                                                                                ",
"                                                                                                                                                                                                                                                                                                                                                                                                                                                                                                                                                                                                                                                                                                                                                                                ",
"                                                                                                                                                                                                                                                                                                                                                                                                                                                                                                                                                                                                                                                                                                                                                                                ",
"                                                                                                                                                                                                                                                                                                                                                                                                                                                                                                                                                                                                                                                                                                                                                                                ",
"                                                                                                                                                                                                                                                                                                                                                                                                                                                                                                                                                                                                                                                                                                                                                                                ",
"                                                                                                                                                                                                                                                                                                                                                                                                                                                                                                                                                                                                                                                                                                                                                                                ",
"                                                                                                                                                                                                                                                                                                                                                                                                                                                                                                                                                                                                                                                                                                                                                                                ",
"                                                                                                                                                                                                                                                                                                                                                                                                                                                                                                                                                                                                                                                                                                                                                                                ",
"                                                                                                                                                                                                                                                                                                                                                                                                                                                                                                                                                                                                                                                                                                                                                                                ",
"                                                                                                                                                                                                                                                                                                                                                                                                                                                                                                                                                                                                                                                                                                                                                                                ",
"                                                                                                                                                                                                                                                                                                                                                                                                                                                                                                                                                                                                                                                                                                                                                                                ",
"                                                                                                                                                                                                                                                                                                                                                                                                                                                                                                                                                                                                                                                                                                                                                                                ",
"                                                                                                                                                                                                                                                                                                                                                                                                                                                                                                                                                                                                                                                                                                                                                                                ",
"                                                                                                                                                                                                                                                                                                                                                                                                                                                                                                                                                                                                                                                                                                                                                                                ",
"                                                                                                                                                                                                                                                                                                                                                                                                                                                                                                                                                                                                                                                                                                                                                                                ",
"                                                                                                                                                                                                                                                                                                                                                                                                                                                                                                                                                                                                                                                                                                                                                                                ",
"                                                                                                                                                                                                                                                            O v.v.B             O v.v.B                                                                                                                                                                                                                                                                                                                                                                                                                                                                                         ",
"                                                                                                                                                                                                                                                            - {.{.a.            - {.{.a.                                                                                              d s.@                                                                                                                                                                                                                                                                                                                                                                                     ",
"                                                                                                                                                                                                                                                            - {.{.a.            - {.{.a.                                                                                            B {.{.@                                                                                                                                                                                                                                                                                                                                                                                     ",
"                                                                                                                                                                                                                                                            - {.{.a.            - {.{.a.                                                                                            B {.{.@                                                                                                                                                                                                                                                                                                                                                                                     ",
"                                                                                                                                                                                                                                                            - {.{.a.            - {.{.a.              O 1 d 1                                                                   O - V {.{.d - O             - d d O                                                             - d d O               O 1 d -                                                                                                                                                                                                                                                                   ",
"                                                                                                                                                                                                                                                            - {.{.a.            - {.{.a.          - v.{.{.{.{.'.B       O [.{.v.          f.{.{.d         - {.{.d.              a.{.{.{.{.{.{.v.        h `.{.{.{.{.v.-                       - {.{.B         d {.{.B       1 v.{.{.{.{.'.O         A [.{.{.{.'.-                                                                                                                                                                                                                                                               ",
"                                                                                                                                                                                                                                                            - {.{.a.            - {.{.a.        - '.{.{.{.{.{.{.{.A       v.{.[.O         '.{.{.d.        B {.{.1               a.{.{.{.{.{.{.v.      A {.{.{.{.{.{.{.[.1                     - {.{.B         d {.{.B     - '.{.{.{.{.{.{.        s.{.{.{.{.{.{.[.1                                                                                                                                                                                                                                                             ",
"                                                                                                                                                                                                                                                            - {.{.x.B B B B B B Z {.{.a.        '.{.{.d.O   d '.{.{.d     B {.{.h       d {.{.{.[.        v.{.'.                - d a.{.{.B d 1     1 {.{.'.d   O Z {.{.'.O                   - {.{.B         d {.{.B     B {.{.B     1 Z       B {.{.x.O   B {.{.v.                                                                                                                                                                                                                                                            ",
"                                                                                                                                                                                                                                                            - {.{.{.{.{.{.{.{.{.{.{.{.a.      B {.{.a.        - [.{.v.    O {.{.f.      f.{.[.{.{.d     O {.{.d.                    B {.{.@         v.{.{.-         a.{.{.Z                   - {.{.B         d {.{.B     a.{.[.                v.{.'.        a.{.{.@                                                                                                                                                                                                                                                           ",
"                                                                                                                                                                                                                                                            - {.{.{.{.{.{.{.{.{.{.{.{.a.      x.{.{.-           d.{.{.@     v.{.[.      '.{.Z [.{.a.    B {.{.1                     B {.{.@       O {.{.f.          O [.{.v.                  - {.{.B         d {.{.B     d {.{.s.-             {.{.Z         1 {.{.B                                                                                                                                                                                                                                                           ",
"                                                                                                                                                                                                                                                            - {.{.d.- - - - - - d {.{.a.      `.{.`.            B {.{.h     Z {.{.d   d {.{.1 z.{.`.    x.{.'.                      B {.{.@       d {.{.Z             x.{.'.                  - {.{.B         d {.{.B       v.{.{.'.A         1 {.{.`.v.v.v.v.`.{.{.a.                                                                                                                                                                                                                                                          ",
"                                                                                                                                                                                                                                                            - {.{.a.            - {.{.a.      '.{.v.            d {.{.B     O {.{.d.  f.{.'.  h {.{.@ O {.{.f.                      B {.{.@       d {.{.B             z.{.{.                  - {.{.B         d {.{.B         a.'.{.{.'.1     d {.{.{.{.{.{.{.{.{.{.a.                                                                                                                                                                                                                                                          ",
"                                                                                                                                                                                                                                                            - {.{.a.            - {.{.a.      '.{.`.            h {.{.h       v.{.'.  '.{.d.  O [.{.Z h {.{.d                       B {.{.@       1 {.{.B             v.{.[.                  - {.{.B         d {.{.B           - z.{.{.[.-   1 {.{.x.a.a.a.a.a.a.a.d                                                                                                                                                                                                                                                           ",
"                                                                                                                                                                                                                                                            - {.{.a.            - {.{.a.      x.{.[.O           d.{.{.1       Z {.{.A {.{.1     v.{.v.f.{.'.                        B {.{.@       O {.{.d.            '.{.v.                  - {.{.a.        d {.{.B               d {.{.d.  O {.{.d.                                                                                                                                                                                                                                                                          ",
"                                                                                                                                                                                                                                                            - {.{.a.            - {.{.a.      Z {.{.a.        - '.{.'.        O {.{.[.{.'.      Z {.{.[.{.f.                        B {.{.@         v.{.[.O         B {.{.B                   O {.{.f.        f.{.{.B                 '.{.v.    '.{.'.                                                                                                                                                                                                                                                                          ",
"                                                                                                                                                                                                                                                            - {.{.a.            - {.{.a.      O '.{.[.B     O `.{.{.B           v.{.{.{.f.      O {.{.{.{.d                         B {.{.d   O     h {.{.`.-     d [.{.'.-                     `.{.[.-     j {.{.{.B     B d       j {.{.f.    a.{.{.f.-       d Z                                                                                                                                                                                                                                                             ",
"                                                                                                                                                                                                                                                            - {.{.a.            - {.{.a.        d {.{.{.[.'.{.{.{.z.            Z {.{.{.d         v.{.{.'.                          1 {.{.{.'.[.      d.{.{.{.'.[.{.{.{.h                       Z {.{.{.'.[.{.{.{.{.B     d.{.{.'.'.{.{.{.1     O `.{.{.{.v.'.[.{.f.                                                                                                                                                                                                                                                            ",
"                                                                                                                                                                                                                                                            - {.{.a.            - {.{.a.          1 '.{.{.{.{.[.a.              O {.{.'.          Z {.{.f.                            z.{.{.{.{.O       a.{.{.{.{.{.'.d                           a.{.{.{.{.[.Z {.{.Z     z.{.{.{.{.{.[.B         - z.{.{.{.{.{.{.a.                                                                                                                                                                                                                                                            ",
"                                                                                                                                                                                                                                                              - - O               - - O               d B B h O                   - - -             - - O                               d B B d           O d B B d                                 - h B h O   - - O       - h B B d O               - h B B d O                                                                                                                                                                                                                                                               ",
"                                                                                                                                                                                                                                                                                                                                                                                                                                                                                                                                                                                                                                                                                                                                                                                ",
"                                                                                                                                                                                                                                                                                                                                                                                                                                                                                                                                                                                                                                                                                                                                                                                ",
"                                                                                                                                                                                                                                                                                                                                                                                                                                                                                                                                                                                                                                                                                                                                                                                ",
"                                                                                                                                                                                                                                                                                                                                                                                                                                                                                                                                                                                                                                                                                                                                                                                ",
"                                                                                                                                                                                                                                                                                                                                                                                                                                                                                                                                                                                                                                                                                                                                                                                ",
"                                                                                                                                                                                                                                                                                                                                                                                                                                                                                                                                                                                                                                                                                                                                                                                ",
"                                                                                                                                                                                                                                                                                                                                                                                                                                                                                                                                                                                                                                                                                                                                                                                ",
"                                                                                                                                                                                                                                                                                                                                                                                                                                                                                                                                                                                                                                                                                                                                                                                ",
"                                                                                                                                                                                                                                                                                                                                                                                                                                                                                                                                                                                                                                                                                                                                                                                ",
"                                                                                                                                                                                                                                                                                                                                                                                                                                                                                                                                                                                                                                                                                                                                                                                ",
"                                                                                                                                                                                                                                                                                                                                                                                                                                                                                                                                                                                                                                                                                                                                                                                ",
"                                                                                                                                                                                                                                                                                                                                                                                                                                                                                                                                                                                                                                                                                                                                                                                ",
"                                                                                                                                                                                                                                                                                                                                                                                                                                                                                                                                                                                                                                                                                                                                                                                ",
"                                                                                                                                                                                                                                                                                                                                                                                                                                                                                                                                                                                                                                                                                                                                                                                ",
"                                                                                                                                                                                                                                                                                                                                                                                                                                                                                                                                                                                                                                                                                                                                                                                ",
"                                                                                                                                                                                                                                                                                                                                                                                                                                                                                                                                                                                                                                                                                                                                                                                ",
"                                                                                                                                                                                                                                                                                                                                                                                                                                                                                                                                                                                                                                                                                                                                                                                ",
"                                                                                                                                                                                                                                                                                                                                                                                                                                                                                                                                                                                                                                                                                                                                                                                ",
"                                                                                                                                                                                                                                                                                                                                                                                                                                                                                                                                                                                                                                                                                                                                                                                ",
"                                                                                                                                                                                                                                                                                                                                                                                                                                                                                                                                                                                                                                                                                                                                                                                ",
"                                                                                                                                                                                                                                                                                                                                                                                                                                                                                                                                                                                                                                                                                                                                                                                ",
"                                                                                                                                                                                                                                                                                                                                                                                                                                                                                                                                                                                                                                                                                                                                                                                ",
"                                                                                                                                                                                                                                                                                                                                                                                                                                                                                                                                                                                                                                                                                                                                                                                ",
"                                                                                                                                                                                                                                                                                                                                                                                                                                                                                                                                                                                                                                                                                                                                                                                ",
"                                                                                                                                                                                                                                                                                                                                                                                                                                                                                                                                                                                                                                                                                                                                                                                ",
"                                                                                                                                                                                                                                                                                                                                                                                                                                                                                                                                                                                                                                                                                                                                                                                ",
"                                                                                                                                                                                                                                                                                                                                                                                                                                                                                                                                                                                                                                                                                                                                                                                ",
"                                                                                                                                                                                                                                                                                                                                                                                                                                                                                                                                                                                                                                                                                                                                                                                ",
"                                                                                                                                                                                                                                                                                                                                                                                                                                                                                                                                                                                                                                                                                                                                                                                ",
"                                                                                                                                                                                                                                                                                                                                                                                                                                                                                                                                                                                                                                                                                                                                                                                ",
"                                                                                                                                                                                                                                                                                                                                                                                                                                                                                                                                                                                                                                                                                                                                                                                ",
"                                                                                                                                                                                                                                                                                                                                                                                                                                                                                                                                                                                                                                                                                                                                                                                ",
"                                                                                                                                                                                                                                                                                                                                                                                                                                                                                                                                                                                                                                                                                                                                                                                ",
"                                                                                                                                                                                                                                                                                                                                                                                                                                                                                                                                                                                                                                                                                                                                                                                ",
"                                                                                                                                                                                                                                                                                                                                                                                                                                                                                                                                                                                                                                                                                                                                                                                ",
"                                                                                                                                                                                                                                                                                                                                                                                                                                                                                                                                                                                                                                                                                                                                                                                ",
"                                                                                                                                                                                                                                                                                                                                                                                                                                                                                                                                                                                                                                                                                                                                                                                ",
"                                                                                                                                                                                                                                                                                                                                                                                                                                                                                                                                                                                                                                                                                                                                                                                ",
"                                                                                                                                                                                                                                                                                                                                                                                                                                                                                                                                                                                                                                                                                                                                                                                ",
"                                                                                                                                                                                                                                                                                                                                                                                                                                                                                                                                                                                                                                                                                                                                                                                ",
"                                                                                                                                                                                                                                                                                                                                                                                                                                                                                                                                                                                                                                                                                                                                                                                ",
"                                                                                                                                                                                                                                                                                                                                                                                                                                                                                                                                                                                                                                                                                                                                                                                ",
"                                                                                                                                                                                                                                                                                                                                                                                                                                                                                                                                                                                                                                                                                                                                                                                ",
"                                                                                                                                                                                                                                                                                                                                                                                                                                                                                                                                                                                                                                                                                                                                                                                ",
"                                                                                                                                                                                                                                                                                                                                                                                                                                                                                                                                                                                                                                                                                                                                                                                ",
"                                                                                                                                                                                                                                                                                                                                                                                                                                                                                                                                                                                                                                                                                                                                                                                ",
"                                                                                                                                                                                                                                                                                                                                                                                                                                                                                                                                                                                                                                                                                                                                                                                ",
"                                                                                                                                                                                                                                                                                                                                                                                                                                                                                                                                                                                                                                                                                                                                                                                ",
"                                                                                                                                                                                                                                                                                                                                                                                                                                                                                                                                                                                                                                                                                                                                                                                ",
"                                                                                                                                                                                                                                                                                                                                                                                                                                                                                                                                                                                                                                                                                                                                                                                ",
"                                                                                                                                                                                                                                                                                                                                                                                                                                                                                                                                                                                                                                                                                                                                                                                ",
"                                                                                                                                                                                                                                                                                                                                                                                                                                                                                                                                                                                                                                                                                                                                                                                ",
"                                                                                                                                                                                                                                                                                                                                                                                                                                                                                                                                                                                                                                                                                                                                                                                ",
"                                                                                                                                                                                                                                                                                                                                                                                                                                                                                                                                                                                                                                                                                                                                                                                ",
"                                                                                                                                                                                                                                                                                                                                                                                                                                                                                                                                                                                                                                                                                                                                                                                ",
"                                                                                                                                                                                                                                                                                                                                                                                                                                                                                                                                                                                                                                                                                                                                                                                ",
"                                                                                                                                                                                                                                                                                                                                                                                                                                                                                                                                                                                                                                                                                                                                                                                ",
"                                                                                                                                                                                                                                                                                                                                                                                                                                                                                                                                                                                                                                                                                                                                                                                ",
"                                                                                                                                                                                                                                                                                                                                                                                                                                                                                                                                                                                                                                                                                                                                                                                ",
"                                                                                                                                                                                                                                                                                                                                                                                                                                                                                                                                                                                                                                                                                                                                                                                ",
"                                                                                                                                                                                                                                                                                                                                                                                                                                                                                                                                                                                                                                                                                                                                                                                ",
"                                                                                                                                                                                                                                                                                                                                                                                                                                                                                                                                                                                                                                                                                                                                                                                ",
"                                                                                                                                                                                                                                                                                                                                                                                                                                                                                                                                                                                                                                                                                                                                                                                ",
"                                                                                                                                                                                                                                                                                                                                                                                                                                                                                                                                                                                                                                                                                                                                                                                ",
"                                                                                                                                                                                                                                                                                                                                                                                                                                                                                                                                                                                                                                                                                                                                                                                ",
"                                                                                                                                                                                                                                                                                                                                                                                                                                                                                                                                                                                                                                                                                                                                                                                ",
"                                                                                                                                                                                                                                                                                                                                                                                                                                                                                                                                                                                                                                                                                                                                                                                ",
"                                                                                                                                                                                                                                                                                                                                                                                                                                                                                                                                                                                                                                                                                                                                                                                ",
"                                                                                                                                                                                                                                                                                                                                                                                                                                                                                                                                                                                                                                                                                                                                                                                ",
"                                                                                                                                                                                                                                                                                                                                                                                                                                                                                                                                                                                                                                                                                                                                                                                ",
"                                                                                                                                                                                                                                                                                                                                                                                                                                                                                                                                                                                                                                                                                                                                                                                ",
"                                                                                                                                                                                                                                                                                                                                                                                                                                                                                                                                                                                                                                                                                                                                                                                ",
"                                                                                                                                                                                                                                                                                                                                                                                                                                                                                                                                                                                                                                                                                                                                                                                ",
"                                                                                                                                                                                                                                                                                                                                                                                                                                                                                                                                                                                                                                                                                                                                                                                ",
"                                                                                                                                                                                                                                                                                                                                                                                                                                                                                                                                                                                                                                                                                                                                                                                ",
"                                                                                                                                                                                                                                                                                                                                                                                                                                                                                                                                                                                                                                                                                                                                                                                ",
"                                                                                                                                                                                                                                                                                                                                                                                                                                                                                                                                                                                                                                                                                                                                                                                ",
"                                                                                                                                                                                                                                                                                                                                                                                                                                                                                                                                                                                                                                                                                                                                                                                ",
"                                                                                                                                                                                                                                                                                                                                                                                                                                                                                                                                                                                                                                                                                                                                                                                ",
"                                                                                                                                                                                                                                                                                                                                                                                                                                                                                                                                                                                                                                                                                                                                                                                ",
"                                                                                                                                                                                                                                                                                                                                                                                                                                                                                                                                                                                                                                                                                                                                                                                ",
"                                                                                                                                                                                                                                                                                                                                                                                                                                                                                                                                                                                                                                                                                                                                                                                ",
"                                                                                                                                                                                                                                                                                                                                                                                                                                                                                                                                                                                                                                                                                                                                                                                ",
"                                                                                                                                                                                                                                                                                                                                                                                                                                                                                                                                                                                                                                                                                                                                                                                ",
"                                                                                                                                                                                                                                                                                                                                                                                                                                                                                                                                                                                                                                                                                                                                                                                ",
"                                                                                                                                                                                                                                                                                                                                                                                                                                                                                                                                                                                                                                                                                                                                                                                ",
"                                                                                                                                                                                                                                                                                                                                                                                                                                                                                                                                                                                                                                                                                                                                                                                ",
"                                                                                                                                                                                                                                                                                                                                                                                                                                                                                                                                                                                                                                                                                                                                                                                ",
"                                                                                                                                                                                                                                                                                                                                                                                                                                                                                                                                                                                                                                                                                                                                                                                ",
"                                                                                                                                                                                                                                                                                                                                                                                                                                                                                                                                                                                                                                                                                                                                                                                ",
"                                                                                                                                                                                                                                                                                                                                                                                                                                                                                                                                                                                                                                                                                                                                                                                ",
"                                                                                                                                                                                                                                                                                                                                                                                                                                                                                                                                                                                                                                                                                                                                                                                ",
"                                                                                                                                                                                                                                                                                                                                                                                                                                                                                                                                                                                                                                                                                                                                                                                ",
"                                                                                                                                                                                                                                                                                                                                                                                                                                                                                                                                                                                                                                                                                                                                                                                ",
"                                                                                                                                                                                                                                                                                                                                                                                                                                                                                                                                                                                                                                                                                                                                                                                ",
"                                                                                                                                                                                                                                                                                                                                                                                                                                                                                                                                                                                                                                                                                                                                                                                ",
"                                                                                                                                                                                                                                                                                                                                                                                                                                                                                                                                                                                                                                                                                                                                                                                ",
"                                                                                                                                                                                                                                                                                                                                                                                                                                                                                                                                                                                                                                                                                                                                                                                ",
"                                                                                                                                                                                                                                                                                                                                                                                                                                                                                                                                                                                                                                                                                                                                                                                ",
"                                                                                                                                                                                                                                                                                                                                                                                                                                                                                                                                                                                                                                                                                                                                                                                ",
"                                                                                                                                                                                                                                                                                                                                                                                                                                                                                                                                                                                                                                                                                                                                                                                ",
"                                                                                                                                                                                                                                                                                                                                                                                                                                                                                                                                                                                                                                                                                                                                                                                ",
"                                                                                                                                                                                                                                                                                                                                                                                                                                                                                                                                                                                                                                                                                                                                                                                ",
"                                                                                                                                                                                                                                                                                                                                                                                                                                                                                                                                                                                                                                                                                                                                                                                ",
"                                                                                                                                                                                                                                                                                                                                                                                                                                                                                                                                                                                                                                                                                                                                                                                ",
"                                                                                                                                                                                                                                                                                                                                                                                                                                                                                                                                                                                                                                                                                                                                                                                ",
"                                                                                                                                                                                                                                                                                                                                                                                                                                                                                                                                                                                                                                                                                                                                                                                ",
"                                                                                                                                                                                                                                                                                                                                                                                                                                                                                                                                                                                                                                                                                                                                                                                ",
"                                                                                                                                                                                                                                                                                                                              q l.E.].].].].].].].].].].].].].].].].].Y.3.*                       q 3.T.].].].].].].].].].].].].].].].].].Y.3.*                                                                                                                                                                                                                                                                                                                                 ",
"                                                                                                                                                                                                                                                                                                                          * l.].].].].].].].].].].].].].].].].].].].].].].].b                   3.].].].].].].].].].].].].].].].].].].].].].].].3.                                                                                                                                                                                                                                                                                                                              ",
"                                                                                                                                                                                                                                                                                                                        * T.].].].].].].].].].].].].].].].].].].].].].].].].].C               l.].].].].].].].].].].].].].].].].].].].].].].].].].l.                                                                                                                                                                                                                                                                                                                            ",
"                                                                                                                                                                                                                                                                                                                        T.].].].].].].].].].].].].].].].].].].].].].].].].].].].q           C ].].].].].].].].].].].].].].].].].].].].].].].].].].].2.                                                                                                                                                                                                                                                                                                                          ",
"                                                                                                                                                                                                                                                                                                                      v ].].].].].].].].].].].].].].].].].].].].].].].].].].].].l.        * ].].].].].].].].].].].].].].].].].].].].].].].].].].].].E.o                                                                                                                                                                                                                                                                                                                         ",
"                                                                                                                                                                                                                                                                                                                      k.].].].].].].].].].].].].].].].].].].].].].].].].].].].].].>       v ].].].].].].].].].].].].].].].].].].].].].].].].].].].].].b                                                                                                                                                                                                                                                                                                                         ",
"                                                                                                                                        1 a.a.a.a.a.a.d                                                                                                                                                               E.].].].].].].].].].].].].].].].].].].].].].].].].].].].].].v       k.].].].].].].].].].].].].].].].].].].].].].].].].].].].].].3.                                                                                                                                                                                                                                                                                                                        ",
"                                                                                                                                        B {.{.{.{.{.{.a.                                                                                                                                                              ].].].].].].].].].].].].].].].].].].].].].].].].].].].].].].2.      l.].].].].].].].].].].].].].].].].].].].].].].].].].].].].].l.                                                                                                                                                                                                                                                                                                                        ",
"                                                                                                                                        O - - - - x.{.-                                                                                                                                                               ].].].].].].].].].].].].].].].].].].].].].].].].].].].].].].2.      l.].].].].].].].].].].].].].].].].].].].].].].].].].].].].].l.                                                                                                                                                                                                                                                                                                                        ",
"                                                                                                                                                h {.a.      O A f.s.h         O Z f.f.B       - a.1 A f.B   d f.s.1                                                                                                   ].].].].].].].].].].].].].].].].].].].].].].].].].].].].].].2.      l.].].].].].].].].].].].].].].].].].].].].].].].].].].].].].l.                                                                                                                                                                                                                                                                                                                        ",
"                                                                                                                                                '.'.      - '.{.`.'.{.A     O '.{.`.'.{.s.    d {.{.[.'.{.v.{.`.'.{.d                                                                                                 ].].].].].].].].].].].].].].].].].].].].].].].].].].].].].].2.      l.].].].].].].].].].].].].].E.R.E.].].].].].].].].].].].].].l.                                                                                                                                                                                                                                                                                                                        ",
"                                                                                                                                              A {.d       f.{.1     x.{.d   s.{.Z     d.{.d   d {.'.    v.{.a.  - {.f.                                                                                                ].].].].].].].].].].].].].E.4.w Y.].].].].].].].].].].].].].2.      l.].].].].].].].].].].].].k.e e w 4.].].].].].].].].].].].].l.                                                                                                                                                                                                                                                                                                                        ",
"                                                                                                                                            - {.f.        [.v.      1 {.Z   `.`.      O {.d.  d {.Z     z.{.O     '.f.                                                                                                ].].].].].].].].].].].].].4.4.e Y.].].].].].].].].].].].].].2.      l.].].].].].].].].].].].R.w Y.].R.e Y.].].].].].].].].].].].l.                                                                                                                                                                                                                                                                                                                        ",
"                                                                                                                                            v.'.-         {.f.        {.f.  {.v.        [.c.  d {.B     z.{.      '.f.                                                                                                ].].].].].].].].].].].].].E.].e Y.].].].].].].].].].].].].].2.      l.].].].].].].].].].].].T.4.].].].1.U.].].].].].].].].].].].l.                                                                                                                                                                                                                                                                                                                        ",
"                                                                                                                                          B {.B           [.c.      - {.d.  '.`.        {.c.  d {.B     z.{.      '.f.                                                                                                ].].].].].].].].].].].].].].].e Y.].].].].].].].].].].].].].2.      l.].].].].].].].].].].].].].].].].e U.].].].].].].].].].].].l.                                                                                                                                                                                                                                                                                                                        ",
"                                                                                                                                        - '.'.            v.[.-     A {.d   d.{.1     V {.B   d {.B     z.{.      '.f.                                                                                                ].].].].].].].].].].].].].].].e Y.].].].].].].].].].].].].].2.      l.].].].].].].].].].].].].].].E.4.1.].].].].].].].].].].].].l.                                                                                                                                                                                                                                                                                                                        ",
"                                                                                                                                        a.{.[.'.'.'.'.f.  1 [.'.s.x.{.f.    - '.'.s.f.{.`.    d {.B     z.{.      '.f.                                                                                                ].].].].].].].].].].].].].].].e Y.].].].].].].].].].].].].].2.      l.].].].].].].].].].].].].].E.1.1.E.].].].].].].].].].].].].l.                                                                                                                                                                                                                                                                                                                        ",
"                                                                                                                                        h f.f.f.f.f.f.A     - x.'.'.a.O       - z.'.'.a.O     - f.d     B f.      d.B                                                                                                 ].].].].].].].].].].].].].].].e Y.].].].].].].].].].].].].].2.      l.].].].].].].].].].].].].R.e 4.].].].].].].].].].].].].].].l.                                                                                                                                                                                                                                                                                                                        ",
"                                                                                                                                                                                                                                                                                                                      ].].].].].].].].].].].].].].].e Y.].].].].].].].].].].].].].2.      l.].].].].].].].].].].].R.e 1.Y.Y.Y.R.].].].].].].].].].].].l.                                                                                                                                                                                                                                                                                                                        ",
"                                                                                                                                                                                                                                                                                                                      ].].].].].].].].].].].].].].].1.T.].].].].].].].].].].].].].2.      l.].].].].].].].].].].].U.1.1.1.1.1.Y.].].].].].].].].].].].l.                                                                                                                                                                                                                                                                                                                        ",
"                                                                                                                                                                                                                                                                                                                      ].].].].].].].].].].].].].].].].].].].].].].].].].].].].].].2.      l.].].].].].].].].].].].].].].].].].].].].].].].].].].].].].l.                                                                                                                                                                                                                                                                                                                        ",
"                                                                                                                                                                                                                                                                                                                      ].].].].].].].].].].].].].].].].].].].].].].].].].].].].].].2.      l.].].].].].].].].].].].].].].].].].].].].].].].].].].].].].l.                                                                                                                                                                                                                                                                                                                        ",
"                                                                                                                                                                                                                                                                                                                      ].].].].].].].].].].].].].].].].].].].].].].].].].].].].].].2.      l.].].].].].].].].].].].].].].].].].].].].].].].].].].].].].l.                                                                                                                                                                                                                                                                                                                        ",
"                                                                                                                                                                                                                                                                                                                      E.].].].].].].].].].].].].].].].].].].].].].].].].].].].].].b       k.].].].].].].].].].].].].].].].].].].].].].].].].].].].].].l.                                                                                                                                                                                                                                                                                                                        ",
"                                                                                                                                                                                                                                                                                                                      Y.].].].].].].].].].].].].].].].].].].].].].].].].].].].].].q       3.].].].].].].].].].].].].].].].].].].].].].].].].].].].].].3.                                                                                                                                                                                                                                                                                                                        ",
"                                                                                                                                                                                                                                                                                                                      2.].].].].].].].].].].].].].].].].].].].].].].].].].].].].T.        q ].].].].].].].].].].].].].].].].].].].].].].].].].].].].].q                                                                                                                                                                                                                                                                                                                         ",
"                                                                                                                                                                                                                                                                                                                      o E.].].].].].].].].].].].].].].].].].].].].].].].].].].].2.          l.].].].].].].].].].].].].].].].].].].].].].].].].].].].T.                                                                                                                                                                                                                                                                                                                          ",
"                                                                                                                                                                                                                                                                                                                        b ].].].].].].].].].].].].].].].].].].].].].].].].].].T.            * E.].].].].].].].].].].].].].].].].].].].].].].].].].E.*                                                                                                                                                                                                                                                                                                                           ",
"                                                                                                                                                                                                                                                                                                                          2.].].].].].].].].].].].].].].].].].].].].].].].].Y.*               > T.].].].].].].].].].].].].].].].].].].].].].].].E.>                                                                                                                                                                                                                                                                                                                             ",
"                                                                                                                                                                                                                                                                                                                            * l.].].].].].].].].].].].].].].].].].].].].E.2.o                   * 3.].].].].].].].].].].].].].].].].].].].].].3.*                                                                                                                                                                                                                                                                                                                               ",
"                                                                                                                                                                                                                                                                                                                                * q v v v v v v v v v v v v v v v v v q o                           o q v v v v v v v v v v v v v v v v v q o                                                                                                                                                                                                                                                                                                                                   ",
"                                                                                                                                                                                                                                                                                                                                                                                                                                                                                                                                                                                                                                                                                                                                                                                ",
"                                                                                                                                                                                                                                                                                                                                                                                                                                                                                                                                                                                                                                                                                                                                                                                ",
"                                                                                                                                                                                                                                                                                                                                                                                                                                                                                                                                                                                                                                                                                                                                                                                ",
"                                                                                                                                                                                                                                                                                                                                                                                                                                                                                                                                                                                                                                                                                                                                                                                ",
"                                                                                                                                                                                                                                                                                                                                                                                                                                                                                                                                                                                                                                                                                                                                                                                ",
"                                                                                                                                                                                                                                                                                                                                                                                                                                                                                                                                                                                                                                                                                                                                                                                ",
"                                                                                                                                                                                                                                                                                                                                                                                                                                                                                                                                                                                                                                                                                                                                                                                ",
"                                                                                                                                                                                                                                                                                                                                                                                                                                                                                                                                                                                                                                                                                                                                                                                ",
"                                                                                                                                                                                                                                                                                                                                                                                                                                                                                                                                                                                                                                                                                                                                                                                ",
"                                                                                                                                                                                                                                                                                                                                                                                                                                                                                                                                                                                                                                                                                                                                                                                ",
"                                                                                                                                                                                                                                                                                                                                                                                                                                                                                                                                                                                                                                                                                                                                                                                ",
"                                                                                                                                                                                                                                                                                                                                                                                                                                                                                                                                                                                                                                                                                                                                                                                ",
"                                                                                                                                                                                                                                                                                                                                                                                                                                                                                                                                                                                                                                                                                                                                                                                ",
"                                                                                                                                                                                                                                                                                                                                                                                                                                                                                                                                                                                                                                                                                                                                                                                ",
"                                                                                                                                                                                                                                                                                                                                                                                                                                                                                                                                                                                                                                                                                                                                                                                ",
"                                                                                                                                                                                                                                                                                                                                                                                                                                                                                                                                                                                                                                                                                                                                                                                ",
"                                                                                                                                                                                                                                                                                                                                                                                                                                                                                                                                                                                                                                                                                                                                                                                ",
"                                                                                                                                                                                                                                                                                                                                                                                                                                                                                                                                                                                                                                                                                                                                                                                ",
"                                                                                                                                                                                                                                                                                                                                                                                                                                                                                                                                                                                                                                                                                                                                                                                ",
"                                                                                                                                                                                                                                                                                                                                                                                                                                                                                                                                                                                                                                                                                                                                                                                ",
"                                                                                                                                                                                                                                                                                                                                                                                                                                                                                                                                                                                                                                                                                                                                                                                ",
"                                                                                                                                                                                                                                                                                                                                                                                                                                                                                                                                                                                                                                                                                                                                                                                ",
"                                                                                                                                                                                                                                                                                                                                                                                                                                                                                                                                                                                                                                                                                                                                                                                ",
"                                                                                                                                                                                                                                                                                                                                                                                                                                                                                                                                                                                                                                                                                                                                                                                ",
"                                                                                                                                                                                                                                                                                                                                                                                                                                                                                                                                                                                                                                                                                                                                                                                ",
"                                                                                                                                                                                                                                                                                                                                                                                                                                                                                                                                                                                                                                                                                                                                                                                ",
"                                                                                                                                                                                                                                                                                                                                                                                                                                                                                                                                                                                                                                                                                                                                                                                ",
"                                                                                                                                                                                                                                                                                                                                                                                                                                                                                                                                                                                                                                                                                                                                                                                ",
"                                                                                                                                                                                                                                                                                                                                                                                                                                                                                                                                                                                                                                                                                                                                                                                ",
"                                                                                                                                                                                                                                                                                                                                                                                                                                                                                                                                                                                                                                                                                                                                                                                ",
"                                                                                                                                                                                                                                                                                                                          4 h.V.Q.Q.Q.Q.Q.Q.Q.Q.Q.Q.Q.Q.Q.Q.Q.Q.Q.m.) $                       4 ) N.Q.Q.Q.Q.Q.Q.Q.Q.Q.Q.Q.Q.Q.Q.Q.Q.Q.m.` $                       X n m.Q.Q.Q.Q.Q.Q.Q.Q.Q.Q.Q.Q.Q.Q.Q.Q.Q.V.h.k                       X l h.V.Q.Q.Q.Q.Q.Q.Q.Q.Q.Q.Q.Q.Q.Q.Q.Q.V.h.k $                       4 g.N.Q.Q.Q.Q.Q.Q.Q.Q.Q.Q.Q.Q.Q.Q.Q.Q.Q.m.` $                       $ ) N.Q.Q.Q.Q.Q.Q.Q.Q.Q.Q.Q.Q.Q.Q.Q.Q.Q.N.` 4                                                   ",
"                                                                                                                                                                                                                                                                                                                      $ h.Q.Q.Q.Q.Q.Q.Q.Q.Q.Q.Q.Q.Q.Q.Q.Q.Q.Q.Q.Q.Q.Q.Q.l                   ) Q.Q.Q.Q.Q.Q.Q.Q.Q.Q.Q.Q.Q.Q.Q.Q.Q.Q.Q.Q.Q.Q.Q.)                   l V.Q.Q.Q.Q.Q.Q.Q.Q.Q.Q.Q.Q.Q.Q.Q.Q.Q.Q.Q.Q.Q.Q.N.$                 : N.Q.Q.Q.Q.Q.Q.Q.Q.Q.Q.Q.Q.Q.Q.Q.Q.Q.Q.Q.Q.Q.Q.N.5                 $ h.Q.Q.Q.Q.Q.Q.Q.Q.Q.Q.Q.Q.Q.Q.Q.Q.Q.Q.Q.Q.Q.Q.Q.n                   n Q.Q.Q.Q.Q.Q.Q.Q.Q.Q.Q.Q.Q.Q.Q.Q.Q.Q.Q.Q.Q.Q.Q.` X                                               ",
"                                                                                                                                                                                                                                                                                                                    $ N.Q.Q.Q.Q.Q.Q.Q.Q.Q.Q.Q.Q.Q.Q.Q.Q.Q.Q.Q.Q.Q.Q.Q.Q.Q.n               h.Q.Q.Q.Q.Q.Q.Q.Q.Q.Q.Q.Q.Q.Q.Q.Q.Q.Q.Q.Q.Q.Q.Q.Q.Q.h.              n Q.Q.Q.Q.Q.Q.Q.Q.Q.Q.Q.Q.Q.Q.Q.Q.Q.Q.Q.Q.Q.Q.Q.Q.Q.N.$             : V.Q.Q.Q.Q.Q.Q.Q.Q.Q.Q.Q.Q.Q.Q.Q.Q.Q.Q.Q.Q.Q.Q.Q.Q.Q.f             $ N.Q.Q.Q.Q.Q.Q.Q.Q.Q.Q.Q.Q.Q.Q.Q.Q.Q.Q.Q.Q.Q.Q.Q.Q.Q.n               ) Q.Q.Q.Q.Q.Q.Q.Q.Q.Q.Q.Q.Q.Q.Q.Q.Q.Q.Q.Q.Q.Q.Q.Q.Q.N.X                                             ",
"                                                                                                                                                                                                                                                                                                                    N.Q.Q.Q.Q.Q.Q.Q.Q.Q.Q.Q.Q.Q.Q.Q.Q.Q.Q.Q.Q.Q.Q.Q.Q.Q.Q.Q.4           n Q.Q.Q.Q.Q.Q.Q.Q.Q.Q.Q.Q.Q.Q.Q.Q.Q.Q.Q.Q.Q.Q.Q.Q.Q.Q.Q./           : Q.Q.Q.Q.Q.Q.Q.Q.Q.Q.Q.Q.Q.Q.Q.Q.Q.Q.Q.Q.Q.Q.Q.Q.Q.Q.Q.h.          $ N.Q.Q.Q.Q.Q.Q.Q.Q.Q.Q.Q.Q.Q.Q.Q.Q.Q.Q.Q.Q.Q.Q.Q.Q.Q.Q.V.$           ` Q.Q.Q.Q.Q.Q.Q.Q.Q.Q.Q.Q.Q.Q.Q.Q.Q.Q.Q.Q.Q.Q.Q.Q.Q.Q.Q.k           k Q.Q.Q.Q.Q.Q.Q.Q.Q.Q.Q.Q.Q.Q.Q.Q.Q.Q.Q.Q.Q.Q.Q.Q.Q.Q.Q.)                                             ",
"                                                                                                                                                                                                                                                                                                                  k Q.Q.Q.Q.Q.Q.Q.Q.Q.Q.Q.Q.Q.Q.Q.Q.Q.Q.Q.Q.Q.Q.Q.Q.Q.Q.Q.Q.h.        $ Q.Q.Q.Q.Q.Q.Q.Q.Q.Q.Q.Q.Q.Q.Q.Q.Q.Q.Q.Q.Q.Q.Q.Q.Q.Q.Q.Q.V.X         m.Q.Q.Q.Q.Q.Q.Q.Q.Q.Q.Q.Q.Q.Q.Q.Q.Q.Q.Q.Q.Q.Q.Q.Q.Q.Q.Q.Q.k         n Q.Q.Q.Q.Q.Q.Q.Q.Q.Q.Q.Q.Q.Q.Q.Q.Q.Q.Q.Q.Q.Q.Q.Q.Q.Q.Q.Q.`         4 Q.Q.Q.Q.Q.Q.Q.Q.Q.Q.Q.Q.Q.Q.Q.Q.Q.Q.Q.Q.Q.Q.Q.Q.Q.Q.Q.Q.V.          N.Q.Q.Q.Q.Q.Q.Q.Q.Q.Q.Q.Q.Q.Q.Q.Q.Q.Q.Q.Q.Q.Q.Q.Q.Q.Q.Q.Q.4                                           ",
"                                                                                                                                                                                                                                                                                                                  g.Q.Q.Q.Q.Q.Q.Q.Q.Q.Q.Q.Q.Q.Q.Q.Q.Q.Q.Q.Q.Q.Q.Q.Q.Q.Q.Q.Q.Q.:       k Q.Q.Q.Q.Q.Q.Q.Q.Q.Q.Q.Q.Q.Q.Q.Q.Q.Q.Q.Q.Q.Q.Q.Q.Q.Q.Q.Q.Q.l       $ Q.Q.Q.Q.Q.Q.Q.Q.Q.Q.Q.Q.Q.Q.Q.Q.Q.Q.Q.Q.Q.Q.Q.Q.Q.Q.Q.Q.Q.h.        N.Q.Q.Q.Q.Q.Q.Q.Q.Q.Q.Q.Q.Q.Q.Q.Q.Q.Q.Q.Q.Q.Q.Q.Q.Q.Q.Q.Q.V.X       ` Q.Q.Q.Q.Q.Q.Q.Q.Q.Q.Q.Q.Q.Q.Q.Q.Q.Q.Q.Q.Q.Q.Q.Q.Q.Q.Q.Q.Q.4       5 Q.Q.Q.Q.Q.Q.Q.Q.Q.Q.Q.Q.Q.Q.Q.Q.Q.Q.Q.Q.Q.Q.Q.Q.Q.Q.Q.Q.Q._                                           ",
"                                                                                                                                                                                                                                                                                                                  V.Q.Q.Q.Q.Q.Q.Q.Q.Q.Q.Q.Q.Q.Q.Q.Q.Q.Q.Q.Q.Q.Q.Q.Q.Q.Q.Q.Q.Q.k       g.Q.Q.Q.Q.Q.Q.Q.Q.Q.Q.Q.Q.Q.Q.Q.Q.Q.Q.Q.Q.Q.Q.Q.Q.Q.Q.Q.Q.Q.`       5 Q.Q.Q.Q.Q.Q.Q.Q.Q.Q.Q.Q.Q.Q.Q.Q.Q.Q.Q.Q.Q.Q.Q.Q.Q.Q.Q.Q.Q.V.      X Q.Q.Q.Q.Q.Q.Q.Q.Q.Q.Q.Q.Q.Q.Q.Q.Q.Q.Q.Q.Q.Q.Q.Q.Q.Q.Q.Q.Q.Q.:       m.Q.Q.Q.Q.Q.Q.Q.Q.Q.Q.Q.Q.Q.Q.Q.Q.Q.Q.Q.Q.Q.Q.Q.Q.Q.Q.Q.Q.Q./       _ Q.Q.Q.Q.Q.Q.Q.Q.Q.Q.Q.Q.Q.Q.Q.Q.Q.Q.Q.Q.Q.Q.Q.Q.Q.Q.Q.Q.Q.m.                                          ",
"                                                                                                                                                                                                                                                                                                                  Q.Q.Q.Q.Q.Q.Q.Q.Q.Q.Q.Q.Q.Q.Q.Q.Q.Q.Q.Q.Q.Q.Q.Q.Q.Q.Q.Q.Q.Q./       h.Q.Q.Q.Q.Q.Q.Q.Q.Q.Q.Q.Q.Q.Q.Q.Q.Q.Q.Q.Q.Q.Q.Q.Q.Q.Q.Q.Q.Q.h.      / Q.Q.Q.Q.Q.Q.Q.Q.Q.Q.Q.Q.Q.Q.Q.Q.Q.Q.Q.Q.Q.Q.Q.Q.Q.Q.Q.Q.Q.Q.      % Q.Q.Q.Q.Q.Q.Q.Q.Q.Q.Q.Q.Q.Q.Q.Q.Q.Q.Q.Q.Q.Q.Q.Q.Q.Q.Q.Q.Q.Q.4       N.Q.Q.Q.Q.Q.Q.Q.Q.Q.Q.Q.Q.Q.Q.Q.Q.Q.Q.Q.Q.Q.Q.Q.Q.Q.Q.Q.Q.Q.`       ] Q.Q.Q.Q.Q.Q.Q.Q.Q.Q.Q.Q.Q.Q.Q.Q.Q.Q.Q.Q.Q.Q.Q.Q.Q.Q.Q.Q.Q.N.                                          ",
"                                                                                                                                                                                                                                                                                                                  Q.Q.Q.Q.Q.Q.Q.Q.Q.Q.Q.Q.Q.Q.Q.Q.Q.Q.Q.Q.Q.Q.Q.Q.Q.Q.Q.Q.Q.Q./       h.Q.Q.Q.Q.Q.Q.Q.Q.Q.Q.Q.Q.Q.Q.Q.Q.Q.Q.Q.Q.Q.Q.Q.Q.Q.Q.Q.Q.Q.h.      / Q.Q.Q.Q.Q.Q.Q.Q.Q.Q.Q.Q.Q.Q.Q.Q.Q.Q.Q.Q.Q.Q.Q.Q.Q.Q.Q.Q.Q.Q.      % Q.Q.Q.Q.Q.Q.Q.Q.Q.Q.Q.Q.Q.Q.Q.Q.Q.Q.Q.Q.Q.Q.Q.Q.Q.Q.Q.Q.Q.Q.4       N.Q.Q.Q.Q.Q.Q.Q.Q.Q.Q.Q.Q.Q.Q.Q.Q.Q.Q.Q.Q.Q.Q.Q.Q.Q.Q.Q.Q.Q.`       ] Q.Q.Q.Q.Q.Q.Q.Q.Q.Q.Q.Q.Q.Q.Q.Q.Q.Q.Q.Q.Q.Q.Q.Q.Q.Q.Q.Q.Q.N.                                          ",
"                                                                                                                    O a.a.a.Z -                                                               - {.B                                                                                                               Q.Q.Q.Q.Q.Q.Q.Q.Q.Q.Q.Q.Q.Q.Q.Q.Q.Q.Q.Q.Q.Q.Q.Q.Q.Q.Q.Q.Q.Q./       h.Q.Q.Q.Q.Q.Q.Q.Q.Q.Q.Q.Q.Q.Q.Q.Q.Q.Q.Q.Q.Q.Q.Q.Q.Q.Q.Q.Q.Q.h.      / Q.Q.Q.Q.Q.Q.Q.Q.Q.Q.Q.Q.Q.Q.Q.Q.Q.Q.Q.Q.Q.Q.Q.Q.Q.Q.Q.Q.Q.Q.      % Q.Q.Q.Q.Q.Q.Q.Q.Q.Q.Q.Q.Q.Q.Q.Q.Q.Q.Q.Q.Q.Q.Q.Q.Q.Q.Q.Q.Q.Q.4       N.Q.Q.Q.Q.Q.Q.Q.Q.Q.Q.Q.Q.Q.Q.Q.Q.Q.Q.Q.Q.Q.Q.Q.Q.Q.Q.Q.Q.Q.`       ] Q.Q.Q.Q.Q.Q.Q.Q.Q.Q.Q.Q.Q.Q.Q.Q.Q.Q.Q.Q.Q.Q.Q.Q.Q.Q.Q.Q.Q.N.                                          ",
"                                                                                                                    - {.{.{.{.{.Z                         B f.                      O s.Z     - '.h                                                                                                               Q.Q.Q.Q.Q.Q.Q.Q.Q.Q.Q.Q.Q.Q.Q.Q.Q.Q.Q.Q.Q.Q.Q.Q.Q.Q.Q.Q.Q.Q./       h.Q.Q.Q.Q.Q.Q.Q.Q.Q.Q.Q.Q.Q.Q.Q.Q.Q.Q.Q.Q.Q.Q.Q.Q.Q.Q.Q.Q.Q.h.      / Q.Q.Q.Q.Q.Q.Q.Q.Q.Q.Q.Q.Q.Q.Q.Q.Q.Q.Q.Q.Q.Q.Q.Q.Q.Q.Q.Q.Q.Q.      % Q.Q.Q.Q.Q.Q.Q.Q.Q.Q.Q.Q.Q.Q.W.B.Q.Q.Q.Q.Q.Q.Q.Q.Q.Q.Q.Q.Q.Q.4       N.Q.Q.Q.Q.Q.Q.Q.Q.Q.Q.Q.Q.Q.Q.Q.Q.Q.Q.Q.Q.Q.Q.Q.Q.Q.Q.Q.Q.Q.`       ] Q.Q.Q.Q.Q.Q.Q.Q.Q.Q.Q.Q.Q.V.B.V.Q.Q.Q.Q.Q.Q.Q.Q.Q.Q.Q.Q.Q.N.                                          ",
"                                                                                                                    - {.d.- 1 `.[.O                       v.'.                      - {.a.                                                                                                                        Q.Q.Q.Q.Q.Q.Q.Q.Q.Q.Q.Q.6.D D D D H Q.Q.Q.Q.Q.Q.Q.Q.Q.Q.Q.Q./       h.Q.Q.Q.Q.Q.Q.Q.Q.Q.Q.Q.Q.Q.Q.G b.Q.Q.Q.Q.Q.Q.Q.Q.Q.Q.Q.Q.Q.h.      / Q.Q.Q.Q.Q.Q.Q.Q.Q.Q.Q.Q.( D D D D B.Q.Q.Q.Q.Q.Q.Q.Q.Q.Q.Q.Q.      % Q.Q.Q.Q.Q.Q.Q.Q.Q.Q.Q.Q.W.W F F H M.Q.Q.Q.Q.Q.Q.Q.Q.Q.Q.Q.Q.4       N.Q.Q.Q.Q.Q.Q.Q.Q.Q.Q.Q.M.D D D D H Q.Q.Q.Q.Q.Q.Q.Q.Q.Q.Q.Q.`       ] Q.Q.Q.Q.Q.Q.Q.Q.Q.Q.Q.Q.b.F G S [ Q.Q.Q.Q.Q.Q.Q.Q.Q.Q.Q.Q.N.                                          ",
"                                                                                                                    - {.a.    a.{.@       B f.f.B       f.'.[.f.h   O Z f.f.B     d x.{.`.f.O O v.h       B f.f.B       O a.d A f.s.-                                                                             Q.Q.Q.Q.Q.Q.Q.Q.Q.Q.Q.Q.Q.Q.Q.B.H 6.Q.Q.Q.Q.Q.Q.Q.Q.Q.Q.Q.Q./       h.Q.Q.Q.Q.Q.Q.Q.Q.Q.Q.Q.Q.Q.b.G Q.Q.Q.Q.Q.Q.Q.Q.Q.Q.Q.Q.Q.Q.h.      / Q.Q.Q.Q.Q.Q.Q.Q.Q.Q.Q.Q.W 6.Q.Q.Q.Q.Q.Q.Q.Q.Q.Q.Q.Q.Q.Q.Q.Q.      % Q.Q.Q.Q.Q.Q.Q.Q.Q.Q.Q.Q.( R W.Q.6.B.Q.Q.Q.Q.Q.Q.Q.Q.Q.Q.Q.Q.4       N.Q.Q.Q.Q.Q.Q.Q.Q.Q.Q.Q.Q.Q.Q.Q.[ ( Q.Q.Q.Q.Q.Q.Q.Q.Q.Q.Q.Q.`       ] Q.Q.Q.Q.Q.Q.Q.Q.Q.Q.Q.Q.G [ Q.B.S B.Q.Q.Q.Q.Q.Q.Q.Q.Q.Q.Q.N.                                          ",
"                                                                                                                    - {.a.  O '.'.      x.{.`.v.{.v.    '.{.{.'.Z   B [.`.v.{.a.  h '.{.[.'.@ - {.B     s.{.`.v.{.`.O     {.[.[.v.{.'.O                                                                           Q.Q.Q.Q.Q.Q.Q.Q.Q.Q.Q.Q.Q.Q.M.H 6.Q.Q.Q.Q.Q.Q.Q.Q.Q.Q.Q.Q.Q./       h.Q.Q.Q.Q.Q.Q.Q.Q.Q.Q.Q.Q.Q.G b.Q.Q.Q.Q.Q.Q.Q.Q.Q.Q.Q.Q.Q.Q.h.      / Q.Q.Q.Q.Q.Q.Q.Q.Q.Q.Q.Q.W M.Q.Q.Q.Q.Q.Q.Q.Q.Q.Q.Q.Q.Q.Q.Q.Q.      % Q.Q.Q.Q.Q.Q.Q.Q.Q.Q.Q.Q.R M.Q.Q.Q.Q.Q.Q.Q.Q.Q.Q.Q.Q.Q.Q.Q.Q.4       N.Q.Q.Q.Q.Q.Q.Q.Q.Q.Q.Q.Q.Q.Q.Q.H M.Q.Q.Q.Q.Q.Q.Q.Q.Q.Q.Q.Q.`       ] Q.Q.Q.Q.Q.Q.Q.Q.Q.Q.Q.Q.S B.Q.Q.F M.Q.Q.Q.Q.Q.Q.Q.Q.Q.Q.Q.N.                                          ",
"                                                                                                                    - {.[.'.{.'.1     B {.a.    a.{.Z     v.'.      - O     x.[.    - {.a.    - {.B   B {.a.    B {.a.    {.'.-   a.{.h                                                                           Q.Q.Q.Q.Q.Q.Q.Q.Q.Q.Q.Q.Q.M.F H 6.Q.Q.Q.Q.Q.Q.Q.Q.Q.Q.Q.Q.Q./       h.Q.Q.Q.Q.Q.Q.Q.Q.Q.Q.Q.Q.M.G Q.M.M.Q.Q.Q.Q.Q.Q.Q.Q.Q.Q.Q.Q.h.      / Q.Q.Q.Q.Q.Q.Q.Q.Q.Q.Q.Q.W W H W 6.Q.Q.Q.Q.Q.Q.Q.Q.Q.Q.Q.Q.Q.      % Q.Q.Q.Q.Q.Q.Q.Q.Q.Q.Q.Q.H 5.W R ( W.Q.Q.Q.Q.Q.Q.Q.Q.Q.Q.Q.Q.4       N.Q.Q.Q.Q.Q.Q.Q.Q.Q.Q.Q.Q.Q.Q.6.H Q.Q.Q.Q.Q.Q.Q.Q.Q.Q.Q.Q.Q.`       ] Q.Q.Q.Q.Q.Q.Q.Q.Q.Q.Q.Q.Q G [ Q G Q.Q.Q.Q.Q.Q.Q.Q.Q.Q.Q.Q.N.                                          ",
"                                                                                                                    - {.`.v.{.s.      v.[.        [.v.    v.'.        O B a.v.{.    - {.a.    - {.B   x.{.O       '.`.    {.c.    - {.B                                                                           Q.Q.Q.Q.Q.Q.Q.Q.Q.Q.Q.Q.Q.Q.6.M.H 5.Q.Q.Q.Q.Q.Q.Q.Q.Q.Q.Q.Q./       h.Q.Q.Q.Q.Q.Q.Q.Q.Q.Q.Q.Q.E [ Q.' Q Q.Q.Q.Q.Q.Q.Q.Q.Q.Q.Q.Q.h.      / Q.Q.Q.Q.Q.Q.Q.Q.Q.Q.Q.Q.W ' B.6.F M.Q.Q.Q.Q.Q.Q.Q.Q.Q.Q.Q.Q.      % Q.Q.Q.Q.Q.Q.Q.Q.Q.Q.Q.Q.H H M.M.W W Q.Q.Q.Q.Q.Q.Q.Q.Q.Q.Q.Q.4       N.Q.Q.Q.Q.Q.Q.Q.Q.Q.Q.Q.Q.Q.Q.W 6.Q.Q.Q.Q.Q.Q.Q.Q.Q.Q.Q.Q.Q.`       ] Q.Q.Q.Q.Q.Q.Q.Q.Q.Q.Q.Q.' F Q G G V.Q.Q.Q.Q.Q.Q.Q.Q.Q.Q.Q.N.                                          ",
"                                                                                                                    - {.a.  a.{.d     v.'.        `.'.    v.'.      V {.{.'.[.{.    - {.a.    - {.B   v.'.        v.'.    {.a.    - {.B                                                                           Q.Q.Q.Q.Q.Q.Q.Q.Q.Q.Q.Q.Q.Q.Q.Q.b.H Q.Q.Q.Q.Q.Q.Q.Q.Q.Q.Q.Q./       h.Q.Q.Q.Q.Q.Q.Q.Q.Q.Q.Q.B.F B.Q.' Q Q.Q.Q.Q.Q.Q.Q.Q.Q.Q.Q.Q.h.      / Q.Q.Q.Q.Q.Q.Q.Q.Q.Q.Q.Q.Q.Q.Q.Q.[ ( Q.Q.Q.Q.Q.Q.Q.Q.Q.Q.Q.Q.      % Q.Q.Q.Q.Q.Q.Q.Q.Q.Q.Q.Q.H b.Q.Q.W.D W.Q.Q.Q.Q.Q.Q.Q.Q.Q.Q.Q.4       N.Q.Q.Q.Q.Q.Q.Q.Q.Q.Q.Q.Q.Q.B.D B.Q.Q.Q.Q.Q.Q.Q.Q.Q.Q.Q.Q.Q.`       ] Q.Q.Q.Q.Q.Q.Q.Q.Q.Q.Q.B.S B.Q.Q.G b.Q.Q.Q.Q.Q.Q.Q.Q.Q.Q.Q.N.                                          ",
"                                                                                                                    - {.a.  O [.v.    x.[.        '.v.    v.'.    - {.x.O   d.{.    - {.a.    - {.B   z.[.        `.`.    {.a.    - {.B                                                                           Q.Q.Q.Q.Q.Q.Q.Q.Q.Q.Q.Q.W.B.Q.Q.M.H Q.Q.Q.Q.Q.Q.Q.Q.Q.Q.Q.Q./       h.Q.Q.Q.Q.Q.Q.Q.Q.Q.Q.Q.' S G G F F [ Q.Q.Q.Q.Q.Q.Q.Q.Q.Q.Q.h.      / Q.Q.Q.Q.Q.Q.Q.Q.Q.Q.Q.Q.5.Q.Q.Q.5.W Q.Q.Q.Q.Q.Q.Q.Q.Q.Q.Q.Q.      % Q.Q.Q.Q.Q.Q.Q.Q.Q.Q.Q.Q.R b.Q.Q.B.D W.Q.Q.Q.Q.Q.Q.Q.Q.Q.Q.Q.4       N.Q.Q.Q.Q.Q.Q.Q.Q.Q.Q.Q.Q.Q.( ( Q.Q.Q.Q.Q.Q.Q.Q.Q.Q.Q.Q.Q.Q.`       ] Q.Q.Q.Q.Q.Q.Q.Q.Q.Q.Q.M.G Q.Q.Q.W ' Q.Q.Q.Q.Q.Q.Q.Q.Q.Q.Q.N.                                          ",
"                                                                                                                    - {.a.    d.{.1   a.{.d     h {.d.    v.'.    d {.B     `.{.    - {.a.    - {.B   Z {.Z     - {.f.    {.a.    - {.B                                                                           Q.Q.Q.Q.Q.Q.Q.Q.Q.Q.Q.Q.[ R M.B.R ' Q.Q.Q.Q.Q.Q.Q.Q.Q.Q.Q.Q./       h.Q.Q.Q.Q.Q.Q.Q.Q.Q.Q.Q.V.B.B.B.' W V.Q.Q.Q.Q.Q.Q.Q.Q.Q.Q.Q.h.      / Q.Q.Q.Q.Q.Q.Q.Q.Q.Q.Q.Q.R [ M.M.H 6.Q.Q.Q.Q.Q.Q.Q.Q.Q.Q.Q.Q.      % Q.Q.Q.Q.Q.Q.Q.Q.Q.Q.Q.Q.5.H M.B.( ( Q.Q.Q.Q.Q.Q.Q.Q.Q.Q.Q.Q.4       N.Q.Q.Q.Q.Q.Q.Q.Q.Q.Q.Q.Q.Q.H M.Q.Q.Q.Q.Q.Q.Q.Q.Q.Q.Q.Q.Q.Q.`       ] Q.Q.Q.Q.Q.Q.Q.Q.Q.Q.Q.V.F [ B.M.S B.Q.Q.Q.Q.Q.Q.Q.Q.Q.Q.Q.N.                                          ",
"                                                                                                                    - {.a.    1 {.d.  O '.{.f.s.[.'.-     z.{.f.Z O [.'.a.v.{.{.      [.'.s.- - {.B   O `.{.f.s.[.'.-     {.a.    - {.B                                                                           Q.Q.Q.Q.Q.Q.Q.Q.Q.Q.Q.Q.Q.[ H F [ Q.Q.Q.Q.Q.Q.Q.Q.Q.Q.Q.Q.Q./       h.Q.Q.Q.Q.Q.Q.Q.Q.Q.Q.Q.Q.Q.Q.Q.b.[ Q.Q.Q.Q.Q.Q.Q.Q.Q.Q.Q.Q.h.      / Q.Q.Q.Q.Q.Q.Q.Q.Q.Q.Q.Q.B.( F H 5.Q.Q.Q.Q.Q.Q.Q.Q.Q.Q.Q.Q.Q.      % Q.Q.Q.Q.Q.Q.Q.Q.Q.Q.Q.Q.Q.[ H F ( W.Q.Q.Q.Q.Q.Q.Q.Q.Q.Q.Q.Q.4       N.Q.Q.Q.Q.Q.Q.Q.Q.Q.Q.Q.Q.M.W Q.Q.Q.Q.Q.Q.Q.Q.Q.Q.Q.Q.Q.Q.Q.`       ] Q.Q.Q.Q.Q.Q.Q.Q.Q.Q.Q.Q.M.E S G [ Q.Q.Q.Q.Q.Q.Q.Q.Q.Q.Q.Q.N.                                          ",
"                                                                                                                    O f.h       a.s.    - z.`.'.d.-       - v.'.d.  h v.'.v.Z v.      a.`.'.d - v.d     - z.`.'.f.-       v.B     - v.d                                                                           Q.Q.Q.Q.Q.Q.Q.Q.Q.Q.Q.Q.Q.Q.Q.Q.Q.Q.Q.Q.Q.Q.Q.Q.Q.Q.Q.Q.Q.Q./       h.Q.Q.Q.Q.Q.Q.Q.Q.Q.Q.Q.Q.Q.Q.Q.Q.Q.Q.Q.Q.Q.Q.Q.Q.Q.Q.Q.Q.Q.h.      / Q.Q.Q.Q.Q.Q.Q.Q.Q.Q.Q.Q.Q.Q.Q.Q.Q.Q.Q.Q.Q.Q.Q.Q.Q.Q.Q.Q.Q.Q.      % Q.Q.Q.Q.Q.Q.Q.Q.Q.Q.Q.Q.Q.Q.Q.Q.Q.Q.Q.Q.Q.Q.Q.Q.Q.Q.Q.Q.Q.Q.4       N.Q.Q.Q.Q.Q.Q.Q.Q.Q.Q.Q.Q.Q.Q.Q.Q.Q.Q.Q.Q.Q.Q.Q.Q.Q.Q.Q.Q.Q.`       ] Q.Q.Q.Q.Q.Q.Q.Q.Q.Q.Q.Q.Q.Q.Q.Q.Q.Q.Q.Q.Q.Q.Q.Q.Q.Q.Q.Q.Q.N.                                          ",
"                                                                                                                                                                                                                                                                                                                  Q.Q.Q.Q.Q.Q.Q.Q.Q.Q.Q.Q.Q.Q.Q.Q.Q.Q.Q.Q.Q.Q.Q.Q.Q.Q.Q.Q.Q.Q./       h.Q.Q.Q.Q.Q.Q.Q.Q.Q.Q.Q.Q.Q.Q.Q.Q.Q.Q.Q.Q.Q.Q.Q.Q.Q.Q.Q.Q.Q.h.      / Q.Q.Q.Q.Q.Q.Q.Q.Q.Q.Q.Q.Q.Q.Q.Q.Q.Q.Q.Q.Q.Q.Q.Q.Q.Q.Q.Q.Q.Q.      % Q.Q.Q.Q.Q.Q.Q.Q.Q.Q.Q.Q.Q.Q.Q.Q.Q.Q.Q.Q.Q.Q.Q.Q.Q.Q.Q.Q.Q.Q.4       N.Q.Q.Q.Q.Q.Q.Q.Q.Q.Q.Q.Q.Q.Q.Q.Q.Q.Q.Q.Q.Q.Q.Q.Q.Q.Q.Q.Q.Q.`       ] Q.Q.Q.Q.Q.Q.Q.Q.Q.Q.Q.Q.Q.Q.Q.Q.Q.Q.Q.Q.Q.Q.Q.Q.Q.Q.Q.Q.Q.N.                                          ",
"                                                                                                                                                                                                                                                                                                                  Q.Q.Q.Q.Q.Q.Q.Q.Q.Q.Q.Q.Q.Q.Q.Q.Q.Q.Q.Q.Q.Q.Q.Q.Q.Q.Q.Q.Q.Q./       h.Q.Q.Q.Q.Q.Q.Q.Q.Q.Q.Q.Q.Q.Q.Q.Q.Q.Q.Q.Q.Q.Q.Q.Q.Q.Q.Q.Q.Q.h.      / Q.Q.Q.Q.Q.Q.Q.Q.Q.Q.Q.Q.Q.Q.Q.Q.Q.Q.Q.Q.Q.Q.Q.Q.Q.Q.Q.Q.Q.Q.      % Q.Q.Q.Q.Q.Q.Q.Q.Q.Q.Q.Q.Q.Q.Q.Q.Q.Q.Q.Q.Q.Q.Q.Q.Q.Q.Q.Q.Q.Q.4       N.Q.Q.Q.Q.Q.Q.Q.Q.Q.Q.Q.Q.Q.Q.Q.Q.Q.Q.Q.Q.Q.Q.Q.Q.Q.Q.Q.Q.Q.`       ] Q.Q.Q.Q.Q.Q.Q.Q.Q.Q.Q.Q.Q.Q.Q.Q.Q.Q.Q.Q.Q.Q.Q.Q.Q.Q.Q.Q.Q.N.                                          ",
"                                                                                                                                                                                                                                                                                                                  V.Q.Q.Q.Q.Q.Q.Q.Q.Q.Q.Q.Q.Q.Q.Q.Q.Q.Q.Q.Q.Q.Q.Q.Q.Q.Q.Q.Q.Q.l       g.Q.Q.Q.Q.Q.Q.Q.Q.Q.Q.Q.Q.Q.Q.Q.Q.Q.Q.Q.Q.Q.Q.Q.Q.Q.Q.Q.Q.Q.h.      k Q.Q.Q.Q.Q.Q.Q.Q.Q.Q.Q.Q.Q.Q.Q.Q.Q.Q.Q.Q.Q.Q.Q.Q.Q.Q.Q.Q.Q.Q.      % Q.Q.Q.Q.Q.Q.Q.Q.Q.Q.Q.Q.Q.Q.Q.Q.Q.Q.Q.Q.Q.Q.Q.Q.Q.Q.Q.Q.Q.Q.4       N.Q.Q.Q.Q.Q.Q.Q.Q.Q.Q.Q.Q.Q.Q.Q.Q.Q.Q.Q.Q.Q.Q.Q.Q.Q.Q.Q.Q.Q./       ] Q.Q.Q.Q.Q.Q.Q.Q.Q.Q.Q.Q.Q.Q.Q.Q.Q.Q.Q.Q.Q.Q.Q.Q.Q.Q.Q.Q.Q.m.                                          ",
"                                                                                                                                                                                                                                                                                                                  m.Q.Q.Q.Q.Q.Q.Q.Q.Q.Q.Q.Q.Q.Q.Q.Q.Q.Q.Q.Q.Q.Q.Q.Q.Q.Q.Q.Q.Q.4       _ Q.Q.Q.Q.Q.Q.Q.Q.Q.Q.Q.Q.Q.Q.Q.Q.Q.Q.Q.Q.Q.Q.Q.Q.Q.Q.Q.Q.Q._       4 Q.Q.Q.Q.Q.Q.Q.Q.Q.Q.Q.Q.Q.Q.Q.Q.Q.Q.Q.Q.Q.Q.Q.Q.Q.Q.Q.Q.Q.m.        V.Q.Q.Q.Q.Q.Q.Q.Q.Q.Q.Q.Q.Q.Q.Q.Q.Q.Q.Q.Q.Q.Q.Q.Q.Q.Q.Q.Q.Q.%       g.Q.Q.Q.Q.Q.Q.Q.Q.Q.Q.Q.Q.Q.Q.Q.Q.Q.Q.Q.Q.Q.Q.Q.Q.Q.Q.Q.Q.Q.k       l Q.Q.Q.Q.Q.Q.Q.Q.Q.Q.Q.Q.Q.Q.Q.Q.Q.Q.Q.Q.Q.Q.Q.Q.Q.Q.Q.Q.Q.g.                                          ",
"                                                                                                                                                                                                                                                                                                                  / Q.Q.Q.Q.Q.Q.Q.Q.Q.Q.Q.Q.Q.Q.Q.Q.Q.Q.Q.Q.Q.Q.Q.Q.Q.Q.Q.Q.N.        4 Q.Q.Q.Q.Q.Q.Q.Q.Q.Q.Q.Q.Q.Q.Q.Q.Q.Q.Q.Q.Q.Q.Q.Q.Q.Q.Q.Q.Q.4       X V.Q.Q.Q.Q.Q.Q.Q.Q.Q.Q.Q.Q.Q.Q.Q.Q.Q.Q.Q.Q.Q.Q.Q.Q.Q.Q.Q.Q._         h.Q.Q.Q.Q.Q.Q.Q.Q.Q.Q.Q.Q.Q.Q.Q.Q.Q.Q.Q.Q.Q.Q.Q.Q.Q.Q.Q.Q.m.        l Q.Q.Q.Q.Q.Q.Q.Q.Q.Q.Q.Q.Q.Q.Q.Q.Q.Q.Q.Q.Q.Q.Q.Q.Q.Q.Q.Q.Q.%       X Q.Q.Q.Q.Q.Q.Q.Q.Q.Q.Q.Q.Q.Q.Q.Q.Q.Q.Q.Q.Q.Q.Q.Q.Q.Q.Q.Q.Q.k                                           ",
"                                                                                                                                                                                                                                                                                                                  X V.Q.Q.Q.Q.Q.Q.Q.Q.Q.Q.Q.Q.Q.Q.Q.Q.Q.Q.Q.Q.Q.Q.Q.Q.Q.Q.Q./           h.Q.Q.Q.Q.Q.Q.Q.Q.Q.Q.Q.Q.Q.Q.Q.Q.Q.Q.Q.Q.Q.Q.Q.Q.Q.Q.Q.N.          / Q.Q.Q.Q.Q.Q.Q.Q.Q.Q.Q.Q.Q.Q.Q.Q.Q.Q.Q.Q.Q.Q.Q.Q.Q.Q.Q.V.%         4 Q.Q.Q.Q.Q.Q.Q.Q.Q.Q.Q.Q.Q.Q.Q.Q.Q.Q.Q.Q.Q.Q.Q.Q.Q.Q.Q.Q.k         X N.Q.Q.Q.Q.Q.Q.Q.Q.Q.Q.Q.Q.Q.Q.Q.Q.Q.Q.Q.Q.Q.Q.Q.Q.Q.Q.Q.`           h.Q.Q.Q.Q.Q.Q.Q.Q.Q.Q.Q.Q.Q.Q.Q.Q.Q.Q.Q.Q.Q.Q.Q.Q.Q.Q.Q.N.                                            ",
"                                                                                                                                                                                                                                                                                                                    l Q.Q.Q.Q.Q.Q.Q.Q.Q.Q.Q.Q.Q.Q.Q.Q.Q.Q.Q.Q.Q.Q.Q.Q.Q.Q.N.            % V.Q.Q.Q.Q.Q.Q.Q.Q.Q.Q.Q.Q.Q.Q.Q.Q.Q.Q.Q.Q.Q.Q.Q.Q.Q.V.%           X m.Q.Q.Q.Q.Q.Q.Q.Q.Q.Q.Q.Q.Q.Q.Q.Q.Q.Q.Q.Q.Q.Q.Q.Q.Q.Q.l             _ Q.Q.Q.Q.Q.Q.Q.Q.Q.Q.Q.Q.Q.Q.Q.Q.Q.Q.Q.Q.Q.Q.Q.Q.Q.Q.`             4 Q.Q.Q.Q.Q.Q.Q.Q.Q.Q.Q.Q.Q.Q.Q.Q.Q.Q.Q.Q.Q.Q.Q.Q.Q.Q.N.%           % N.Q.Q.Q.Q.Q.Q.Q.Q.Q.Q.Q.Q.Q.Q.Q.Q.Q.Q.Q.Q.Q.Q.Q.Q.Q.Q.:                                             ",
"                                                                                                                                                                                                                                                                                                                      / Q.Q.Q.Q.Q.Q.Q.Q.Q.Q.Q.Q.Q.Q.Q.Q.Q.Q.Q.Q.Q.Q.Q.Q.m.%               : N.Q.Q.Q.Q.Q.Q.Q.Q.Q.Q.Q.Q.Q.Q.Q.Q.Q.Q.Q.Q.Q.Q.Q.V.:               % N.Q.Q.Q.Q.Q.Q.Q.Q.Q.Q.Q.Q.Q.Q.Q.Q.Q.Q.Q.Q.Q.Q.Q.Q./                 _ Q.Q.Q.Q.Q.Q.Q.Q.Q.Q.Q.Q.Q.Q.Q.Q.Q.Q.Q.Q.Q.Q.Q.Q.g.X               k Q.Q.Q.Q.Q.Q.Q.Q.Q.Q.Q.Q.Q.Q.Q.Q.Q.Q.Q.Q.Q.Q.Q.Q.N.%               % N.Q.Q.Q.Q.Q.Q.Q.Q.Q.Q.Q.Q.Q.Q.Q.Q.Q.Q.Q.Q.Q.Q.Q.V.k                                               ",
"                                                                                                                                                                                                                                                                                                                        % h.Q.Q.Q.Q.Q.Q.Q.Q.Q.Q.Q.Q.Q.Q.Q.Q.Q.Q.Q.Q.V./ X                   % ] Q.Q.Q.Q.Q.Q.Q.Q.Q.Q.Q.Q.Q.Q.Q.Q.Q.Q.Q.Q.Q.` %                     / N.Q.Q.Q.Q.Q.Q.Q.Q.Q.Q.Q.Q.Q.Q.Q.Q.Q.Q.Q.Q.h.4                     k N.Q.Q.Q.Q.Q.Q.Q.Q.Q.Q.Q.Q.Q.Q.Q.Q.Q.Q.Q.Q.V.l                     % ] Q.Q.Q.Q.Q.Q.Q.Q.Q.Q.Q.Q.Q.Q.Q.Q.Q.Q.Q.Q.V./ X                   % ] Q.Q.Q.Q.Q.Q.Q.Q.Q.Q.Q.Q.Q.Q.Q.Q.Q.Q.Q.Q.Q.h.%                                                 ",
"                                                                                                                                                                                                                                                                                                                            % 5 k k k k k k k k k k k k k k k k k 4 X                           X 4 k k k k k k k k k k k k k k k k k 5 X                             4 k k k k k k k k k k k k k k k k k k $                             : 5 k k k k k k k k k k k k k k k k k :                             % 5 k k k k k k k k k k k k k k k k k 4 X                           X 4 k k k k k k k k k k k k k k k k k 5 X                                                     ",
"                                                                                                                                                                                                                                                                                                                                                                                                                                                                                                                                                                                                                                                                                                                                                                                ",
"                                                                                                                                                                                                                                                                                                                                                                                                                                                                                                                                                                                                                                                                                                                                                                                ",
"                                                                                                                                                                                                                                                                                                                                                                                                                                                                                                                                                                                                                                                                                                                                                                                ",
"                                                                                                                                                                                                                                                                                                                                                                                                                                                                                                                                                                                                                                                                                                                                                                                ",
"                                                                                                                                                                                                                                                                                                                                                                                                                                                                                                                                                                                                                                                                                                                                                                                ",
"                                                                                                                                                                                                                                                                                                                                                                                                                                                                                                                                                                                                                                                                                                                                                                                ",
"                                                                                                                                                                                                                                                                                                                                                                                                                                                                                                                                                                                                                                                                                                                                                                                ",
"                                                                                                                                                                                                                                                                                                                                                                                                                                                                                                                                                                                                                                                                                                                                                                                ",
"                                                                                                                                                                                                                                                                                                                                                                                                                                                                                                                                                                                                                                                                                                                                                                                ",
"                                                                                                                                                                                                                                                                                                                                                                                                                                                                                                                                                                                                                                                                                                                                                                                ",
"                                                                                                                                                                                                                                                                                                                                                                                                                                                                                                                                                                                                                                                                                                                                                                                ",
"                                                                                                                                                                                                                                                                                                                                                                                                                                                                                                                                                                                                                                                                                                                                                                                ",
"                                                                                                                                                                                                                                                                                                                                                                                                                                                                                                                                                                                                                                                                                                                                                                                ",
"                                                                                                                                                                                                                                                                                                                                                                                                                                                                                                                                                                                                                                                                                                                                                                                ",
"                                                                                                                                                                                                                                                                                                                                                                                                                                                                                                                                                                                                                                                                                                                                                                                ",
"                                                                                                                                                                                                                                                                                                                                                                                                                                                                                                                                                                                                                                                                                                                                                                                ",
"                                                                                                                                                                                                                                                                                                                                                                                                                                                                                                                                                                                                                                                                                                                                                                                ",
"                                                                                                                                                                                                                                                                                                                                                                                                                                                                                                                                                                                                                                                                                                                                                                                ",
"                                                                                                                                                                                                                                                                                                                                                                                                                                                                                                                                                                                                                                                                                                                                                                                ",
"                                                                                                                                                                                                                                                                                                                                                                                                                                                                                                                                                                                                                                                                                                                                                                                ",
"                                                                                                                                                                                                                                                                                                                                                                                                                                                                                                                                                                                                                                                                                                                                                                                ",
"                                                                                                                                                                                                                                                                                                                                                                                                                                                                                                                                                                                                                                                                                                                                                                                ",
"                                                                                                                                                                                                                                                                                                                                                                                                                                                                                                                                                                                                                                                                                                                                                                                ",
"                                                                                                                                                                                                                                                                                                                                                                                                                                                                                                                                                                                                                                                                                                                                                                                ",
"                                                                                                                                                                                                                                                                                                                                                                                            X l h.V.Q.Q.Q.Q.Q.Q.Q.Q.Q.Q.Q.Q.Q.Q.Q.Q.V.h.k $                                                                                                                                                                                                                                                                                                                                     ",
"                                                                                                                                                                                                                                                                                                                                                                                          : N.Q.Q.Q.Q.Q.Q.Q.Q.Q.Q.Q.Q.Q.Q.Q.Q.Q.Q.Q.Q.Q.Q.N.5                                                                                                                                                                                                                                                                                                                                   ",
"                                                                                                                                                                                                                                                                                                                                                                                        : V.Q.Q.Q.Q.Q.Q.Q.Q.Q.Q.Q.Q.Q.Q.Q.Q.Q.Q.Q.Q.Q.Q.Q.Q.Q.f                                                                                                                                                                                                                                                                                                                                 ",
"                                                                                                                                                                                                                                                                                                                                                                                      $ N.Q.Q.Q.Q.Q.Q.Q.Q.Q.Q.Q.Q.Q.Q.Q.Q.Q.Q.Q.Q.Q.Q.Q.Q.Q.Q.V.$                                                                                                                                                                                                                                                                                                                               ",
"                                                                                                                                                                                                                                                                                                                                                                                      ` Q.Q.Q.Q.Q.Q.Q.Q.Q.Q.Q.Q.Q.Q.Q.Q.Q.Q.Q.Q.Q.Q.Q.Q.Q.Q.Q.Q._                                                                                                                                                                                                                                                                                                                               ",
"                                                                                                                                                                                                                                                                                                                                                                                      N.Q.Q.Q.Q.Q.Q.Q.Q.Q.Q.Q.Q.Q.Q.Q.Q.Q.Q.Q.Q.Q.Q.Q.Q.Q.Q.Q.Q.V.                                                                                                                                                                                                                                                                                                                              ",
"                                                                                                                                                                                                                                                                                                                                                                                    % Q.Q.Q.Q.Q.Q.Q.Q.Q.Q.Q.Q.Q.Q.Q.Q.Q.Q.Q.Q.Q.Q.Q.Q.Q.Q.Q.Q.Q.Q.:                                                                                                                                                                                                                                                                                                                             ",
"                                                                                                                                                                                                                                                                                                                                                                                    4 Q.Q.Q.Q.Q.Q.Q.Q.Q.Q.Q.Q.Q.Q.Q.Q.Q.Q.Q.Q.Q.Q.Q.Q.Q.Q.Q.Q.Q.Q.4                                                                                                                                                                                                                                                                                                                             ",
"                                                                                                                                                                                                                                                                                                                                                                                    4 Q.Q.Q.Q.Q.Q.Q.Q.Q.Q.Q.Q.Q.Q.Q.Q.Q.Q.Q.Q.Q.Q.Q.Q.Q.Q.Q.Q.Q.Q.4                                                                                                                                                                                                                                                                                                                             ",
"                                                                                                                                                                                                                                                                                                                                                                                    4 Q.Q.Q.Q.Q.Q.Q.Q.Q.Q.Q.Q.Q.Q.Q.Q.Q.Q.Q.Q.Q.Q.Q.Q.Q.Q.Q.Q.Q.Q.4                                                                                                                                                                                                                                                                                                                             ",
"                                                                                                                                                                                                                                                                                                                                                                                    4 Q.Q.Q.Q.Q.Q.Q.Q.Q.Q.Q.Q.Q.Q.Q.Q.Q.Q.Q.Q.Q.Q.Q.Q.Q.Q.Q.Q.Q.Q.4                                                                                                                                                                                                                                                                                                                             ",
"                                                                                                                                                                                                                                                                                                                                                                                    4 Q.Q.Q.Q.Q.Q.Q.Q.Q.Q.Q.Q.Q.Q.W.Q.Q.Q.Q.Q.Q.Q.Q.Q.Q.Q.Q.Q.Q.Q.4                                                                                                                                                                                                                                                                                                                             ",
"                                                                                                                                                                                                                                                                                                                                                                                    4 Q.Q.Q.Q.Q.Q.Q.Q.Q.Q.Q.Q.Q.B.H ( Q.Q.Q.Q.Q.Q.Q.Q.Q.Q.Q.Q.Q.Q.4                                                                                                                                                                                                                                                                                                                             ",
"                                                                                                                                                                                                                                                                                                                                                                                    4 Q.Q.Q.Q.Q.Q.Q.Q.Q.Q.Q.Q.B.H 6.( ( Q.Q.Q.Q.Q.Q.Q.Q.Q.Q.Q.Q.Q.4                                                                                                                                                                                                                                                                                                                             ",
"                                                                                                                                                                                                                                                                                                                                                                                    4 Q.Q.Q.Q.Q.Q.Q.Q.Q.Q.Q.B.H 6.Q.Q.( ( Q.Q.Q.Q.Q.Q.Q.Q.Q.Q.Q.Q.4                                                                                                                                                                                                                                                                                                                             ",
"                                                                                                                                                                                                                                                                                                                                                                                    4 Q.Q.Q.Q.Q.Q.Q.Q.Q.Q.B.H 6.Q.Q.Q.Q.( ( Q.Q.Q.Q.Q.Q.Q.Q.Q.Q.Q.4                                                                                                                                                                                                                                                                                                                             ",
"                                                                                                                                                                                                                                                                                                                                                                                    4 Q.Q.Q.Q.Q.Q.Q.Q.Q.B.H 6.Q.Q.Q.Q.Q.Q.( ( Q.Q.Q.Q.Q.Q.Q.Q.Q.Q.4                                                                                                                                                                                                                                                                                                                             ",
"                                                                                                                                                                                                                                                                                                                                                                                    4 Q.Q.Q.Q.Q.Q.Q.Q.Q.W 6.Q.Q.Q.Q.Q.Q.Q.Q.( b.Q.Q.Q.Q.Q.Q.Q.Q.Q.4                                                                                                                                                                                                                                                                                                                             ",
"                                                                                                                                                                                                                                                                                                                                                                                    4 Q.Q.Q.Q.Q.Q.Q.Q.Q.W.Q.Q.Q.Q.Q.Q.Q.Q.Q.Q.Q.Q.Q.Q.Q.Q.Q.Q.Q.Q.4                                                                                                                                                                                                                                                                                                                             ",
"                                                                                                                                                                                                                                                                                                                                                                                    4 Q.Q.Q.Q.Q.Q.Q.Q.Q.Q.Q.Q.Q.Q.Q.Q.Q.Q.Q.Q.Q.Q.Q.Q.Q.Q.Q.Q.Q.Q.4                                                                                                                                                                                                                                                                                                                             ",
"                                                                                                                                                                                                                                                                                                                                                                                    4 Q.Q.Q.Q.Q.Q.Q.Q.Q.Q.Q.Q.Q.Q.Q.Q.Q.Q.Q.Q.Q.Q.Q.Q.Q.Q.Q.Q.Q.Q.4                                                                                                                                                                                                                                                                                                                             ",
"                                                                                                                                                                                                                                                                                                                                                                                    4 Q.Q.Q.Q.Q.Q.Q.Q.Q.Q.Q.Q.Q.Q.Q.Q.Q.Q.Q.Q.Q.Q.Q.Q.Q.Q.Q.Q.Q.Q.4                                                                                                                                                                                                                                                                                                                             ",
"                                                                                                                                                                                                                                                                                                                                                                                    4 Q.Q.Q.Q.Q.Q.Q.Q.Q.Q.Q.Q.Q.Q.Q.Q.Q.Q.Q.Q.Q.Q.Q.Q.Q.Q.Q.Q.Q.Q.4                                                                                                                                                                                                                                                                                                                             ",
"                                                                                                                                                                                                                                                                                                                                                                                    % Q.Q.Q.Q.Q.Q.Q.Q.Q.Q.Q.Q.Q.Q.Q.Q.Q.Q.Q.Q.Q.Q.Q.Q.Q.Q.Q.Q.Q.Q.4                                                                                                                                                                                                                                                                                                                             ",
"                                                                                                                                                                                                                                                                                                                                                                                    X V.Q.Q.Q.Q.Q.Q.Q.Q.Q.Q.Q.Q.Q.Q.Q.Q.Q.Q.Q.Q.Q.Q.Q.Q.Q.Q.Q.Q.Q.X                                                                                                                                                                                                                                                                                                                             ",
"                                                                                                                                                                                                                                                                                                                                                                                      h.Q.Q.Q.Q.Q.Q.Q.Q.Q.Q.Q.Q.Q.Q.Q.Q.Q.Q.Q.Q.Q.Q.Q.Q.Q.Q.Q.Q.h.                                                                                                                                                                                                                                                                                                                              ",
"                                                                                                                                                                                                                                                                                                                                                                                      4 Q.Q.Q.Q.Q.Q.Q.Q.Q.Q.Q.Q.Q.Q.Q.Q.Q.Q.Q.Q.Q.Q.Q.Q.Q.Q.Q.Q.k                                                                                                                                                                                                                                                                                                                               ",
"                                                                                                                                                                                                                                                                                                                                                                                        _ Q.Q.Q.Q.Q.Q.Q.Q.Q.Q.Q.Q.Q.Q.Q.Q.Q.Q.Q.Q.Q.Q.Q.Q.Q.Q._                                                                                                                                                                                                                                                                                                                                 ",
"                                                                                                                                                                                                                                                                                                                                                                                          _ Q.Q.Q.Q.Q.Q.Q.Q.Q.Q.Q.Q.Q.Q.Q.Q.Q.Q.Q.Q.Q.Q.Q.Q.]                                                                                                                                                                                                                                                                                                                                   ",
"                                                                                                                                                                                                                                                                                                                                                                                            k N.Q.Q.Q.Q.Q.Q.Q.Q.Q.Q.Q.Q.Q.Q.Q.Q.Q.Q.Q.Q.V.l                                                                                                                                                                                                                                                                                                                                     ",
"                                                                                                                                                                                                                                                                                                                                                                                                : 5 k k k k k k k k k k k k k k k k k :                                                                                                                                                                                                                                                                                                                                         ",
"                                                                                                                                                                                                                                                                                                                                                                                                                                                                                                                                                                                                                                                                                                                                                                                ",
"                                                                                                                                                                                                                                                                                                                                # & 3 3 3 3 3 3 3 3 3 3 3 3 3 3 3 &                               # & 2 2 2 2 2 2 2 2 2 2 2 2 2 2 2 #                             . + , , , , , , , , , , , , , , , , +                                                                                                                                                                                                                                                                         ",
"                                                                                                                                                                                                                                                                                                                          X c K.I.I.I.I.I.I.I.I.I.I.I.I.I.I.I.I.I.I.I.&.3                   # ^ G.L.L.L.L.L.L.L.L.L.L.L.L.L.L.L.L.L.L.G.+.#                   , j.D.).).).).).).).).).).).).).).).).).).Z.| +                                                                                                                                                                                                                                                                   ",
"                                                                                                                                                                                                                                                                                                                        & F.I.I.I.I.I.I.I.I.I.I.I.I.I.I.I.I.I.I.I.I.I.I.I.X.              x G.L.L.L.L.L.L.L.L.L.L.L.L.L.L.L.L.L.L.L.L.L.L.L.c               M ).).).).).).).).).).).).).).).).).).).).).).).Z.6                                                                                                                                                                                                                                                                 ",
"                                                                                                                                                                                                                                                                                                                      & K.I.I.I.I.I.I.I.I.I.I.I.I.I.I.I.I.I.I.I.I.I.I.I.I.I.+.          x L.L.L.L.L.L.L.L.L.L.L.L.L.L.L.L.L.L.L.L.L.L.L.L.L.L.c           M ).).).).).).).).).).).).).).).).).).).).).).).).).).,                                                                                                                                                                                                                                                               ",
"                                                                                                                                                                                                                                                                                                                      F.I.I.I.I.I.I.I.I.I.I.I.I.I.I.I.I.I.I.I.I.I.I.I.I.I.I.I.0       # L.L.L.L.L.L.L.L.L.L.L.L.L.L.L.L.L.L.L.L.L.L.L.L.L.L.L.L.2       g ).).).).).).).).).).).).).).).).).).).).).).).).).).).D..                                                                                                                                                                                                                                                             ",
"                                                                                                                                                                                                                                                                                                                    0 I.I.I.I.I.I.I.I.I.I.I.I.I.I.I.I.I.I.I.I.I.I.I.I.I.I.I.I.K.      +.L.L.L.L.L.L.L.L.L.L.L.L.L.L.L.L.L.L.L.L.L.L.L.L.L.L.L.L.%.      C.).).).).).).).).).).).).).).).).).).).).).).).).).).).).M                                                                                                                                                                                                                                                             ",
"                                                                                                                                                                                                                                                                                                                    &.I.I.I.I.I.I.I.I.I.I.I.I.I.I.I.I.I.I.I.I.I.I.I.I.I.I.I.I.I.3     G.L.L.L.L.L.L.L.L.L.L.L.L.L.L.L.L.L.L.L.L.L.L.L.L.L.L.L.L.L.X   + ).).).).).).).).).).).).).).).).).).).).).).).).).).).).).Z.                                                                                                                                                                                                                                                            ",
"                                                                                                                                                                                                                                                                                                                    K.I.I.I.I.I.I.I.I.I.I.I.I.I.I.I.I.I.I.I.I.I.I.I.I.I.I.I.I.I.0   # L.L.L.L.L.L.L.L.L.L.L.L.L.L.L.L.L.L.L.L.L.L.L.L.L.L.L.L.L.L.&   6 ).).).).).).).).).).).).).).).).).).).).).).).).).).).).).).                                                                                                                                                                                                                                                            ",
"                                                                                                                                        - a.a.              a.a.-                                                                                                                                                   I.I.I.I.I.I.I.I.I.I.I.I.I.I.I.I.I.I.I.I.I.I.I.I.I.I.I.I.I.I.~   2 L.L.L.L.L.L.L.L.L.L.L.L.L.L.L.L.L.L.L.L.L.L.L.L.L.L.L.L.L.L.2   g ).).).).).).).).).).).).).).).).).).).).).).).).).).).).).).+                                                                                                                                                                                                                                                           ",
"                                                                                                                                        d {.{.d           B {.{.d                                                                                                                                                   I.I.I.I.I.I.I.I.I.I.I.I.I.I.I.I.I.I.I.I.I.I.I.I.I.I.I.I.I.I.~   2 L.L.L.L.L.L.L.L.L.L.L.L.L.L.L.L.L.L.L.L.L.L.L.L.L.L.L.L.L.L.2   g ).).).).).).).).).).).).).).).).).).).).).).).).).).).).).).+                                                                                                                                                                                                                                                           ",
"                                                                                                                                        d {.{.v.          v.{.{.d                                                                                                                                                   I.I.I.I.I.I.I.I.I.I.I.I.I.I.I.I.J. .I.I.I.I.I.I.I.I.I.I.I.I.~   2 L.L.L.L.L.L.L.L.L.L.L.L.L.L.L.L.L.L.L.L.L.L.L.L.L.L.L.L.L.L.2   g ).).).).).).).).).).).S.q.).).).).).).).).).).).).).).).).).+                                                                                                                                                                                                                                                           ",
"                                                                                                                                        d {.'.{.O       - {.v.{.d       d s.f.s.-     h Z       - a.-     Z f.s.-                                                                                                   I.I.I.I.I.I.I.I.I.I.I.I.I.I.I.J.I ;.I.I.I.I.I.I.I.I.I.I.I.I.~   2 L.L.L.L.L.L.L.L.L.L.L.L.L.L.L.L.L.L.L.L.L.L.L.L.L.L.L.L.L.L.2   g ).).).).).).).).).).).).9.8.).).).).).).).).).).).).).).).).+                                                                                                                                                                                                                                                           ",
"                                                                                                                                        d {.Z [.a.      a.{.a.{.d     h {.[.v.{.[.1   Z {.d     f.[.    s.{.`.'.{.d                                                                                                 I.I.I.I.I.I.I.I.I.I.I.I.I.I.J.I ;.I.I.I.I.I.I.I.I.I.I.I.I.I.~   2 L.L.L.L.L.L.L.L.L.H.L.L.L.L.L.L.L.L.L.H.L.L.L.L.L.L.L.L.L.L.2   g ).).).).).).).).).).).).).9.8.).).).).).).).).).).).).).).).+                                                                                                                                                                                                                                                           ",
"                                                                                                                                        d {.B d.[.O     '.f.B {.d   O '.'.O   - [.v.  O {.a.    '.f.  d {.Z   O [.v.                                                                                                I.I.I.I.I.I.I.I.I.I.I.I.I.J.I ;.I.I.I.I.I.I.I.I.I.I.I.I.I.I.~   2 L.L.L.L.L.L.L.L.L.Y *.L.L.L.L.L.L.L.H.P ;.L.L.L.L.L.L.L.L.L.2   g ).).).).).).).).).).).).).).9.9.).).).).).).).).).).).).).).+                                                                                                                                                                                                                                                           ",
"                                                                                                                                        d {.B d {.h   h {.d B {.d   h {.B       d.{.@   v.v.  d {.d   d.{.d d d v.{.                                                                                                I.I.I.I.I.I.I.I.I.I.I.I.J.I ;.I.I.I.I.I.I.I.I.I.I.I.I.I.I.I.~   2 L.L.L.L.L.L.L.L.L.G.K *.L.L.L.L.L.H.P *.L.L.L.L.L.L.L.L.L.L.2   g ).).).).).).).).).).).).).).).9.9.).).).).).).).).).).).).).+                                                                                                                                                                                                                                                           ",
"                                                                                                                                        d {.B   v.v.  x.'.  B {.d   B {.d       B {.d   Z {.@ f.'.    z.{.{.{.{.{.{.                                                                                                I.I.I.I.I.I.I.I.I.I.I.J.I ;.I.I.I.I.I.I.I.I.I.I.I.I.I.I.I.I.~   2 L.L.L.L.L.L.L.L.L.L.G.K *.L.L.L.H.P *.L.L.L.L.L.L.L.L.L.L.L.2   g ).).).).).).).).).).).).).).).).9.9.).).).).).).).).).).).).+                                                                                                                                                                                                                                                           ",
"                                                                                                                                        d {.B   Z {.B {.B   B {.d   B {.h       a.{.1   O {.a.'.f.    z.{.1 - - - -                                                                                                 I.I.I.I.I.I.I.I.I.I.I.I.....I.I.I.I.I.I.I.I.I.I.I.I.I.I.I.I.~   2 L.L.L.L.L.L.L.L.L.L.L.G.K *.L.H.P *.L.L.L.L.L.L.L.L.L.L.L.L.2   g ).).).).).).).).).).).).).).).S.i q.).).).).).).).).).).).).+                                                                                                                                                                                                                                                           ",
"                                                                                                                                        d {.B   O [.[.{.-   B {.d   O {.v.    O '.'.      v.[.{.d     Z {.d                                                                                                         I.I.I.I.I.I.I.I.I.I.I.I.I.....I.I.I.I.I.I.I.I.I.I.I.I.I.I.I.~   2 L.L.L.L.L.L.L.L.L.L.L.L.G.K *.P *.L.L.L.L.L.L.L.L.L.L.L.L.L.2   g ).).).).).).).).).).).).).).S.i q.).).).).).).).).).).).).).+                                                                                                                                                                                                                                                           ",
"                                                                                                                                        d {.B     d.{.f.    B {.d     a.{.v.a.`.{.B       Z {.'.      O '.{.f.a.v.Z                                                                                                 I.I.I.I.I.I.I.I.I.I.I.I.I.I.....I.I.I.I.I.I.I.I.I.I.I.I.I.I.~   2 L.L.L.L.L.L.L.L.L.L.L.L.L.G.K *.L.L.L.L.L.L.L.L.L.L.L.L.L.L.2   g ).).).).).).).).).).).).).S.i q.).).).).).).).).).).).).).).+                                                                                                                                                                                                                                                           ",
"                                                                                                                                        1 v.d     - f.1     h v.1       B v.'.v.d         O f.B         - z.`.'.x.d                                                                                                 I.I.I.I.I.I.I.I.I.I.I.I.I.I.I.....I.I.I.I.I.I.I.I.I.I.I.I.I.~   2 L.L.L.L.L.L.L.L.L.L.L.L.L.L.H.L.L.L.L.L.L.L.L.L.L.L.L.L.L.L.2   g ).).).).).).).).).).).).S.i q.).).).).).).).).).).).).).).).+                                                                                                                                                                                                                                                           ",
"                                                                                                                                                                                                                                                                                                                    I.I.I.I.I.I.I.I.I.I.I.I.I.I.I.I.....I.I.I.I.I.I.I.I.I.I.I.I.~   2 L.L.L.L.L.L.L.L.L.L.L.L.L.L.L.L.L.L.L.L.L.L.L.L.L.L.L.L.L.L.2   g ).).).).).).).).).).).S.i q.).).).).).).).).).).).).).).).).+                                                                                                                                                                                                                                                           ",
"                                                                                                                                                                                                                                                                                                                    I.I.I.I.I.I.I.I.I.I.I.I.I.I.I.I.I.>.I.I.I.I.I.I.I.I.I.I.I.I.~   2 L.L.L.L.L.L.L.L.L.L.L.L.L.L.L.L.L.L.L.L.L.L.L.L.L.L.L.L.L.L.2   g ).).).).).).).).).).).S.t.).).).).).).).).).).).).).).).).).+                                                                                                                                                                                                                                                           ",
"                                                                                                                                                                                                                                                                                                                    I.I.I.I.I.I.I.I.I.I.I.I.I.I.I.I.I.I.I.I.I.I.I.I.I.I.I.I.I.I.~   2 L.L.L.L.L.L.L.L.L.L.L.L.L.L.L.L.L.L.L.L.L.L.L.L.L.L.L.L.L.L.2   g ).).).).).).).).).).).).).).).).).).).).).).).).).).).).).).+                                                                                                                                                                                                                                                           ",
"                                                                                                                                                                                                                                                                                                                    I.I.I.I.I.I.I.I.I.I.I.I.I.I.I.I.I.I.I.I.I.I.I.I.I.I.I.I.I.I.~   2 L.L.L.L.L.L.L.L.L.L.L.L.L.L.L.L.L.L.L.L.L.L.L.L.L.L.L.L.L.L.2   g ).).).).).).).).).).).).).).).).).).).).).).).).).).).).).).+                                                                                                                                                                                                                                                           ",
"                                                                                                                                                                                                                                                                                                                    K.I.I.I.I.I.I.I.I.I.I.I.I.I.I.I.I.I.I.I.I.I.I.I.I.I.I.I.I.I.x   # L.L.L.L.L.L.L.L.L.L.L.L.L.L.L.L.L.L.L.L.L.L.L.L.L.L.L.L.L.L.2   g ).).).).).).).).).).).).).).).).).).).).).).).).).).).).).).                                                                                                                                                                                                                                                            ",
"                                                                                                                                                                                                                                                                                                                    &.I.I.I.I.I.I.I.I.I.I.I.I.I.I.I.I.I.I.I.I.I.I.I.I.I.I.I.I.I.3     G.L.L.L.L.L.L.L.L.L.L.L.L.L.L.L.L.L.L.L.L.L.L.L.L.L.L.L.L.L.X   + ).).).).).).).).).).).).).).).).).).).).).).).).).).).).).C.                                                                                                                                                                                                                                                            ",
"                                                                                                                                                                                                                                                                                                                    x I.I.I.I.I.I.I.I.I.I.I.I.I.I.I.I.I.I.I.I.I.I.I.I.I.I.I.I.F.      ^ L.L.L.L.L.L.L.L.L.L.L.L.L.L.L.L.L.L.L.L.L.L.L.L.L.L.L.L.@.      j.).).).).).).).).).).).).).).).).).).).).).).).).).).).).M                                                                                                                                                                                                                                                             ",
"                                                                                                                                                                                                                                                                                                                    X F.I.I.I.I.I.I.I.I.I.I.I.I.I.I.I.I.I.I.I.I.I.I.I.I.I.I.I.0       # L.L.L.L.L.L.L.L.L.L.L.L.L.L.L.L.L.L.L.L.L.L.L.L.L.L.L.L.#       , ).).).).).).).).).).).).).).).).).).).).).).).).).).).Z.+                                                                                                                                                                                                                                                             ",
"                                                                                                                                                                                                                                                                                                                      3 I.I.I.I.I.I.I.I.I.I.I.I.I.I.I.I.I.I.I.I.I.I.I.I.I.I.+.          x L.L.L.L.L.L.L.L.L.L.L.L.L.L.L.L.L.L.L.L.L.L.L.L.L.L.!           } ).).).).).).).).).).).).).).).).).).).).).).).).).).6                                                                                                                                                                                                                                                               ",
"                                                                                                                                                                                                                                                                                                                        8 F.I.I.I.I.I.I.I.I.I.I.I.I.I.I.I.I.I.I.I.I.I.I.I.+.              ! L.L.L.L.L.L.L.L.L.L.L.L.L.L.L.L.L.L.L.L.L.L.L.L.!               M ).).).).).).).).).).).).).).).).).).).).).).).D.g                                                                                                                                                                                                                                                                 ",
"                                                                                                                                                                                                                                                                                                                          # +.F.I.I.I.I.I.I.I.I.I.I.I.I.I.I.I.I.I.I.I.&.3                   # +.G.L.L.L.L.L.L.L.L.L.L.L.L.L.L.L.L.L.L.G.#.2                   , j.).).).).).).).).).).).).).).).).).).).D.} +                                                                                                                                                                                                                                                                   ",
"                                                                                                                                                                                                                                                                                                                                & 3 3 3 3 3 3 3 3 3 3 3 3 3 3 3 3 & X                             & 2 2 2 2 2 2 2 2 2 2 2 2 2 2 2 2 & X                           . , , , , , , , , , , , , , , , , , +                                                                                                                                                                                                                                                                         ",
"                                                                                                                                                                                                                                                                                                                                                                                                                                                                                                                                                                                                                                                                                                                                                                                ",
"                                                                                                                                                                                                                                                                                                                                                                                                                                                                                                                                                                                                                                                                                                                                                                                ",
"                                                                                                                                                                                                                                                                                                                                                                                                                                                                                                                                                                                                                                                                                                                                                                                ",
"                                                                                                                                                                                                                                                                                                                                                                                                                                                                                                                                                                                                                                                                                                                                                                                ",
"                                                                                                                                                                                                                                                                                                                                                                                                                                                                                                                                                                                                                                                                                                                                                                                ",
"                                                                                                                                                                                                                                                                                                                                                                                                                                                                                                                                                                                                                                                                                                                                                                                ",
"                                                                                                                                                                                                                                                                                                                                                                                                                                                                                                                                                                                                                                                                                                                                                                                ",
"                                                                                                                                                                                                                                                                                                                                                                                                                                                                                                                                                                                                                                                                                                                                                                                ",
"                                                                                                                                                                                                                                                                                                                                                                                                                                                                                                                                                                                                                                                                                                                                                                                ",
"                                                                                                                                                                                                                                                                                                                                                                                                                                                                                                                                                                                                                                                                                                                                                                                ",
"                                                                                                                                                                                                                                                                                                                                                                                                                                                                                                                                                                                                                                                                                                                                                                                ",
"                                                                                                                                                                                                                                                                                                                                                                                                                                                                                                                                                                                                                                                                                                                                                                                ",
"                                                                                                                                                                                                                                                                                                                                                                                                                                                                                                                                                                                                                                                                                                                                                                                ",
"                                                                                                                                                                                                                                                                                                                                                                                                                                                                                                                                                                                                                                                                                                                                                                                ",
"                                                                                                                                                                                                                                                                                                                                                                                                                                                                                                                                                                                                                                                                                                                                                                                ",
"                                                                                                                                                                                                                                                                                                                                                                                                                                                                                                                                                                                                                                                                                                                                                                                ",
"                                                                                                                                                                                                                                                                                                                                                                                                                                                                                                                                                                                                                                                                                                                                                                                ",
"                                                                                                                                                                                                                                                                                                                                                                                                                                                                                                                                                                                                                                                                                                                                                                                ",
"                                                                                                                                                                                                                                                                                                                                                                                                                                                                                                                                                                                                                                                                                                                                                                                ",
"                                                                                                                                                                                                                                                                                                                                                                                                                                                                                                                                                                                                                                                                                                                                                                                ",
"                                                                                                                                                                                                                                                                                                                                                                                                                                                                                                                                                                                                                                                                                                                                                                                ",
"                                                                                                                                                                                                                                                                                                                                                                                                                                                                                                                                                                                                                                                                                                                                                                                ",
"                                                                                                                                                                                                                                                                                                                                                                                                                                                                                                                                                                                                                                                                                                                                                                                ",
"                                                                                                                                                                                                                                                                                                                                                                                                                                                                                                                                                                                                                                                                                                                                                                                ",
"                                                                                                                                                                                                                                                                                                                                                                                                                                                                                                                                                                                                                                                                                                                                                                                ",
"                                                                                                                                                                                                                                                                                                                                                                                                                                                                                                                                                                                                                                                                                                                                                                                ",
"                                                                                                                                                                                                                                                                                                                                                                                                                                                                                                                                                                                                                                                                                                                                                                                ",
"                                                                                                                                                                                                                                                                                                                                                                                                                                                                                                                                                                                                                                                                                                                                                                                ",
"                                                                                                                                                                                                                                                                                                                                                                                                                                                                                                                                                                                                                                                                                                                                                                                ",
"                                                                                                                                                                                                                                                                                                                                                                                                                                                                                                                                                                                                                                                                                                                                                                                ",
"                                                                                                                                                                                                                                                                                                                                                                                                                                                                                                                                                                                                                                                                                                                                                                                ",
"                                                                                                                                                                                                                                                                                                                                                                                                                                                                                                                                                                                                                                                                                                                                                                                ",
"                                                                                                                                                                                                                                                                                                                            < r.^._._._._._._._._._._._._._._._._._.y.9.+                       < 9.!._._._._._._._._._._._._._._._._._.y.0.+                       . N y._._._._._._._._._._._._._._._._._.^.r.t                       . m r.^._._._._._._._._._._._._._._._._.^.r.t +                                                                                                                                                                                         ",
"                                                                                                                                                                                                                                                                                                                        + r._._._._._._._._._._._._._._._._._._._._._._._.m                   9._._._._._._._._._._._._._._._._._._._._._._._.9.                  m ^._._._._._._._._._._._._._._._._._._._._._._.!.+                 = !._._._._._._._._._._._._._._._._._._._._._._.!.r                                                                                                                                                                                       ",
"                                                                                                                                                                                                                                                                                                                      + !._._._._._._._._._._._._._._._._._._._._._._._._._.N               r._._._._._._._._._._._._._._._._._._._._._._._._._.r.              N _._._._._._._._._._._._._._._._._._._._._._._._._.!.+             = ^._._._._._._._._._._._._._._._._._._._._._._._._._.t                                                                                                                                                                                     ",
"                                                                                                                                                                                                                                                                                                                      !._._._._._._._._._._._._._._._._._._._._._._._._._._._.<           N _._._._._._._._._._._._._._._._._._._._._._._._._._._.N           = _._._._._._._._._._._._._._._._._._._._._._._._._._._.r.          + !._._._._._._._._._._._._._._._._._._._._._._._._._._.^.+                                                                                                                                                                                   ",
"                                                                                                                                                                                                                                                                                                                    t _._._._._._._._._._._._._._._._._._._._._._._._._._._._.r.        + _._._._._._._._._._._._._._._._._._._._._._._._._._._._.^..         y._._._._._._._._._._._._._._._._._._._._._._._._._._._._.t         N _._._._._._._._._._._._._._._._._._._._._._._._._._._._.0.                                                                                                                                                                                  ",
"                                                                                                                                                                                                                                                                                                                    w._._._._._._._._._._._._._._._._._._._._._._._._._._._._._.=       t _._._._._._._._._._._._._._._._._._._._._._._._._._._._._.m       + _._._._._._._._._._._._._._._._._._._._._._._._._._._._._.r.        !._._._._._._._._._._._._._._._._._._._._._._._._._._._._.^..                                                                                                                                                                                 ",
"                                                                                                                                                                                                                                                                                                                    ^._._._._._._._._._._._._._._._._._._._._._._._._._._._._._.t       w._._._._._._._._._._._._._._._._._._._._._._._._._._._._._.0.      r _._._._._._._._._._._._._._._._._._._._._._._._._._._._._.^.      . _._._._._._._._._._._._._._._._._._._._._._._._._._._._._._.=                                                                                                                                                                                 ",
"                                                                                                  d a.1           d a.- d {.B                                                       O Z f.s.h         B a.a.Z h -                 `.d.  1 Z f.s.B O       h a.a.a.h -                                               _._._._._._._._._._._._._._._._._._._._._._._._._._._._._._.N       r._._._._._._._._._._._._._._._._._._._._._._._._._._._._._.r.      N _._._._._._._._._._._._._._._._._._._._._._._._._._._._._._.      + _._._._._._._._._._._._._._._._._._._._._._._._._._._._._._.<                                                                                                                                                                                 ",
"                                                                                                  d {.d.          x.[.  1 '.h                                                       '.{.[.[.{.A       v.{.{.{.{.{.s.            d {.B   x.{.'.[.{.'.O     z.{.{.{.{.{.f.O                                           _._._._._._._._._._._._._._._._._._._._._._._._._._._._._._.N       r._._._._._._._._._._._._._._._._._._._._._._._._._._._._._.r.      N _._._._._._._._._._._._._._._._._._._._._._._._._._._._._._.      + _._._._._._._._._._._._._._._._._._._._._._._._._._._._._._.<                                                                                                                                                                                 ",
"                                                                                                    v.[.        - {.f.                                                              Z 1   O v.{.O     v.'.- - d z.{.s.          f.[.O   d O     a.{.Z     z.{.- - d z.{.v.                                          _._._._._._._._._._._._._._._._._._._._._._._._._._._._._._.N       r._._._._._._._._._._._._._._._._._._._._._._._._._._._._._.r.      N _._._._._._._._._._._._._._._._._._._._._._._._._._._._._._.      + _._._._._._._._._._._._._._._._._._._._._._._._._._._._._._.<                                                                                                                                                                                 ",
"                                                                                                    Z {.d       B {.d   1 v.h     O A f.s.-     a.h       B a.      1 a.-                   a.{.@     v.'.        x.{.@         '.f.            1 {.a.    z.{.        d.{.d                                         _._._._._._._._._._._._._._.~.~._._._._._._._._._._._._._._.N       r._._._._._._._._._._._._._._._._._._._._._._._._._._._._._.r.      N _._._._._._._._._._._._._._._._._._._._._._._._._._._._._._.      + _._._._._._._._._._._._._._._._._._._._._._._._._._._._._._.<                                                                                                                                                                                 ",
"                                                                                                    O {.d.      v.'.    d {.B     `.{.`.'.[.1   v.[.      [.{.d     f.[.                    v.'.      v.'.        d {.Z       d {.h           O s.{.1     z.{.        - {.d.                                        _._._._._._._._._._._._.p.a u p y e._._._._._._._._._._._._.N       r._._._._._._._._._.u p._._.p.y i._._.p.u _._._._._._._._._.r.      N _._._._._._._._._._._._.p y y y y 8._._._._._._._._._._._._.      + _._._._._._._._._._._._.y y y y a y._._._._._._._._._._._._.<                                                                                                                                                                                 ",
"                                                                                                      v.[.O   - {.B     d {.B   B {.Z   - [.c.  a.{.d   h {.{.d.    [.f.                  B {.B       v.'.        O {.d.      f.[.        d.'.{.{.Z       z.{.          {.f.                                        _._._._._._._._._._._.~.u e._._.~.p 9._._._._._._._._._._._.N       r._._._._._._._._._.8.e._._.e.y e._._.e.8._._._._._._._._._.r.      N _._._._._._._._._._._._.p i._._._._._._._._._._._._._._._._.      + _._._._._._._._._._._._.y ~._._.e.u /._._._._._._._._._._._.<                                                                                                                                                                                 ",
"                                                                                                      d {.d   d.{.-     d {.B   x.[.d d d `.'.  - {.a.  f.'.v.'.  h {.h                 - '.'.        v.'.        O {.d.      '.f.        B f.v.{.`.O     z.{.          {.f.                                        _._._._._._._._._._._.8.8._._._._.i.u /._._._._._._._._._._.N       r._._._._._._._._._.y.7._._.7.8.7._._.7.y._._._._._._._._._.r.      N _._._._._._._._._._._._.p i._._._._._._._._._._._._._._._._.      + _._._._._._._._._._._._.y ~._._._.p i._._._._._._._._._._._.<                                                                                                                                                                                 ",
"                                                                                                      O [.f.  '.c.      d {.B   v.{.{.{.{.{.{.    v.v.  [.d.B {.1 f.[.                  `.[.-         v.'.        d {.Z     h {.d               d {.Z     z.{.        - {.d.                                        _._._._._._._._._._._.a y._._._._._.p i._._._._._._._._._._.N       r._._._._._._._._._./.u /./.y ~.y /._.y ~._._._._._._._._._.r.      N _._._._._._._._._._._._.p e.i.i.i._._._._._._._._._._._._._.      + _._._._._._._._._._._._.y ~._._._.u i._._._._._._._._._._._.<                                                                                                                                                                                 ",
"                                                                                                        d.[.h {.B       d {.B   x.[.- - - - -     a.{.Z {.d O {.a.'.f.                f.{.h           v.'.        f.{.-     f.'.                  {.a.    z.{.        f.{.d                                         _._._._._._._._._._._.p i._._._._._.p y._._._._._._._._._._.N       r._._._._._._._._._._.7.i.y.7._.7.e.i.a _._._._._._._._._._.r.      N _._._._._._._._._._._._.p p p p p _._._._._._._._._._._._._.      + _._._._._._._._._._._._.y 9.e.e.7.a _._._._._._._._._._._._.<                                                                                                                                                                                 ",
"                                                                                                        d {.[.'.        d {.B   a.{.d             d {.[.'.    v.[.{.h               A {.a.            v.'.    d x.{.d.      [.f.        -       V {.B     z.{.    1 s.{.f.                                          _._._._._._._._._._._.7.e._._._./._.u i._._._._._._._._._._.N       r._._._._._._._._._._.e.9.8.e._.e.8.8.9._._._._._._._._._._.r.      N _._._._._._._._._._._._.p i._._._._._._._._._._._._._._._._.      + _._._._._._._._._._._._.y 9.e.8.y /._._._._._._._._._._._._.<                                                                                                                                                                                 ",
"                                                                                                          `.{.f.        d {.B   O '.[.f.a.v.B       '.{.f.    Z {.[.              h {.[.v.v.v.v.h     v.{.'.[.{.{.d.      h {.d       d {.v.x.v.{.'.      z.{.'.[.{.{.d.O                                           _._._._._._._._._._._.e.7._._._.8.8.p _._._._._._._._._._._.N       r._._._._._._._._._._.i.p p p._.p.u a i._._._._._._._._._._.r.      N _._._._._._._._._._._._.p i._._._._._._._._._._._._._._._._.      + _._._._._._._._._._._._.y ~._._.p e._._._._._._._._._._._._.<                                                                                                                                                                                 ",
"                                                                                                          B f.-         1 v.d     - z.`.'.x.1       Z v.1     O v.a.              h v.v.v.v.v.v.d     Z f.f.d.Z O         x.'.        O d.v.v.x.a.O       B f.f.f.Z O                                               _._._._._._._._._._._./.p 8.p.~.y.y 8._._._._._._._._._._._.N       r._._._._._._._._._._._.u p _._._.u p _._._._._._._._._._._.r.      N _._._._._._._._._._._._.p e.i.i.i.p._._._._._._._._._._._._.      + _._._._._._._._._._._._.y ~._._.y.p _._._._._._._._._._._._.<                                                                                                                                                                                 ",
"                                                                                                                                                                                                                        O v.a.                                                                                      _._._._._._._._._._._._.~.8.u u 7.e.7./._._._._._._._._._._.N       r._._._._._._._._._._._.e.e._._._.e.e._._._._._._._._._._._.r.      N _._._._._._._._._._._._.8.7.7.7.7.e._._._._._._._._._._._._.      + _._._._._._._._._._._._.7./._._._.7.p._._._._._._._._._._._.<                                                                                                                                                                                 ",
"                                                                                                                                                                                                                                                                                                                    _._._._._._._._._._._._._._._._._._._._._._._._._._._._._._.N       r._._._._._._._._._._._._._._._._._._._._._._._._._._._._._.r.      N _._._._._._._._._._._._._._._._._._._._._._._._._._._._._._.      + _._._._._._._._._._._._._._._._._._._._._._._._._._._._._._.<                                                                                                                                                                                 ",
"                                                                                                                                                                                                                                                                                                                    _._._._._._._._._._._._._._._._._._._._._._._._._._._._._._.N       r._._._._._._._._._._._._._._._._._._._._._._._._._._._._._.r.      N _._._._._._._._._._._._._._._._._._._._._._._._._._._._._._.      + _._._._._._._._._._._._._._._._._._._._._._._._._._._._._._.<                                                                                                                                                                                 ",
"                                                                                                                                                                                                                                                                                                                    _._._._._._._._._._._._._._._._._._._._._._._._._._._._._._.N       r._._._._._._._._._._._._._._._._._._._._._._._._._._._._._.r.      N _._._._._._._._._._._._._._._._._._._._._._._._._._._._._._.      + _._._._._._._._._._._._._._._._._._._._._._._._._._._._._._.<                                                                                                                                                                                 ",
"                                                                                                                                                                                                                                                                                                                    ^._._._._._._._._._._._._._._._._._._._._._._._._._._._._._.m       w._._._._._._._._._._._._._._._._._._._._._._._._._._._._._.r.      t _._._._._._._._._._._._._._._._._._._._._._._._._._._._._._.      + _._._._._._._._._._._._._._._._._._._._._._._._._._._._._._.<                                                                                                                                                                                 ",
"                                                                                                                                                                                                                                                                                                                    y._._._._._._._._._._._._._._._._._._._._._._._._._._._._._.<       9._._._._._._._._._._._._._._._._._._._._._._._._._._._._._.9.      < _._._._._._._._._._._._._._._._._._._._._._._._._._._._._.y.        ^._._._._._._._._._._._._._._._._._._._._._._._._._._._._._.+                                                                                                                                                                                 ",
"                                                                                                                                                                                                                                                                                                                    N _._._._._._._._._._._._._._._._._._._._._._._._._._._._.!.        < _._._._._._._._._._._._._._._._._._._._._._._._._._._._._.<       . ^._._._._._._._._._._._._._._._._._._._._._._._._._._._._.9.        r._._._._._._._._._._._._._._._._._._._._._._._._._._._._.y.                                                                                                                                                                                  ",
"                                                                                                                                                                                                                                                                                                                    . ^._._._._._._._._._._._._._._._._._._._._._._._._._._._.N           r._._._._._._._._._._._._._._._._._._._._._._._._._._._.!.          N _._._._._._._._._._._._._._._._._._._._._._._._._._._.^.+         < _._._._._._._._._._._._._._._._._._._._._._._._._._._._.t                                                                                                                                                                                   ",
"                                                                                                                                                                                                                                                                                                                      m _._._._._._._._._._._._._._._._._._._._._._._._._._.!.            + ^._._._._._._._._._._._._._._._._._._._._._._._._._.^.+           . y._._._._._._._._._._._._._._._._._._._._._._._._._._.m             9._._._._._._._._._._._._._._._._._._._._._._._._._._.0.                                                                                                                                                                                    ",
"                                                                                                                                                                                                                                                                                                                        N _._._._._._._._._._._._._._._._._._._._._._._._.y.+               = !._._._._._._._._._._._._._._._._._._._._._._._.^.=               + !._._._._._._._._._._._._._._._._._._._._._._._._.N                 9._._._._._._._._._._._._._._._._._._._._._._._._.w..                                                                                                                                                                                     ",
"                                                                                                                                                                                                                                                                                                                          + r._._._._._._._._._._._._._._._._._._._._.^.N .                   + 0._._._._._._._._._._._._._._._._._._._._._.0.+                     N !._._._._._._._._._._._._._._._._._._._._.r.<                     t !._._._._._._._._._._._._._._._._._._._._.^.m                                                                                                                                                                                         ",
"                                                                                                                                                                                                                                                                                                                              + r t t t t t t t t t t t t t t t t t < .                           . < t t t t t t t t t t t t t t t t t r .                             < t t t t t t t t t t t t t t t t t t +                             = r t t t t t t t t t t t t t t t t t =                                                                                                                                                                                             ",
"                                                                                                                                                                                                                                                                                                                                                                                                                                                                                                                                                                                                                                                                                                                                                                                ",
"                                                                                                                                                                                                                                                                                                                                                                                                                                                                                                                                                                                                                                                                                                                                                                                ",
"                                                                                                                                                                                                                                                                                                                                                                                                                                                                                                                                                                                                                                                                                                                                                                                ",
"                                                                                                                                                                                                                                                                                                                                                                                                                                                                                                                                                                                                                                                                                                                                                                                ",
"                                                                                                                                                                                                                                                                                                                                                                                                                                                                                                                                                                                                                                                                                                                                                                                ",
"                                                                                                                                                                                                                                                                                                                                                                                                                                                                                                                                                                                                                                                                                                                                                                                ",
"                                                                                                                                                                                                                                                                                                                                                                                                                                                                                                                                                                                                                                                                                                                                                                                ",
"                                                                                                                                                                                                                                                                                                                                                                                                                                                                                                                                                                                                                                                                                                                                                                                ",
"                                                                                                                                                                                                                                                                                                                                                                                                                                                                                                                                                                                                                                                                                                                                                                                ",
"                                                                                                                                                                                                                                                                                                                                                                                                                                                                                                                                                                                                                                                                                                                                                                                ",
"                                                                                                                                                                                                                                                                                                                                                                                                                                                                                                                                                                                                                                                                                                                                                                                ",
"                                                                                                                                                                                                                                                                                                                                                                                                                                                                                                                                                                                                                                                                                                                                                                                ",
"                                                                                                                                                                                                                                                                                                                                                                                                                                                                                                                                                                                                                                                                                                                                                                                ",
"                                                                                                                                                                                                                                                                                                                                                                                                                                                                                                                                                                                                                                                                                                                                                                                ",
"                                                                                                                                                                                                                                                                                                                                                                                                                                                                                                                                                                                                                                                                                                                                                                                ",
"                                                                                                                                                                                                                                                                                                                                                                                                                                                                                                                                                                                                                                                                                                                                                                                ",
"                                                                                                                                                                                                                                                                                                                                                                                                                                                                                                                                                                                                                                                                                                                                                                                ",
"                                                                                                                                                                                                                                                                                                                                                                                                                                                                                                                                                                                                                                                                                                                                                                                ",
"                                                                                                                                                                                                                                                                                                                                                                                                                                                                                                                                                                                                                                                                                                                                                                                ",
"                                                                                                                                                                                                                                                                                                                                                                                                                                                                                                                                                                                                                                                                                                                                                                                ",
"                                                                                                                                                                                                                                                                                                                                                                                                                                                                                                                                                                                                                                                                                                                                                                                ",
"                                                                                                                                                                                                                                                                                                                                                                                                                                                                                                                                                                                                                                                                                                                                                                                ",
"                                                                                                                                                                                                                                                                                                                                                                                                                                                                                                                                                                                                                                                                                                                                                                                ",
"                                                                                                                                                                                                                                                                                                                                                                                                                                                                                                                                                                                                                                                                                                                                                                                ",
"                                                                                                                                                                                                                                                                                                                                                                                                                                                                                                                                                                                                                                                                                                                                                                                ",
"                                                                                                                                                                                                                                                                                                                                                                                                                                                                                                                                                                                                                                                                                                                                                                                ",
"                                                                                                                                                                                                                                                                                                                                                                                                                                                                                                                                                                                                                                                                                                                                                                                ",
"                                                                                                                                                                                                                                                                                                                                                                                                                                                                                                                                                                                                                                                                                                                                                                                ",
"                                                                                                                                                                                                                                                                                                                                                                                                                                                                                                                                                                                                                                                                                                                                                                                ",
"                                                                                                                                                                                                                                                                                                                                                                                                                                                                                                                                                                                                                                                                                                                                                                                ",
"                                                                                                                                                                                                                                                                                                                                                                                                                                                                                                                                                                                                                                                                                                                                                                                ",
"                                                                                                                                                                                                                                                                                                                                                                                                                                                                                                                                                                                                                                                                                                                                                                                ",
"                                                                                                                                                                                                                                                                                                                          3 &.K.I.I.I.I.I.I.I.I.I.I.I.I.I.I.I.I.I.;.X.#                       3 X.F.I.I.I.I.I.I.I.I.I.I.I.I.I.I.I.I.I.;.+.#                       X c ;.K.I.I.I.I.I.I.I.I.I.I.I.I.I.I.I.I.K.&.0                                                                                                                                                                                                                                                                 ",
"                                                                                                                                                                                                                                                                                                                      # &.I.I.I.I.I.I.I.I.I.I.I.I.I.I.I.I.I.I.I.I.I.I.I.x                   X.I.I.I.I.I.I.I.I.I.I.I.I.I.I.I.I.I.I.I.I.I.I.I.X.                  x K.I.I.I.I.I.I.I.I.I.I.I.I.I.I.I.I.I.I.I.I.I.I.F.#                                                                                                                                                                                                                                                             ",
"                                                                                                                                                                                                                                                                                                                    # F.I.I.I.I.I.I.I.I.I.I.I.I.I.I.I.I.I.I.I.I.I.I.I.I.I.c               &.I.I.I.I.I.I.I.I.I.I.I.I.I.I.I.I.I.I.I.I.I.I.I.I.I.&.              c I.I.I.I.I.I.I.I.I.I.I.I.I.I.I.I.I.I.I.I.I.I.I.I.I.F.#                                                                                                                                                                                                                                                           ",
"                                                                                                                                                                                                                                                                                                                    F.I.I.I.I.I.I.I.I.I.I.I.I.I.I.I.I.I.I.I.I.I.I.I.I.I.I.I.3           c I.I.I.I.I.I.I.I.I.I.I.I.I.I.I.I.I.I.I.I.I.I.I.I.I.I.I.~           & I.I.I.I.I.I.I.I.I.I.I.I.I.I.I.I.I.I.I.I.I.I.I.I.I.I.I.&.                                                                                                                                                                                                                                                          ",
"                                                                                                                                                                                                                                                                                                                  0 I.I.I.I.I.I.I.I.I.I.I.I.I.I.I.I.I.I.I.I.I.I.I.I.I.I.I.I.&.        # I.I.I.I.I.I.I.I.I.I.I.I.I.I.I.I.I.I.I.I.I.I.I.I.I.I.I.I.K.X         &.I.I.I.I.I.I.I.I.I.I.I.I.I.I.I.I.I.I.I.I.I.I.I.I.I.I.I.I.0                                                                                                                                                                                                                                                         ",
"                                                                                                                                                                                                                                                                                                                  $.I.I.I.I.I.I.I.I.I.I.I.I.I.I.I.I.I.I.I.I.I.I.I.I.I.I.I.I.I.&       0 I.I.I.I.I.I.I.I.I.I.I.I.I.I.I.I.I.I.I.I.I.I.I.I.I.I.I.I.I.x       # I.I.I.I.I.I.I.I.I.I.I.I.I.I.I.I.I.I.I.I.I.I.I.I.I.I.I.I.I.&.                                                                                                                                                                                                                                                        ",
"                                                                                                                                                                                                                                                                                                                  K.I.I.I.I.I.I.I.I.I.I.I.I.I.I.I.I.I.I.I.I.I.I.I.I.I.I.I.I.I.0       $.I.I.I.I.I.I.I.I.I.I.I.I.I.I.I.I.I.I.I.I.I.I.I.I.I.I.I.I.I.+.      8 I.I.I.I.I.I.I.I.I.I.I.I.I.I.I.I.I.I.I.I.I.I.I.I.I.I.I.I.I.K.                                                                                                                                                                                                                                                        ",
"                                                                                                                                                                                                                                                                                                                  I.I.I.I.I.I.I.I.I.I.I.I.I.I.I.I.I.I.I.I.I.I.I.I.I.I.I.I.I.I.~       &.I.I.I.I.I.I.I.I.I.I.I.I.I.I.I.I.I.I.I.I.I.I.I.I.I.I.I.I.I.&.      ~ I.I.I.I.I.I.I.I.I.I.I.I.I.I.I.I.I.I.I.I.I.I.I.I.I.I.I.I.I.I.                                                                                                                                                                                                                                                        ",
"                                                                                                                                                                                                                                                                                                                  I.I.I.I.I.I.I.I.I.I.I.I.I.I.I.I.I.I.I.I.I.I.I.I.I.I.I.I.I.I.~       &.I.I.I.I.I.I.I.I.I.I.I.I.I.I.I.I.I.I.I.I.I.I.I.I.I.I.I.I.I.&.      ~ I.I.I.I.I.I.I.I.I.I.I.I.I.I.I.I.I.I.I.I.I.I.I.I.I.I.I.I.I.I.                                                                                                                                                                                                                                                        ",
"                                                                                                                                                                                                                                                                                                                  I.I.I.I.I.I.I.I.I.I.I.I.I.I.I.I.I.I.I.I.I.I.I.I.I.I.I.I.I.I.~       &.I.I.I.I.I.I.I.I.I.I.I.I.I.I.I.I.I.I.I.I.I.I.I.I.I.I.I.I.I.&.      ~ I.I.I.I.I.I.I.I.I.I.I.I.I.I.I.I.I.I.I.I.I.I.I.I.I.I.I.I.I.I.                                                                                                                                                                                                                                                        ",
"                                                                                                                                                                                                                                                                                                                  I.I.I.I.I.I.I.I.I.I.I.I.I.I.I.I.I.I.I.I.I.I.I.I.I.I.I.I.I.I.~       &.I.I.I.I.I.I.I.I.I.I.I.I.I.P.J.P.I.I.I.I.I.I.I.I.I.I.I.I.I.&.      ~ I.I.I.I.I.I.I.I.I.I.I.I.I.I.I.I.I.I.I.I.I.I.I.I.I.I.I.I.I.I.                                                                                                                                                                                                                                                        ",
"                                                                                                                                                                                    d 1                                                                                                                           I.I.I.I.I.I.I.I.I.I.I.I.I.I.,. .I.I.I.I.I.I.I.I.I.I.I.I.I.I.~       &.I.I.I.I.I.I.I.I.I.I.I.J. .L I L ..J.I.I.I.I.I.I.I.I.I.I.I.&.      ~ I.I.I.I.I.I.I.I.I.I.I.J.L L L L I <.I.I.I.I.I.I.I.I.I.I.I.I.                                                                                                                                                                                                                                                        ",
"                                                                                                                                                O h s.f.f.Z O                       {.f.                                                                                                                          I.I.I.I.I.I.I.I.I.I.I.I.I.I.,. .I.I.I.I.I.I.I.I.I.I.I.I.I.I.~       &.I.I.I.I.I.I.I.I.I.I.I.I O.P.I.P...I I.I.I.I.I.I.I.I.I.I.I.&.      ~ I.I.I.I.I.I.I.I.I.I.I.J.L I.I.P.O.I I.I.I.I.I.I.I.I.I.I.I.I.                                                                                                                                                                                                                                                        ",
"                                                                                                                                              - '.{.[.'.[.{.O                       {.f.                                                                                                                          I.I.I.I.I.I.I.I.I.I.I.I.I.I.,. .I.I.I.I.I.I.I.I.I.I.I.I.I.I.~       &.I.I.I.I.I.I.I.I.I.I.>.I I.I.I.I.I.L ,.I.I.I.I.I.I.I.I.I.I.&.      ~ I.I.I.I.I.I.I.I.I.I.I.J.L I.I.I.I.L J.I.I.I.I.I.I.I.I.I.I.I.                                                                                                                                                                                                                                                        ",
"                                                                                                                                            - '.[.B O     -                         {.f.                                                                                                                          I.I.I.I.I.I.I.I.I.I.I.I.I.I.,. .I.I.I.I.I.I.I.I.I.I.I.I.I.I.~       &.I.I.I.I.I.I.I.I.I.I.O...I.I.I.I.I...O.I.I.I.I.I.I.I.I.I.I.&.      ~ I.I.I.I.I.I.I.I.I.I.I.J.L I.I.I.J.L P.I.I.I.I.I.I.I.I.I.I.I.                                                                                                                                                                                                                                                        ",
"                                                                                                                                            f.{.h                   d s.f.s.-       {.f.      d f.f.B -     O a.d A s.                                                                                            I.I.I.I.I.I.I.I.I.I.I.I.I.I.,. .I.I.I.I.I.I.I.I.I.I.I.I.I.I.~       &.I.I.I.I.I.I.I.I.I.I.....I.I.I.I.I.O...I.I.I.I.I.I.I.I.I.I.&.      ~ I.I.I.I.I.I.I.I.I.I.I.J.L O.O.O.I O.I.I.I.I.I.I.I.I.I.I.I.I.                                                                                                                                                                                                                                                        ",
"                                                                                                                                            '.v.                  A {.[.v.{.'.-     {.f.    A {.'.v.{.'.O   - {.'.{.`.                                                                                            I.I.I.I.I.I.I.I.I.I.I.I.I.I.,. .I.I.I.I.I.I.I.I.I.I.I.I.I.I.~       &.I.I.I.I.I.I.I.I.I.I.O...I.I.I.I.I...O.I.I.I.I.I.I.I.I.I.I.&.      ~ I.I.I.I.I.I.I.I.I.I.I.J.L O.O.O.>.I.I.I.I.I.I.I.I.I.I.I.I.I.                                                                                                                                                                                                                                                        ",
"                                                                                                                                          O {.d.                - {.'.O   - [.v.    {.f.  - {.f.    d {.d.  - {.{.-                                                                                               I.I.I.I.I.I.I.I.I.I.I.I.I.I.,. .I.I.I.I.I.I.I.I.I.I.I.I.I.I.~       &.I.I.I.I.I.I.I.I.I.I.,.L P.I.I.I.J.I ,.I.I.I.I.I.I.I.I.I.I.&.      ~ I.I.I.I.I.I.I.I.I.I.I.J.L I.I.I.I.I.I.I.I.I.I.I.I.I.I.I.I.I.                                                                                                                                                                                                                                                        ",
"                                                                                                                                          - {.d.                h {.h       d.{.O   {.f.  a.{.1       v.[.  - {.c.                                                                                                I.I.I.I.I.I.I.I.I.I.I.I.I.I.,. .I.I.I.I.I.I.I.I.I.I.I.I.I.I.~       &.I.I.I.I.I.I.I.I.I.I.I...I ,.J.,.I O.I.I.I.I.I.I.I.I.I.I.I.&.      ~ I.I.I.I.I.I.I.I.I.I.I.J.L I.I.I.I.I.I.I.I.I.I.I.I.I.I.I.I.I.                                                                                                                                                                                                                                                        ",
"                                                                                                                                            [.v.                a.{.1       a.{.@   {.f.  z.{.        z.{.  - {.a.                                                                                                I.I.I.I.I.I.I.I.I.I.I.I.I.I.<.O.I.I.I.I.I.I.I.I.I.I.I.I.I.I.~       &.I.I.I.I.I.I.I.I.I.I.I.I.O.I L I O.I.I.I.I.I.I.I.I.I.I.I.I.&.      ~ I.I.I.I.I.I.I.I.I.I.I.J. .I.I.I.I.I.I.I.I.I.I.I.I.I.I.I.I.I.                                                                                                                                                                                                                                                        ",
"                                                                                                                                            v.{.-               B {.h       d.{.O   {.f.  d.{.@       x.[.  - {.a.                                                                                                I.I.I.I.I.I.I.I.I.I.I.I.I.I.I.I.I.I.I.I.I.I.I.I.I.I.I.I.I.I.~       &.I.I.I.I.I.I.I.I.I.I.I.I.I.I.I.I.I.I.I.I.I.I.I.I.I.I.I.I.I.&.      ~ I.I.I.I.I.I.I.I.I.I.I.I.I.I.I.I.I.I.I.I.I.I.I.I.I.I.I.I.I.I.                                                                                                                                                                                                                                                        ",
"                                                                                                                                            d {.'.-       O     - {.f.    O '.'.    {.f.  d {.s.    - {.f.  - {.a.                                                                                                I.I.I.I.I.I.I.I.I.I.I.I.I.I.I.I.I.I.I.I.I.I.I.I.I.I.I.I.I.I.~       &.I.I.I.I.I.I.I.I.I.I.I.I.I.I.I.I.I.I.I.I.I.I.I.I.I.I.I.I.I.&.      ~ I.I.I.I.I.I.I.I.I.I.I.I.I.I.I.I.I.I.I.I.I.I.I.I.I.I.I.I.I.I.                                                                                                                                                                                                                                                        ",
"                                                                                                                                              B {.{.v.v.`.[.O     d.{.x.s.'.{.h     {.f.    v.{.f.s.[.[.-   - {.a.                                                                                                I.I.I.I.I.I.I.I.I.I.I.I.I.I.I.I.I.I.I.I.I.I.I.I.I.I.I.I.I.I.~       &.I.I.I.I.I.I.I.I.I.I.I.I.I.I.I.I.I.I.I.I.I.I.I.I.I.I.I.I.I.&.      ~ I.I.I.I.I.I.I.I.I.I.I.I.I.I.I.I.I.I.I.I.I.I.I.I.I.I.I.I.I.I.                                                                                                                                                                                                                                                        ",
"                                                                                                                                                - d.v.'.`.f.O       B `.'.v.d       f.B     O a.`.'.x.1     - v.B                                                                                                 K.I.I.I.I.I.I.I.I.I.I.I.I.I.I.I.I.I.I.I.I.I.I.I.I.I.I.I.I.I.x       $.I.I.I.I.I.I.I.I.I.I.I.I.I.I.I.I.I.I.I.I.I.I.I.I.I.I.I.I.I.&.      0 I.I.I.I.I.I.I.I.I.I.I.I.I.I.I.I.I.I.I.I.I.I.I.I.I.I.I.I.I.I.                                                                                                                                                                                                                                                        ",
"                                                                                                                                                                                                                                                                                                                  ;.I.I.I.I.I.I.I.I.I.I.I.I.I.I.I.I.I.I.I.I.I.I.I.I.I.I.I.I.I.3       X.I.I.I.I.I.I.I.I.I.I.I.I.I.I.I.I.I.I.I.I.I.I.I.I.I.I.I.I.I.X.      3 I.I.I.I.I.I.I.I.I.I.I.I.I.I.I.I.I.I.I.I.I.I.I.I.I.I.I.I.I.;.                                                                                                                                                                                                                                                        ",
"                                                                                                                                                                                                                                                                                                                  ~ I.I.I.I.I.I.I.I.I.I.I.I.I.I.I.I.I.I.I.I.I.I.I.I.I.I.I.I.F.        3 I.I.I.I.I.I.I.I.I.I.I.I.I.I.I.I.I.I.I.I.I.I.I.I.I.I.I.I.I.3       X K.I.I.I.I.I.I.I.I.I.I.I.I.I.I.I.I.I.I.I.I.I.I.I.I.I.I.I.I.X.                                                                                                                                                                                                                                                        ",
"                                                                                                                                                                                                                                                                                                                  X K.I.I.I.I.I.I.I.I.I.I.I.I.I.I.I.I.I.I.I.I.I.I.I.I.I.I.I.~           &.I.I.I.I.I.I.I.I.I.I.I.I.I.I.I.I.I.I.I.I.I.I.I.I.I.I.I.F.          ~ I.I.I.I.I.I.I.I.I.I.I.I.I.I.I.I.I.I.I.I.I.I.I.I.I.I.I.K.#                                                                                                                                                                                                                                                         ",
"                                                                                                                                                                                                                                                                                                                    x I.I.I.I.I.I.I.I.I.I.I.I.I.I.I.I.I.I.I.I.I.I.I.I.I.I.F.            # K.I.I.I.I.I.I.I.I.I.I.I.I.I.I.I.I.I.I.I.I.I.I.I.I.I.K.#           X ;.I.I.I.I.I.I.I.I.I.I.I.I.I.I.I.I.I.I.I.I.I.I.I.I.I.I.x                                                                                                                                                                                                                                                           ",
"                                                                                                                                                                                                                                                                                                                      ~ I.I.I.I.I.I.I.I.I.I.I.I.I.I.I.I.I.I.I.I.I.I.I.I.;.#               & F.I.I.I.I.I.I.I.I.I.I.I.I.I.I.I.I.I.I.I.I.I.I.I.K.&               # F.I.I.I.I.I.I.I.I.I.I.I.I.I.I.I.I.I.I.I.I.I.I.I.I.~                                                                                                                                                                                                                                                             ",
"                                                                                                                                                                                                                                                                                                                        # &.I.I.I.I.I.I.I.I.I.I.I.I.I.I.I.I.I.I.I.I.K.~ X                   # +.I.I.I.I.I.I.I.I.I.I.I.I.I.I.I.I.I.I.I.I.I.+.#                     ~ F.I.I.I.I.I.I.I.I.I.I.I.I.I.I.I.I.I.I.I.I.&.3                                                                                                                                                                                                                                                               ",
"                                                                                                                                                                                                                                                                                                                            # 8 0 0 0 0 0 0 0 0 0 0 0 0 0 0 0 0 0 3 X                           X 3 0 0 0 0 0 0 0 0 0 0 0 0 0 0 0 0 0 8 X                             3 0 0 0 0 0 0 0 0 0 0 0 0 0 0 0 0 0 0 #                                                                                                                                                                                                                                                                   ",
"                                                                                                                                                                                                                                                                                                                                                                                                                                                                                                                                                                                                                                                                                                                                                                                ",
"                                                                                                                                                                                                                                                                                                                                                                                                                                                                                                                                                                                                                                                                                                                                                                                ",
"                                                                                                                                                                                                                                                                                                                                                                                                                                                                                                                                                                                                                                                                                                                                                                                ",
"                                                                                                                                                                                                                                                                                                                                                                                                                                                                                                                                                                                                                                                                                                                                                                                ",
"                                                                                                                                                                                                                                                                                                                                                                                                                                                                                                                                                                                                                                                                                                                                                                                ",
"                                                                                                                                                                                                                                                                                                                                                                                                                                                                                                                                                                                                                                                                                                                                                                                ",
"                                                                                                                                                                                                                                                                                                                                                                                                                                                                                                                                                                                                                                                                                                                                                                                ",
"                                                                                                                                                                                                                                                                                                                                                                                                                                                                                                                                                                                                                                                                                                                                                                                ",
"                                                                                                                                                                                                                                                                                                                                                                                                                                                                                                                                                                                                                                                                                                                                                                                ",
"                                                                                                                                                                                                                                                                                                                                                                                                                                                                                                                                                                                                                                                                                                                                                                                ",
"                                                                                                                                                                                                                                                                                                                                                                                                                                                                                                                                                                                                                                                                                                                                                                                ",
"                                                                                                                                                                                                                                                                                                                                                                                                                                                                                                                                                                                                                                                                                                                                                                                ",
"                                                                                                                                                                                                                                                                                                                                                                                                                                                                                                                                                                                                                                                                                                                                                                                ",
"                                                                                                                                                                                                                                                                                                                                                                                                                                                                                                                                                                                                                                                                                                                                                                                ",
"                                                                                                                                                                                                                                                                                                                                                                                                                                                                                                                                                                                                                                                                                                                                                                                ",
"                                                                                                                                                                                                                                                                                                                                                                                                                                                                                                                                                                                                                                                                                                                                                                                ",
"                                                                                                                                                                                                                                                                                                                                                                                                                                                                                                                                                                                                                                                                                                                                                                                ",
"                                                                                                                                                                                                                                                                                                                                                                                                                                                                                                                                                                                                                                                                                                                                                                                ",
"                                                                                                                                                                                                                                                                                                                                                                                                                                                                                                                                                                                                                                                                                                                                                                                ",
"                                                                                                                                                                                                                                                                                                                                                                                                                                                                                                                                                                                                                                                                                                                                                                                ",
"                                                                                                                                                                                                                                                                                                                                                                                                                                                                                                                                                                                                                                                                                                                                                                                ",
"                                                                                                                                                                                                                                                                                                                                                                                                                                                                                                                                                                                                                                                                                                                                                                                ",
"                                                                                                                                                                                                                                                                                                                                                                                                                                                                                                                                                                                                                                                                                                                                                                                ",
"                                                                                                                                                                                                                                                                                                                                                                                                                                                                                                                                                                                                                                                                                                                                                                                ",
"                                                                                                                                                                                                                                                                                                                                                                                                                                                                                                                                                                                                                                                                                                                                                                                ",
"                                                                                                                                                                                                                                                                                                                                                                                                                                                                                                                                                                                                                                                                                                                                                                                ",
"                                                                                                                                                                                                                                                                                                                                                                                                                                                                                                                                                                                                                                                                                                                                                                                ",
"                                                                                                                                                                                                                                                                                                                                                                                                                                                                                                                                                                                                                                                                                                                                                                                ",
"                                                                                                                                                                                                                                                                                                                                                                                                                                                                                                                                                                                                                                                                                                                                                                                ",
"                                                                                                                                                                                                                                                                                                                                                                                                                                                                                                                                                                                                                                                                                                                                                                                ",
"                                                                                                                                                                                                                                                                                                                                                                                                                                                                                                                                                                                                                                                                                                                                                                                ",
"                                                                                                                                                                                                                                                                                                                                                                                                                                                                                                                                                                                                                                                                                                                                                                                ",
"                                                                                                                                                                                                                                                                                                                                                                                                                                                                                                                                                                                                                                                                                                                                                                                ",
"                                                                                                                                                                                                                                                                                                                                                                                                                                                                                                                                                                                                                                                                                                                                                                                ",
"                                                                                                                                                                                                                                                                                                                                                                                                                                                                                                                                                                                                                                                                                                                                                                                ",
"                                                                                                                                                                                                                                                                                                                                                                                                                                                                                                                                                                                                                                                                                                                                                                                ",
"                                                                                                                                                                                                                                                                                                                                                                                                                                                                                                                                                                                                                                                                                                                                                                                ",
"                                                                                                                                                                                                                                                                                                                                                                                                                                                                                                                                                                                                                                                                                                                                                                                ",
"                                                                                                                                                                                                                                                                                                                                                                                                                                                                                                                                                                                                                                                                                                                                                                                ",
"                                                                                                                                                                                                                                                                                                                                                                                                                                                                                                                                                                                                                                                                                                                                                                                ",
"                                                                                                                                                                                                                                                                                                                                                                                                                                                                                                                                                                                                                                                                                                                                                                                ",
"                                                                                                                                                                                                                                                                                                                                                                                                                                                                                                                                                                                                                                                                                                                                                                                ",
"                                                                                                                                                                                                                                                                                                                                                                                                                                                                                                                                                                                                                                                                                                                                                                                ",
"                                                                                                                                                                                                                                                                                                                          + g z M M M M M M M M M M M M M M M z ,                             . 6 z M M M M M M M M M M M M M M M z 6 +                           . z | j.j.j.j.j.j.j.j.j.j.j.j.j.j.j.j.j.} ,                                                                                                                                                                                                                                                                   ",
"                                                                                                                                                                                                                                                                                                                      , j.).).).).).).).).).).).).).).).).).).).).Z.M                     + | ).).).).).).).).).).).).).).).).).).).).).| +                     z D.).).).).).).).).).).).).).).).).).).).).).Z.;                                                                                                                                                                                                                                                               ",
"                                                                                                                                                                                                                                                                                                                    M ).).).).).).).).).).).).).).).).).).).).).).).).Z.+               ; D.).).).).).).).).).).).).).).).).).).).).).).).Z.;                 } ).).).).).).).).).).).).).).).).).).).).).).).).).g                                                                                                                                                                                                                                                             ",
"                                                                                                                                                                                                                                                                                                                  z ).).).).).).).).).).).).).).).).).).).).).).).).).).Z..           + D.).).).).).).).).).).).).).).).).).).).).).).).).).D.;             M ).).).).).).).).).).).).).).).).).).).).).).).).).).).;                                                                                                                                                                                                                                                           ",
"                                                                                                                                                                                                                                                                                                                + D.).).).).).).).).).).).).).).).).).).).).).).).).).).).M           Z.).).).).).).).).).).).).).).).).).).).).).).).).).).).j.          + ).).).).).).).).).).).).).).).).).).).).).).).).).).).).j.                                                                                                                                                                                                                                                          ",
"                                                                                                                                                                                                                                                                                                                } ).).).).).).).).).).).).).).).).).).).).).).).).).).).).D..       , ).).).).).).).).).).).).).).).).).).).).).).).).).).).).).,         z ).).).).).).).).).).).).).).).).).).).).).).).).).).).).).,                                                                                                                                                                                                                                                         ",
"                                                                                                                                                                                                                                                                                                                C.).).).).).).).).).).).).).).).).).).).).).).).).).).).).).,       } ).).).).).).).).).).).).).).).).).).).).).).).).).).).).).}         j.).).).).).).).).).).).).).).).).).).).).).).).).).).).).).z                                                                                                                                                                                                                                                         ",
"                                                                                                                                                                                                                                                                                                                ).).).).).).).).).).).).).).).).).).).).).).).).).).).).).).z       j.).).).).).).).).).).).).).).).).).).).).).).).).).).).).).w.        Z.).).).).).).).).).).).).).).).).).).).).).).).).).).).).).|                                                                                                                                                                                                                                                         ",
"                                                                                                                                                                                                  1 1                                                                                                           ).).).).).).).).).).).).).).).).).).).).).).).).).).).).).).M       j.).).).).).).).).).).).).).).).).).).).).).).).).).).).).).j.        Z.).).).).).).).).).).).).).).).).).).).).).).).).).).).).).|                                                                                                                                                                                                                                                         ",
"                                                                                                                                  B Z         d a.O                     {.f.                      '.f.                                                                                                          ).).).).).).).).).).).).).).).).).).).).).).).).).).).).).).M       j.).).).).).).).).).).).).).).).).).).).).).).).).).).).).).j.        Z.).).).).).).).).).).).).).).).).).).).).).).).).).).).).).|                                                                                                                                                                                                                                                         ",
"                                                                                                                                  v.'.        a.{.@                     '.d.                      '.f.              - f.1                                                                                       ).).).).).).).).).).).).).).).).).).).).).).).).).).).).).).M       j.).).).).).).).).).).).).).).).).).).).).).).).).).).).).).j.        Z.).).).).).).).).).).).).).).).).).).).).).).).).).).).).).|                                                                                                                                                                                                                                                         ",
"                                                                                                                                  v.'.        a.{.@                                               '.f.              B {.d                                                                                       ).).).).).).).).).).).).).).).).t.(.).).).).).).).).).).).).M       j.).).).).).).).).).).).S.C.).).).C.C.).).).).).).).).).).).j.        Z.).).).).).).).).).).).).9.A.).).).).).).).).).).).).).).).|                                                                                                                                                                                                                                                         ",
"                                                                                                                                  v.'.        a.{.@       B f.s.1       v.a.      h f.s.B a.d     '.f.A v.v.h     B v.{.v.s.                                                                                    ).).).).).).).).).).).).).).).).y S.).).).).).).).).).).).).M       j.).).).).).).).).).).).t.{ ).).t.i S.).).).).).).).).).).).j.        Z.).).).).).).).).).).).).i C.).).).).).).).).).).).).).).).|                                                                                                                                                                                                                                                         ",
"                                                                                                                                  v.'.        a.{.@     s.{.`.'.{.h     {.f.    s.{.[.'.{.{.a.    '.[.[.v.'.{.d   d.[.{.'.v.                                                                                    ).).).).).).).).).).).).).).).).y S.).).).).).).).).).).).).M       j.).).).).).).).).).).).t.{ ).A.u S.).).).).).).).).).).).).j.        Z.).).).).).).).).).).).).i C.).).).).).).).).).).).).).).).|                                                                                                                                                                                                                                                         ",
"                                                                                                                                  v.{.'.'.'.'.[.{.@   d {.a.  O '.v.    {.f.  - {.x.    d.{.a.    '.{.-   1 {.d.    B {.d                                                                                       ).).).).).).).).).).).).).).).).y S.).).).).).).).).).).).).M       j.).).).).).).).).).).).t.{ A.i A.).).).).).).).).).).).).).j.        Z.).).).).).).).).).).).).i C.).).).).).).).).).).).).).).).|                                                                                                                                                                                                                                                         ",
"                                                                                                                                  v.{.v.v.v.v.'.{.@   a.{.h d d x.{.O   {.f.  h {.d     O {.a.    '.v.      {.f.    B {.d                                                                                       ).).).).).).).).).).).).).).).).y S.).).).).).).).).).).).).M       j.).).).).).).).).).).).t.i i A.).).).).).).).).).).).).).).j.        Z.).).).).).).).).).).).).i C.).).).).).).).).).).).).).).).|                                                                                                                                                                                                                                                         ",
"                                                                                                                                  v.'.        a.{.@   z.{.{.{.{.{.{.@   {.f.  B {.d       {.a.    '.f.      {.f.    B {.d                                                                                       ).).).).).).).).).).).).).).).).y S.).).).).).).).).).).).).M       j.).).).).).).).).).).).t.s s q.).).).).).).).).).).).).).).j.        Z.).).).).).).).).).).).).i C.).).).).).).).).).).).).).).).|                                                                                                                                                                                                                                                         ",
"                                                                                                                                  v.'.        a.{.@   d.{.1 - - - -     {.f.  h {.h     - {.a.    '.f.      {.f.    B {.d                                                                                       ).).).).).).).).).).).).).).).).y S.).).).).).).).).).).).).M       j.).).).).).).).).).).).t.{ (.i q.).).).).).).).).).).).).).j.        Z.).).).).).).).).).).).).i C.).).).).).).).).).).).).).).).|                                                                                                                                                                                                                                                         ",
"                                                                                                                                  v.'.        a.{.@   h {.Z             {.f.  O [.`.1 - x.{.a.    '.f.      {.f.    B {.d                                                                                       ).).).).).).).).).).).).C.u.).).y S.).).).).).).).).).).).).M       j.).).).).).).).).).).).t.{ ).S.i q.).).).).).).).).).).).).j.        Z.).).).).).).).).).).).).i C.).).).).).).).).).).).).).).).|                                                                                                                                                                                                                                                         ",
"                                                                                                                                  v.'.        a.{.@   O '.{.f.a.f.Z     {.f.    B [.{.{.'.{.a.    '.f.      {.f.    d {.v.f.                                                                                    ).).).).).).).).).).).).C.u 9.{ s ).).).).).).).).).).).).).M       j.).).).).).).).).).).).t.{ ).).S.i q.).).).).).).).).).).).j.        Z.).).).).).).).).).).).).i y y y y t.).).).).).).).).).).).|                                                                                                                                                                                                                                                         ",
"                                                                                                                                  d.f.        B v.O     - z.`.'.v.d     v.Z       - h B B {.h     d.B       f.B       z.'.`.                                                                                    ).).).).).).).).).).).).).S.q.t.(.).).).).).).).).).).).).).M       j.).).).).).).).).).).).S.u.).).).S.t.(.).).).).).).).).).).j.        Z.).).).).).).).).).).).).).).).).).).).).).).).).).).).).).|                                                                                                                                                                                                                                                         ",
"                                                                                                                                                                                v.v.f.f.[.'.                                                                                                                    ).).).).).).).).).).).).).).).).).).).).).).).).).).).).).).M       j.).).).).).).).).).).).).).).).).).).).).).).).).).).).).).j.        Z.).).).).).).).).).).).).).).).).).).).).).).).).).).).).).|                                                                                                                                                                                                                                                         ",
"                                                                                                                                                                                Z v.'.`.a.O                                                                                                                     ).).).).).).).).).).).).).).).).).).).).).).).).).).).).).).M       j.).).).).).).).).).).).).).).).).).).).).).).).).).).).).).j.        Z.).).).).).).).).).).).).).).).).).).).).).).).).).).).).).|                                                                                                                                                                                                                                                         ",
"                                                                                                                                                                                                                                                                                                                ).).).).).).).).).).).).).).).).).).).).).).).).).).).).).).M       j.).).).).).).).).).).).).).).).).).).).).).).).).).).).).).j.        Z.).).).).).).).).).).).).).).).).).).).).).).).).).).).).).}                                                                                                                                                                                                                                                         ",
"                                                                                                                                                                                                                                                                                                                D.).).).).).).).).).).).).).).).).).).).).).).).).).).).).).6       | ).).).).).).).).).).).).).).).).).).).).).).).).).).).).).w.        j.).).).).).).).).).).).).).).).).).).).).).).).).).).).).).z                                                                                                                                                                                                                                                         ",
"                                                                                                                                                                                                                                                                                                                w.).).).).).).).).).).).).).).).).).).).).).).).).).).).).).;       z ).).).).).).).).).).).).).).).).).).).).).).).).).).).).).g         M ).).).).).).).).).).).).).).).).).).).).).).).).).).).).).;                                                                                                                                                                                                                                                         ",
"                                                                                                                                                                                                                                                                                                                , ).).).).).).).).).).).).).).).).).).).).).).).).).).).).C.        . D.).).).).).).).).).).).).).).).).).).).).).).).).).).).).+         . D.).).).).).).).).).).).).).).).).).).).).).).).).).).).C.                                                                                                                                                                                                                                                          ",
"                                                                                                                                                                                                                                                                                                                  j.).).).).).).).).).).).).).).).).).).).).).).).).).).).,           M ).).).).).).).).).).).).).).).).).).).).).).).).).).).M             z ).).).).).).).).).).).).).).).).).).).).).).).).).).).+                                                                                                                                                                                                                                                           ",
"                                                                                                                                                                                                                                                                                                                  + Z.).).).).).).).).).).).).).).).).).).).).).).).).).M               | ).).).).).).).).).).).).).).).).).).).).).).).).).j.                } ).).).).).).).).).).).).).).).).).).).).).).).).).g                                                                                                                                                                                                                                                             ",
"                                                                                                                                                                                                                                                                                                                    + Z.).).).).).).).).).).).).).).).).).).).).).).D.z                   } ).).).).).).).).).).).).).).).).).).).).).).).}                     z Z.).).).).).).).).).).).).).).).).).).).).).C.,                                                                                                                                                                                                                                                               ",
"                                                                                                                                                                                                                                                                                                                        g w.D.).).).).).).).).).).).).).).).).D.C.M .                       + | C.).).).).).).).).).).).).).).).).).Z.} ,                         . g } j.j.j.j.j.j.j.j.j.j.j.j.j.j.j.j.w.} ,                                                                                                                                                                                                                                                                   ",
"                                                                                                                                                                                                                                                                                                                                                                                                                                                                                                                                                                                                                                                                                                                                                                                ",
"                                                                                                                                                                                                                                                                                                                                                                                                                                                                                                                                                                                                                                                                                                                                                                                ",
"                                                                                                                                                                                                                                                                                                                                                                                                                                                                                                                                                                                                                                                                                                                                                                                ",
"                                                                                                                                                                                                                                                                                                                                                                                                                                                                                                                                                                                                                                                                                                                                                                                ",
"                                                                                                                                                                                                                                                                                                                                                                                                                                                                                                                                                                                                                                                                                                                                                                                ",
"                                                                                                                                                                                                                                                                                                                                                                                                                                                                                                                                                                                                                                                                                                                                                                                ",
"                                                                                                                                                                                                                                                                                                                                                                                                                                                                                                                                                                                                                                                                                                                                                                                ",
"                                                                                                                                                                                                                                                                                                                                                                                                                                                                                                                                                                                                                                                                                                                                                                                ",
"                                                                                                                                                                                                                                                                                                                                                                                                                                                                                                                                                                                                                                                                                                                                                                                ",
"                                                                                                                                                                                                                                                                                                                                                                                                                                                                                                                                                                                                                                                                                                                                                                                ",
"                                                                                                                                                                                                                                                                                                                                                                                                                                                                                                                                                                                                                                                                                                                                                                                ",
"                                                                                                                                                                                                                                                                                                                                                                                                                                                                                                                                                                                                                                                                                                                                                                                ",
"                                                                                                                                                                                                                                                                                                                                                                                                                                                                                                                                                                                                                                                                                                                                                                                ",
"                                                                                                                                                                                                                                                                                                                                                                                                                                                                                                                                                                                                                                                                                                                                                                                ",
"                                                                                                                                                                                                                                                                                                                                                                                                                                                                                                                                                                                                                                                                                                                                                                                ",
"                                                                                                                                                                                                                                                                                                                                                                                                                                                                                                                                                                                                                                                                                                                                                                                ",
"                                                                                                                                                                                                                                                                                                                                                                                                                                                                                                                                                                                                                                                                                                                                                                                ",
"                                                                                                                                                                                                                                                                                                                                                                                                                                                                                                                                                                                                                                                                                                                                                                                ",
"                                                                                                                                                                                                                                                                                                                                                                                                                                                                                                                                                                                                                                                                                                                                                                                ",
"                                                                                                                                                                                                                                                                                                                                                                                                                                                                                                                                                                                                                                                                                                                                                                                ",
"                                                                                                                                                                                                                                                                                                                                                                                                                                                                                                                                                                                                                                                                                                                                                                                ",
"                                                                                                                                                                                                                                                                                                                                                                                                                                                                                                                                                                                                                                                                                                                                                                                ",
"                                                                                                                                                                                                                                                                                                                                                                                                                                                                                                                                                                                                                                                                                                                                                                                ",
"                                                                                                                                                                                                                                                                                                                                                                                                                                                                                                                                                                                                                                                                                                                                                                                ",
"                                                                                                                                                                                                                                                                                                                                                                                                                                                                                                                                                                                                                                                                                                                                                                                ",
"                                                                                                                                                                                                                                                                                                                                                                                                                                                                                                                                                                                                                                                                                                                                                                                ",
"                                                                                                                                                                                                                                                                                                                                                                                                                                                                                                                                                                                                                                                                                                                                                                                ",
"                                                                                                                                                                                                                                                                                                                                                                                                                                                                                                                                                                                                                                                                                                                                                                                ",
"                                                                                                                                                                                                                                                                                                                                                                                                                                                                                                                                                                                                                                                                                                                                                                                ",
"                                                                                                                                                                                                                                                                                                                                                                                                                                                                                                                                                                                                                                                                                                                                                                                ",
"                                                                                                                                                                                                                                                                                                                                                                                                                                                                                                                                                                                                                                                                                                                                                                                ",
"                                                                                                                                                                                                                                                                                                                                                                                                                                                                                                                                                                                                                                                                                                                                                                                ",
"                                                                                                                                                                                                                                                                                                                                                                                                                                                                                                                                                                                                                                                                                                                                                                                ",
"                                                                                                                                                                                                                                                                                                                                                                                                                                                                                                                                                                                                                                                                                                                                                                                ",
"                                                                                                                                                                                                                                                                                                                                                                                                                                                                                                                                                                                                                                                                                                                                                                                ",
"                                                                                                                                                                                                                                                                                                                                                                                                                                                                                                                                                                                                                                                                                                                                                                                ",
"                                                                                                                                                                                                                                                                                                                                                                                                                                                                                                                                                                                                                                                                                                                                                                                ",
"                                                                                                                                                                                                                                                                                                                                                                                                                                                                                                                                                                                                                                                                                                                                                                                ",
"                                                                                                                                                                                                                                                                                                                                                                                                                                                                                                                                                                                                                                                                                                                                                                                ",
"                                                                                                                                                                                                                                                                                                                                                                                                                                                                                                                                                                                                                                                                                                                                                                                ",
"                                                                                                                                                                                                                                                                                                                          X x +.%.%.%.%.%.%.%.%.%.%.%.%.%.%.%.%.@.^ 2                         X 7 ^ @.%.%.%.%.%.%.%.%.%.%.%.%.%.%.%.%.^ 7                                                                                                                                                                                                                                                                                                                                       ",
"                                                                                                                                                                                                                                                                                                                        c G.L.L.L.L.L.L.L.L.L.L.L.L.L.L.L.L.L.L.L.L.L.n.#                   7 G.L.L.L.L.L.L.L.L.L.L.L.L.L.L.L.L.L.L.L.L.L.n.9                                                                                                                                                                                                                                                                                                                                   ",
"                                                                                                                                                                                                                                                                                                                      %.L.L.L.L.L.L.L.L.L.L.L.L.L.L.L.L.L.L.L.L.L.L.L.L.G.&               c L.L.L.L.L.L.L.L.L.L.L.L.L.L.L.L.L.L.L.L.L.L.L.L.L.c                                                                                                                                                                                                                                                                                                                                 ",
"                                                                                                                                                                                                                                                                                                                    ^ L.L.L.L.L.L.L.L.L.L.L.L.L.L.L.L.L.L.L.L.L.L.L.L.L.L.G.#           9 L.L.L.L.L.L.L.L.L.L.L.L.L.L.L.L.L.L.L.L.L.L.L.L.L.L.L.7                                                                                                                                                                                                                                                                                                                               ",
"                                                                                                                                                                                                                                                                                                                  # L.L.L.L.L.L.L.L.L.L.L.L.L.L.L.L.L.L.L.L.L.L.L.L.L.L.L.L.#.          n.L.L.L.L.L.L.L.L.L.L.L.L.L.L.L.L.L.L.L.L.L.L.L.L.L.L.L.G.X                                                                                                                                                                                                                                                                                                                             ",
"                                                                                                                                                                                                                                                                                                                  +.L.L.L.L.L.L.L.L.L.L.L.L.L.L.L.L.L.L.L.L.L.L.L.L.L.L.L.L.L.X       7 L.L.L.L.L.L.L.L.L.L.L.L.L.L.L.L.L.L.L.L.L.L.L.L.L.L.L.L.L.9                                                                                                                                                                                                                                                                                                                             ",
"                                                                                                                                                                                                                                                                                                                  ;.L.L.L.L.L.L.L.L.L.L.L.L.L.L.L.L.L.L.L.L.L.L.L.L.L.L.L.L.L.9       ^ L.L.L.L.L.L.L.L.L.L.L.L.L.L.L.L.L.L.L.L.L.L.L.L.L.L.L.L.L.+.                                                                                                                                                                                                                                                                                                                            ",
"                                                                                                                                                                                                                                                                                                                  L.L.L.L.L.L.L.L.L.L.L.L.L.L.L.L.L.L.L.L.L.L.L.L.L.L.L.L.L.L.x       %.L.L.L.L.L.L.L.L.L.L.L.L.L.L.L.L.L.L.L.L.L.L.L.L.L.L.L.L.L.#.                                                                                                                                                                                                                                                                                                                            ",
"                                                                                                                                                                                                                                                                                                                  L.L.L.L.L.L.L.L.L.L.L.L.L.L.L.L.L.L.L.L.L.L.L.L.L.L.L.L.L.L.!       %.L.L.L.L.L.L.L.L.L.L.L.L.L.L.L.L.L.L.L.L.L.L.L.L.L.L.L.L.L.#.                                                                                                                                                                                                                                                                                                                            ",
"                                                                                                                                                                                                                                                                                                                  L.L.L.L.L.L.L.L.L.L.L.L.L.L.L.L.L.L.L.L.L.L.L.L.L.L.L.L.L.L.!       %.L.L.L.L.L.L.L.L.L.L.L.L.L.L.L.L.L.L.L.L.L.L.L.L.L.L.L.L.L.#.                                                                                                                                                                                                                                                                                                                            ",
"                                                                                                                                                                                                                                                                                                                  L.L.L.L.L.L.L.L.L.L.L.L.L.L.L.L.L.L.L.L.L.L.L.L.L.L.L.L.L.L.!       %.L.L.L.L.L.L.L.L.L.L.L.L.L.L.L.L.L.L.L.L.L.L.L.L.L.L.L.L.L.#.                                                                                                                                                                                                                                                                                                                            ",
"                                                                                                                                  O a.a.O             a.a.1                                                                                                                                                       L.L.L.L.L.L.L.L.L.L.L.L.Y Y Y T -.H.L.L.L.L.L.L.L.L.L.L.L.L.!       %.L.L.L.L.L.L.L.L.L.L.L.L.o.Y Y Y Y ;.L.L.L.L.L.L.L.L.L.L.L.#.                                                                                                                                                                                                                                                                                                                            ",
"                                                                                                                                  - {.{.Z           d {.{.B                                                                                                                                                       L.L.L.L.L.L.L.L.L.L.L.L.J -.-.-.T P H.L.L.L.L.L.L.L.L.L.L.L.!       %.L.L.L.L.L.L.L.L.L.L.L.L.Y T -.-.-.G.L.L.L.L.L.L.L.L.L.L.L.#.                                                                                                                                                                                                                                                                                                                            ",
"                                                                                                                                  - {.{.v.          f.{.{.B                                                                                                                                                       L.L.L.L.L.L.L.L.L.L.L.L.J L.L.L.L.Y =.L.L.L.L.L.L.L.L.L.L.L.!       %.L.L.L.L.L.L.L.L.L.L.L.L.Y -.L.L.L.L.L.L.L.L.L.L.L.L.L.L.L.#.                                                                                                                                                                                                                                                                                                                            ",
"                                                                                                                                  - {.`.{.d       - {.'.{.B       - s.f.s.-       h Z       B Z     O A f.s.d     O A f.s.-                                                                                       L.L.L.L.L.L.L.L.L.L.L.L.J L.L.L.L.=.T L.L.L.L.L.L.L.L.L.L.L.!       %.L.L.L.L.L.L.L.L.L.L.L.L.Y -.L.L.L.L.L.L.L.L.L.L.L.L.L.L.L.#.                                                                                                                                                                                                                                                                                                                            ",
"                                                                                                                                  - {.d.[.d.      B {.B {.B     h [.[.v.'.{.d     z.'.      v.'.    '.[.v.`.d.    `.{.`.'.[.1                                                                                     L.L.L.L.L.L.L.L.L.L.L.L.J L.L.L.L.-.K L.L.L.L.L.L.L.L.L.L.L.!       %.L.L.L.L.L.L.L.L.L.L.L.L.Y K K K o.L.L.L.L.L.L.L.L.L.L.L.L.#.                                                                                                                                                                                                                                                                                                                            ",
"                                                                                                                                  - {.a.a.[.O     '.v.d {.B     '.'.-   - '.'.    z.'.      v.'.  - {.Z         B {.Z   - [.c.                                                                                    L.L.L.L.L.L.L.L.L.L.L.L.J L.L.L.L.-.Y L.L.L.L.L.L.L.L.L.L.L.!       %.L.L.L.L.L.L.L.L.L.L.L.L.Y o.:.:.G.L.L.L.L.L.L.L.L.L.L.L.L.#.                                                                                                                                                                                                                                                                                                                            ",
"                                                                                                                                  - {.a.O {.a.  d {.B d {.B   d {.Z       Z {.1   z.'.      v.'.  O '.'.B       x.[.d d d `.'.                                                                                    L.L.L.L.L.L.L.L.L.L.L.L.J L.L.L.L.T T L.L.L.L.L.L.L.L.L.L.L.!       %.L.L.L.L.L.L.L.L.L.L.L.L.Y -.L.L.L.L.L.L.L.L.L.L.L.L.L.L.L.#.                                                                                                                                                                                                                                                                                                                            ",
"                                                                                                                                  - {.a.  v.`.  f.'.  d {.B   h {.B       h {.B   z.'.      v.'.    - `.{.v.-   v.{.{.{.{.{.{.                                                                                    L.L.L.L.L.L.L.L.L.L.L.L.J L.L.H.=.K G.L.L.L.L.L.L.L.L.L.L.L.!       %.L.L.L.L.L.L.L.L.L.L.L.L.Y -.L.L.L.L.L.L.L.L.L.L.L.L.L.L.L.#.                                                                                                                                                                                                                                                                                                                            ",
"                                                                                                                                  - {.a.  d {.h [.f.  d {.B   1 {.Z       Z {.d   z.'.      v.'.        B [.v.  x.[.- - - - -                                                                                     L.L.L.L.L.L.L.L.L.L.L.L.J J J J U :.L.L.L.L.L.L.L.L.L.L.L.L.!       %.L.L.L.L.L.L.L.L.L.L.L.L.Y -.L.L.L.L.L.L.L.L.L.L.L.L.L.L.L.#.                                                                                                                                                                                                                                                                                                                            ",
"                                                                                                                                  - {.a.    [.[.{.-   d {.B   O [.v.      '.'.O   z.{.O   - [.'.          x.{.  a.{.d                                                                                             L.L.L.L.L.L.L.L.L.L.L.L.L.L.L.L.L.L.L.L.L.L.L.L.L.L.L.L.L.L.!       %.L.L.L.L.L.L.L.L.L.L.L.L.L.L.L.L.L.L.L.L.L.L.L.L.L.L.L.L.L.#.                                                                                                                                                                                                                                                                                                                            ",
"                                                                                                                                  - {.a.    a.{.v.    d {.B     Z {.'.a.v.{.a.    d {.'.s.'.{.'.  1 `.s.s.{.v.  O '.[.f.a.v.B                                                                                     L.L.L.L.L.L.L.L.L.L.L.L.L.L.L.L.L.L.L.L.L.L.L.L.L.L.L.L.L.L.!       %.L.L.L.L.L.L.L.L.L.L.L.L.L.L.L.L.L.L.L.L.L.L.L.L.L.L.L.L.L.#.                                                                                                                                                                                                                                                                                                                            ",
"                                                                                                                                  - v.B     O f.h     1 v.d       B v.'.v.B         B `.'.a.d.x.  - v.'.'.d.-     - z.`.'.x.1                                                                                     L.L.L.L.L.L.L.L.L.L.L.L.L.L.L.L.L.L.L.L.L.L.L.L.L.L.L.L.L.L.!       %.L.L.L.L.L.L.L.L.L.L.L.L.L.L.L.L.L.L.L.L.L.L.L.L.L.L.L.L.L.#.                                                                                                                                                                                                                                                                                                                            ",
"                                                                                                                                                                                                                                                                                                                  L.L.L.L.L.L.L.L.L.L.L.L.L.L.L.L.L.L.L.L.L.L.L.L.L.L.L.L.L.L.!       @.L.L.L.L.L.L.L.L.L.L.L.L.L.L.L.L.L.L.L.L.L.L.L.L.L.L.L.L.L.#.                                                                                                                                                                                                                                                                                                                            ",
"                                                                                                                                                                                                                                                                                                                  n.L.L.L.L.L.L.L.L.L.L.L.L.L.L.L.L.L.L.L.L.L.L.L.L.L.L.L.L.L.7       ^ L.L.L.L.L.L.L.L.L.L.L.L.L.L.L.L.L.L.L.L.L.L.L.L.L.L.L.L.L.^                                                                                                                                                                                                                                                                                                                             ",
"                                                                                                                                                                                                                                                                                                                  ^ L.L.L.L.L.L.L.L.L.L.L.L.L.L.L.L.L.L.L.L.L.L.L.L.L.L.L.L.L.#       7 L.L.L.L.L.L.L.L.L.L.L.L.L.L.L.L.L.L.L.L.L.L.L.L.L.L.L.L.L.9                                                                                                                                                                                                                                                                                                                             ",
"                                                                                                                                                                                                                                                                                                                  2 L.L.L.L.L.L.L.L.L.L.L.L.L.L.L.L.L.L.L.L.L.L.L.L.L.L.L.L.+.        X G.L.L.L.L.L.L.L.L.L.L.L.L.L.L.L.L.L.L.L.L.L.L.L.L.L.L.L.n.                                                                                                                                                                                                                                                                                                                              ",
"                                                                                                                                                                                                                                                                                                                    ^ L.L.L.L.L.L.L.L.L.L.L.L.L.L.L.L.L.L.L.L.L.L.L.L.L.L.n.#           7 L.L.L.L.L.L.L.L.L.L.L.L.L.L.L.L.L.L.L.L.L.L.L.L.L.L.L.9                                                                                                                                                                                                                                                                                                                               ",
"                                                                                                                                                                                                                                                                                                                      +.L.L.L.L.L.L.L.L.L.L.L.L.L.L.L.L.L.L.L.L.L.L.L.L.G.&               ! L.L.L.L.L.L.L.L.L.L.L.L.L.L.L.L.L.L.L.L.L.L.L.L.L.!                                                                                                                                                                                                                                                                                                                                 ",
"                                                                                                                                                                                                                                                                                                                        ! L.L.L.L.L.L.L.L.L.L.L.L.L.L.L.L.L.L.L.L.L.L.#.#                   9 n.L.L.L.L.L.L.L.L.L.L.L.L.L.L.L.L.L.L.L.L.L.G.7                                                                                                                                                                                                                                                                                                                                   ",
"                                                                                                                                                                                                                                                                                                                          # 9 +.#.#.#.#.#.#.#.#.#.#.#.#.#.#.#.#.+.^ 2                           7 ^ #.#.#.#.#.#.#.#.#.#.#.#.#.#.#.#.@.^ 2 X                                                                                                                                                                                                                                                                                                                                     ",
"                                                                                                                                                                                                                                                                                                                                                                                                                                                                                                                                                                                                                                                                                                                                                                                ",
"                                                                                                                                                                                                                                                                                                                                                                                                                                                                                                                                                                                                                                                                                                                                                                                ",
"                                                                                                                                                                                                                                                                                                                                                                                                                                                                                                                                                                                                                                                                                                                                                                                ",
"                                                                                                                                                                                                                                                                                                                                                                                                                                                                                                                                                                                                                                                                                                                                                                                ",
"                                                                                                                                                                                                                                                                                                                                                                                                                                                                                                                                                                                                                                                                                                                                                                                ",
"                                                                                                                                                                                                                                                                                                                                                                                                                                                                                                                                                                                                                                                                                                                                                                                ",
"                                                                                                                                                                                                                                                                                                                                                                                                                                                                                                                                                                                                                                                                                                                                                                                ",
"                                                                                                                                                                                                                                                                                                                                                                                                                                                                                                                                                                                                                                                                                                                                                                                ",
"                                                                                                                                                                                                                                                                                                                                                                                                                                                                                                                                                                                                                                                                                                                                                                                ",
"                                                                                                                                                                                                                                                                                                                                                                                                                                                                                                                                                                                                                                                                                                                                                                                ",
"                                                                                                                                                                                                                                                                                                                                                                                                                                                                                                                                                                                                                                                                                                                                                                                ",
"                                                                                                                                                                                                                                                                                                                                                                                                                                                                                                                                                                                                                                                                                                                                                                                ",
"                                                                                                                                                                                                                                                                                                                                                                                                                                                                                                                                                                                                                                                                                                                                                                                ",
"                                                                                                                                                                                                                                                                                                                                                                                                                                                                                                                                                                                                                                                                                                                                                                                ",
"                                                                                                                                                                                                                                                                                                                                                                                                                                                                                                                                                                                                                                                                                                                                                                                ",
"                                                                                                                                                                                                                                                                                                                                                                                                                                                                                                                                                                                                                                                                                                                                                                                ",
"                                                                                                                                                                                                                                                                                                                                                                                                                                                                                                                                                                                                                                                                                                                                                                                ",
"                                                                                                                                                                                                                                                                                                                                                                                                                                                                                                                                                                                                                                                                                                                                                                                ",
"                                                                                                                                                                                                                                                                                                                                                                                                                                                                                                                                                                                                                                                                                                                                                                                ",
"                                                                                                                                                                                                                                                                                                                                                                                                                                                                                                                                                                                                                                                                                                                                                                                ",
"                                                                                                                                                                                                                                                                                                                                                                                                                                                                                                                                                                                                                                                                                                                                                                                ",
"                                                                                                                                                                                                                                                                                                                                                                                                                                                                                                                                                                                                                                                                                                                                                                                ",
"                                                                                                                                                                                                                                                                                                                                                                                                                                                                                                                                                                                                                                                                                                                                                                                ",
"                                                                                                                                                                                                                                                                                                                                                                                                                                                                                                                                                                                                                                                                                                                                                                                ",
"                                                                                                                                                                                                                                                                                                                                                                                                                                                                                                                                                                                                                                                                                                                                                                                ",
"                                                                                                                                                                                                                                                                                                                                                                                                                                                                                                                                                                                                                                                                                                                                                                                ",
"                                                                                                                                                                                                                                                                                                                                                                                                                                                                                                                                                                                                                                                                                                                                                                                ",
"                                                                                                                                                                                                                                                                                                                                                                                                                                                                                                                                                                                                                                                                                                                                                                                ",
"                                                                                                                                                                                                                                                                                                                                                                                                                                                                                                                                                                                                                                                                                                                                                                                ",
"                                                                                                                                                                                                                                                                                                                                                                                                                                                                                                                                                                                                                                                                                                                                                                                ",
"                                                                                                                                                                                                                                                                                                                                                                                                                                                                                                                                                                                                                                                                                                                                                                                ",
"                                                                                                                                                                                                                                                                                                                                                                                                                                                                                                                                                                                                                                                                                                                                                                                ",
"                                                                                                                                                                                                                                                                                                                                                                                                                                                                                                                                                                                                                                                                                                                                                                                ",
"                                                                                                                                                                                                                                                                                                                                                                                                                                                                                                                                                                                                                                                                                                                                                                                ",
"                                                                                                                                                                                                                                                                                                                                                                                                                                                                                                                                                                                                                                                                                                                                                                                ",
"                                                                                                                                                                                                                                                                                                                                                                                                                                                                                                                                                                                                                                                                                                                                                                                ",
"                                                                                                                                                                                                                                                                                                                                                                                                                                                                                                                                                                                                                                                                                                                                                                                ",
"                                                                                                                                                                                                                                                                                                                                                                                                                                                                                                                                                                                                                                                                                                                                                                                ",
"                                                                                                                                                                                                                                                                                                                                                                                                                                                                                                                                                                                                                                                                                                                                                                                ",
"                                                                                                                                                                                                                                                                                                                                                                                                                                                                                                                                                                                                                                                                                                                                                                                ",
"                                                                                                                                                                                                                                                                                                                                                                                                                                                                                                                                                                                                                                                                                                                                                                                ",
"                                                                                                                                                                                                                                                                                                                                                      O d Z s.f.f.f.f.f.f.f.f.f.f.s.Z d O                                                                                                                                                                                                                                                                                                                                                                                       ",
"                                                                                                                                                                                                                                                                                                                                                O h v.[.{.{.{.{.{.{.{.{.{.{.{.{.{.{.{.{.{.v.B                                                                                                                                                                                                                                                                                                                                                                                   ",
"                                                                                                                                                                                                                                                                                                                                              A [.{.{.{.`.d.Z B B B B {.{.B B B B Z d.v.{.{.{.'.B                                                                                                                                                                                                                                                                                                                                                                               ",
"                                                                                                                                                                                                                                                                                                                                          d '.{.{.v.Z O               {.{.              - B '.{.{.'.-                                                                                                                                                                                                                                                                                                                                                                           ",
"                                                                                                                                                                                                                                                                                                                                        V {.{.'.d                     {.{.                    B '.{.{.A                                                                                                                                                                                                                                                                                                                                                                         ",
"                                                                                                                                                                                                                                                                                                                                      A {.{.d.                        {.{.                        a.{.{.A                                                                                                                                                                                                                                                                                                                                                                       ",
"                                                                                                                                                                                                                                                                                                                                    A {.[.B                           {.{.                          h [.{.A                                                                                                                                                                                                                                                                                                                                                                     ",
"                                                                                                                                                                                                                                                                                                                                  A {.[.1                             {.{.                            1 [.{.Z                                                                                                                                                                                                                                                                                                                                                                   ",
"                                                                                                                                                                                                                                                                                                                                - {.{.Z                               {.{.                              B {.{.1                                                                                                                                                                                                                                                                                                                                                                 ",
"                                                                                                                                                                                                                                                                                                                                '.{.a.                                {.{.                                d.{.`.                                                                                                                                              d B B B B B B B B B B -                                                                                                                                                                                           ",
"                                                                                                                                                                                                                                                                                                                              B {.'.                                  {.{.                                O '.{.Z                                                                                                                                             z.{.{.{.{.{.{.{.{.{.{.B                                                                                                                                                                                           ",
"                                                                                                                                                                                                                                                                                                                              '.{.B                                   {.{.                                  d {.[.                                                                                                                                            B f.f.f.f.f.f.v.{.{.{.B                                                                                                                                                                                           ",
"                                                                                                                                                                                                                                                                                                                            h {.'.                                    {.{.                                    `.{.d                                                                                                                                                       - '.{.{.{.B                                                                                                                                                                                           ",
"                                                                                                                                                                                                                                                                                                                            x.{.B                                     {.{.                                    a.{.f.                                                                                                                                                    - '.{.'.v.{.B                                                                                                                                                                                           ",
"                                                                                                                                                                                                                                                                                                                            [.{.-                                     {.{.                                    O {.[.                                                                                                                                                  - '.{.'.- z.{.B                                                                                                                                                                                           ",
"                                                                                                                                                                                                                                                                                                                          1 {.`.                                      {.{.                                      '.{.1                                                                                                                                               - '.{.'.-   z.{.B                                                                                                                                                                                           ",
"                                                                                                                                                            - B a.f.v.'.'.{.{.{.{.{.'.`.v.x.a.h 1                                                                                                                         h {.c.                                      {.{.                                      z.{.B                                                                                                                                             - '.{.'.-     z.{.B                                                                                                                                                                                           ",
"                                                                                                                                                    O Z x.[.{.{.{.{.{.{.{.{.{.{.{.{.{.{.{.{.{.{.{.[.x.B -                                                                                                                 a.{.a.                                      d.Z                                       a.{.a.                                                                                                                                          - '.{.'.-       z.{.B                                                                                                                                                                                           ",
"                                                                                                                                                d v.{.{.{.{.'.x.d.B d - -           - 1 d B a.x.'.{.{.{.{.x.d                                                                                                             a.{.a.                                                                                a.{.a.                                                                                                                                          '.{.'.-         z.{.B                                                                                                                                                                                           ",
"                                                                                                                                            - v.{.{.[.v.B -                                       - B x.{.{.{.x.-                                                                                                         d.{.Z                                                                                 B {.f.                                                                                                                                          '.'.-           z.{.B                                                                                                                                                                                           ",
"                                                                                                                                          1 [.{.[.a.O                                                   - B '.{.[.1                                                                                                       z.{.B                                                                                 B {.f.                                                                                                                                                          B f.d                                                                                                                                                                                           ",
"                                                                                                                                        - [.{.z.O                                                           - z.{.[.-                                                                                                     z.{.B                                                                                 B {.f.                                                                                                                                                                                                                                                                                                                                                          ",
"                                                                                                                                        f.{.f.                                                                  d.{.f.                                                                                                    z.{.B                                                                                 B {.f.                                                                                                                                                                                                                                                                                                                                                          ",
"                                                                                                                                        `.{.1                           -                                       - {.'.                                                                                                    z.{.B                                                                                 B {.f.                                                                                                                                                                                                                                                                                                                                                          ",
"                                                                                                                                        v.{.d                         s.'.1                                     B {.v.                                                                                                    z.{.B                                                                                 B {.f.                                                                                                                                                                                                                                                                                                                                                          ",
"                                                                                                                                        Z {.'.-                     O '.{.{.A                                 1 '.{.B                                                                                                     z.{.B                                                                                 B {.f.                                                                                                                                                                                                                                                                                                                                                          ",
"                                                                                                                                          z.{.{.A O                     a.{.{.v.-                           h [.{.z.                                                                                                      z.{.B                                                                                 B {.f.                                                                                                                                                                                                                                                                                                                                                          ",
"                                                                                                                                            d.{.{.'.f.1                   h '.{.'.h                         Z {.d.                                                                                                        z.{.B                                                                                 B {.f.                                                                                                    d f.B                                                                                                                                                                                                                                                 ",
"                                                                                                                                              1 v.{.{.{.'.f.B 1             - v.{.{.A                         -                                                                                                           z.{.B                                                                                 B {.f.                                                                                                    B {.f.          - '.'.                                                                                                                                                                                                                                ",
"                                                                                                                                                  1 z.'.{.{.{.{.{.'.v.x.f.a.a.a.z.{.{.'.-                                                                                                                                 z.{.B                                                                                 B {.f.                                                                                                    B {.f.        - '.{.'.                                                                                                                                                                                                                                ",
"                                                                                                                                                        1 Z x.`.{.{.{.{.{.{.{.{.a.V {.{.`.                                                                                                                                z.{.B                                                                                 B {.f.                                                                                                    B {.f.      - '.{.'.-                                                                                                                                                                                                                                 ",
"                                                                                                                                                                  1 d h B a.a.a.s.{.{.`.-                                                                                                                                 z.{.B                                                                                 B {.f.                                                                                                    B {.f.    - '.{.'.-                                                                                                                                                                                                                                   ",
"                                                                                                                                                                            - v.{.{.d.                                                                                                                                    z.{.B                                                                                 B {.f.                                                                                                    B {.f.  - '.{.'.-                                                                                                                                                                                                                                     ",
"                                                                                                                                                                          d '.{.'.d                                                                                                                                       z.{.B                                                                                 B {.f.                                                                                                    B {.f.- '.{.'.-                                                                                                                                                                                                                                       ",
"                                                                                                                                                                        s.{.{.v.-                                                                                                                                         z.{.B                                                                                 B {.f.                                                                                                    B {.v.'.{.'.-                                                                                                                                                                                                                                         ",
"                                                                                                                                                                    O `.{.{.Z                                                                                                                                             z.{.B                                                                                 B {.f.                                                                                                    B {.{.{.'.-                                                                                                                                                                                                                                           ",
"                                                                                                                                                                      d.'.d                                                                                                                                               a.{.a.                                                                                a.{.a.                                                                                                    B {.{.{.v.f.f.f.f.f.f.B                                                                                                                                                                                                                               ",
"                                                                                                                                                                      O O                                                                                                                                                 a.{.a.                                                                                a.{.a.                                                                                                    B {.{.{.{.{.{.{.{.{.{.f.                                                                                                                                                                                                                              ",
"                                                                                                                                                                                                                                                                                                                          B {.f.                                                                                x.{.B                                                                                                     - B B B B B B B B B B d                                                                                                                                                                                                                               ",
"                                                                                                                                                                                                                                                                                                                          1 {.'.                                                                                `.{.d                                                                                                                                                                                                                                                                                                                                                           ",
"                                                                                                                                                                                                                                                                                                                            [.{.O                                                                             - {.[.                                                                                                                                                                                                                                                                                                                                                            ",
"                                                                                                                                                                                                                                                                                                                            v.{.Z                                                                             B {.c.                                                                                                                                                                                                                                                                                                                                                            ",
"                                                                                                                                                                                                                                                                                                                            h {.v.                                                                            '.{.B                                                                                                                                                                                                                                                                                                                                                             ",
"                                                                                                                                                                                                                                                                                                                            O [.{.d                                                                         B {.'.                                                                                                                                                                                                                                                                                                                                                              ",
"                                                                                                                                                                                                                                                                                                                              a.{.`.                                                                        '.{.B                                                                                                                                                                                                                                                                                                                                                               ",
"                                                                                                                                                                                                                                                                                                                              O '.{.a.                                                                    A {.'.                                                                                                                                                                                                                                                                                                                                                                ",
"                                                                                                                                                                                                                                                                                                                                d {.{.d                                                                 d {.{.d                                                                                                                                                                                                                                                                                                                                                                 ",
"                                                                                                                                                                                                                                                                                                                                  a.{.[.1                                                             - [.{.a.                                                                                                                                                                                                                                                                                                                                                                  ",
"                                                                                                                                                                                                                                                                                                                                    z.{.[.1                                                         1 [.{.z.                                                                                                                                                                                                                                                                                                                                                                    ",
"                                                                                                                                                                                                                                                                                                                                      z.{.{.A                                                     V {.{.z.                                                                                                                                                                                                                                                                                                                                                                      ",
"                                                                                                                                                                                                                                                                                                                                        a.{.{.'.-                                             d v.{.{.a.                                                                                                                                                                                                                                                                                                                                                                        ",
"                                                                                                                                                                                                                                                                                                                                          B '.{.{.v.h                                   O d v.{.{.'.d                                                                                                                                                                                                                                                                                                                                                                           ",
"                                                                                                                                                                                                                                                                                                                                            - a.[.{.{.[.v.a.B d d d d d d d d d h B a.v.[.{.{.[.a.O                                                                                                                                                                                                                                                                                                                                                                             ",
"                                                                                                                                                                                                                                                                                                                                                - B `.{.{.{.{.{.{.{.{.{.{.{.{.{.{.{.{.{.{.v.a.O                                                                                                                                                                                                                                                                                                                                                                                 ",
"                                                                                                                                                                                                                                                                                                                                                      - h a.f.v.v.v.v.v.v.v.v.v.x.f.d.B O                                                                                                                                                                                                                                                                                                                                                                                       ",
"                                                                                                                                                                                                                                                                                                                                                                                                                                                                                                                                                                                                                                                                                                                                                                                ",
"                                                                                                                                                                                                                                                                                                                                                                                                                                                                                                                                                                                                                                                                                                                                                                                ",
"                                                                                                                                                                                                                                                                                                                                                                                                                                                                                                                                                                                                                                                                                                                                                                                ",
"                                                                                                                                                                                                                                                                                                                                                                                                                                                                                                                                                                                                                                                                                                                                                                                ",
"                                                                                                                                                                                                                                                                                                                                                                                                                                                                                                                                                                                                                                                                                                                                                                                ",
"                                                                                                                                                                                                                                                                                                                                                                                                                                                                                                                                                                                                                                                                                                                                                                                ",
"                                                                                                                                                                                                                                                                                                                                                                                                                                                                                                                                                                                                                                                                                                                                                                                ",
"                                                                                                                                                                                                                                                                                                                                                                                                                                                                                                                                                                                                                                                                                                                                                                                ",
"                                                                                                                                                                                                                                                                                                                                                                                                                                                                                                                                                                                                                                                                                                                                                                                ",
"                                                                                                                                                                                                                                                                                                                                                                                                                                                                                                                                                                                                                                                                                                                                                                                ",
"                                                                                                                                                                                                                                                                                                                                                                                                                                                                                                                                                                                                                                                                                                                                                                                ",
"                                                                                                                                                                                                                                                                                                                                                                                                                                                                                                                                                                                                                                                                                                                                                                                ",
"                                                                                                                                                                                                                                                                                                                                                                                                                                                                                                                                                                                                                                                                                                                                                                                ",
"                                                                                                                                                                                                                                                                                                                                                                                                                                                                                                                                                                                                                                                                                                                                                                                ",
"                                                                                                                                                                                                                                                                                                                                                                                                                                                                                                                                                                                                                                                                                                                                                                                ",
"                                                                                                                                                                                                                                                                                                                                                                                                                                                                                                                                                                                                                                                                                                                                                                                ",
"                                                                                                                                                                                                                                                                                                                                                                                                                                                                                                                                                                                                                                                                                                                                                                                ",
"                                                                                                                                                                                                                                                                                                                                                                                                                                                                                                                                                                                                                                                                                                                                                                                ",
"                                                                                                                                                                                                                                                                                                                                                                                                                                                                                                                                                                                                                                                                                                                                                                                ",
"                                                                                                                                                                                                                                                                                                                                                                                                                                                                                                                                                                                                                                                                                                                                                                                ",
"                                                                                                                                                                                                                                                                                                                                                                                                                                                                                                                                                                                                                                                                                                                                                                                ",
"                                                                                                                                                                                                                                                                                                                                                                                                                                                                                                                                                                                                                                                                                                                                                                                ",
"                                                                                                                                                                                                                                                                                                                                                                                                                                                                                                                                                                                                                                                                                                                                                                                ",
"                                                                                                                                                                                                                                                                                                                                                                                                                                                                                                                                                                                                                                                                                                                                                                                ",
"                                                                                                                                                                                                                                                                                                                                                                                                                                                                                                                                                                                                                                                                                                                                                                                ",
"                                                                                                                                                                                                                                                                                                                                                                                                                                                                                                                                                                                                                                                                                                                                                                                ",
"                                                                                                                                                                                                                                                                                                                                                                                                                                                                                                                                                                                                                                                                                                                                                                                ",
"                                                                                                                                                                                                                                                                                                                                                                                                                                                                                                                                                                                                                                                                                                                                                                                ",
"                                                                                                                                                                                                                                                                                                                                                                                                                                                                                                                                                                                                                                                                                                                                                                                ",
"                                                                                                                                                                                                                                                                                                                                                                                                                                                                                                                                                                                                                                                                                                                                                                                ",
"                                                                                                                                                                                                                                                                                                                                                                                                                                                                                                                                                                                                                                                                                                                                                                                ",
"                                                                                                                                                                                                                                                                                                                                                                                                                                                                                                                                                                                                                                                                                                                                                                                ",
"                                                                                                                                                                                                                                                                                                                                                                                                                                                                                                                                                                                                                                                                                                                                                                                ",
"                                                                                                                                                                                                                                                                                                                                                                                                                                                                                                                                                                                                                                                                                                                                                                                ",
"                                                                                                                                                                                                                                                                                                                                                                                                                                                                                                                                                                                                                                                                                                                                                                                ",
"                                                                                                                                                                                                                                                                                                                                                                                                                                                                                                                                                                                                                                                                                                                                                                                ",
"                                                                                                                                                                                                                                                                                                                                                                                                                                                                                                                                                                                                                                                                                                                                                                                ",
"                                                                                                                                                                                                                                                                                                                                                                                                                                                                                                                                                                                                                                                                                                                                                                                ",
"                                                                                                                                                                                                                                                                                                                                                                                                                                                                                                                                                                                                                                                                                                                                                                                ",
"                                                                                                                                                                                                                                                                                                                                                                                                                                                                                                                                                                                                                                                                                                                                                                                ",
"                                                                                                                                                                                                                                                                                                                                                                                                                                                                                                                                                                                                                                                                                                                                                                                ",
"                                                                                                                                                                                                                                                                                                                                                                                                                                                                                                                                                                                                                                                                                                                                                                                ",
"                                                                                                                                                                                                                                                                                                                                                                                                                                                                                                                                                                                                                                                                                                                                                                                ",
"                                                                                                                                                                                                                                                                                                                                                                                                                                                                                                                                                                                                                                                                                                                                                                                ",
"                                                                                                                                                                                                                                                                                                                                                                                                                                                                                                                                                                                                                                                                                                                                                                                ",
"                                                                                                                                                                                                                                                                                                                                                                                                                                                                                                                                                                                                                                                                                                                                                                                ",
"                                                                                                                                                                                                                                                                                                                                                                                                                                                                                                                                                                                                                                                                                                                                                                                ",
"                                                                                                                                                                                                                                                                                                                                                                                                                                                                                                                                                                                                                                                                                                                                                                                ",
"                                                                                                                                                                                                                                                                                                                                                                                                                                                                                                                                                                                                                                                                                                                                                                                ",
"                                                                                                                                                                                                                                                                                                                                                                                                                                                                                                                                                                                                                                                                                                                                                                                ",
"                                                                                                                                                                                                                                                                                                                                                                                                                                                                                                                                                                                                                                                                                                                                                                                ",
"                                                                                                                                                                                                                                                                                                                                                                                                                                                                                                                                                                                                                                                                                                                                                                                ",
"                                                                                                                                                                                                                                                                                                                                                                                                                                                                                                                                                                                                                                                                                                                                                                                ",
"                                                                                                                                                                                                                                                                                                                                                                                                                                                                                                                                                                                                                                                                                                                                                                                ",
"                                                                                                                                                                                                                                                                                                                                                                                                                                                                                                                                                                                                                                                                                                                                                                                ",
"                                                                                                                                                                                                                                                                                                                                                                                                                                                                                                                                                                                                                                                                                                                                                                                ",
"                                                                                                                                                                                                                                                                                                                                                                                                                                                                                                                                                                                                                                                                                                                                                                                ",
"                                                                                                                                                                                                                                                                                                                                                                                                                                                                                                                                                                                                                                                                                                                                                                                ",
"                                                                                                                                                                                                                                                                                                                                                                                                                                                                                                                                                                                                                                                                                                                                                                                ",
"                                                                                                                                                                                                                                                                                                                                                                                                                                                                                                                                                                                                                                                                                                                                                                                ",
"                                                                                                                                                                                                                                                                                                                                                                                                                                                                                                                                                                                                                                                                                                                                                                                ",
"                                                                                                                                                                                                                                                                                                                                                                                                                                                                                                                                                                                                                                                                                                                                                                                ",
"                                                                                                                                                                                                                                                                                                                                                                                                                                                                                                                                                                                                                                                                                                                                                                                ",
"                                                                                                                                                                                                                                                                                                                                                                                                                                                                                                                                                                                                                                                                                                                                                                                ",
"                                                                                                                                                                                                                                                                                                                                                                                                                                                                                                                                                                                                                                                                                                                                                                                ",
"                                                                                                                                                                                                                                                                                                                                                                                                                                                                                                                                                                                                                                                                                                                                                                                ",
"                                                                                                                                                                                                                                                                                                                                                                                                                                                                                                                                                                                                                                                                                                                                                                                ",
"                                                                                                                                                                                                                                                                                                                                                                                                                                                                                                                                                                                                                                                                                                                                                                                ",
"                                                                                                                                                                                                                                                                                                                                                                                                                                                                                                                                                                                                                                                                                                                                                                                ",
"                                                                                                                                                                                                                                                                                                                                                                                                                                                                                                                                                                                                                                                                                                                                                                                ",
"                                                                                                                                                                                                                                                                                                                                                                                                                                                                                                                                                                                                                                                                                                                                                                                ",
"                                                                                                                                                                                                                                                                                                                                                                                                                                                                                                                                                                                                                                                                                                                                                                                ",
"                                                                                                                                                                                                                                                                                                                                                                                                                                                                                                                                                                                                                                                                                                                                                                                ",
"                                                                                                                                                                                                                                                                                                                                                                                                                                                                                                                                                                                                                                                                                                                                                                                ",
"                                                                                                                                                                                                                                                                                                                                                                                                                                                                                                                                                                                                                                                                                                                                                                                ",
"                                                                                                                                                                                                                                                                                                                                                                                                                                                                                                                                                                                                                                                                                                                                                                                ",
"                                                                                                                                                                                                                                                                                                                                                                                                                                                                                                                                                                                                                                                                                                                                                                                ",
"                                                                                                                                                                                                                                                                                                                                                                                                                                                                                                                                                                                                                                                                                                                                                                                ",
"                                                                                                                                                                                                                                                                                                                                                                                                                                                                                                                                                                                                                                                                                                                                                                                ",
"                                                                                                                                                                                                                                                                                                                                                                                                                                                                                                                                                                                                                                                                                                                                                                                ",
"                                                                                                                                                                                                                                                                                                                                                                                                                                                                                                                                                                                                                                                                                                                                                                                ",
"                                                                                                                                                                                                                                                                                                                                                                                                                                                                                                                                                                                                                                                                                                                                                                                ",
"                                                                                                                                                                                                                                                                                                                                                                                                                                                                                                                                                                                                                                                                                                                                                                                ",
"                                                                                                                                                                                                                                                                                                                                                                                                                                                                                                                                                                                                                                                                                                                                                                                ",
"                                                                                                                                                                                                                                                                                                                                                                                                                                                                                                                                                                                                                                                                                                                                                                                ",
"                                                                                                                                                                                                                                                                                                                                                                                                                                                                                                                                                                                                                                                                                                                                                                                ",
"                                                                                                                                                                                                                                                                                                                                                                                                                                                                                                                                                                                                                                                                                                                                                                                ",
"                                                                                                                                                                                                                                                                                                                                                                                                                                                                                                                                                                                                                                                                                                                                                                                ",
"                                                                                                                                                                                                                                                                                                                                                                                                                                                                                                                                                                                                                                                                                                                                                                                ",
"                                                                                                                                                                                                                                                                                                                                                                                                                                                                                                                                                                                                                                                                                                                                                                                ",
"                                                                                                                                                                                                                                                                                                                                                                                                                                                                                                                                                                                                                                                                                                                                                                                ",
"                                                                                                                                                                                                                                                                                                                                                                                                                                                                                                                                                                                                                                                                                                                                                                                ",
"                                                                                                                                                                                                                                                                                                                                                                                                                                                                                                                                                                                                                                                                                                                                                                                ",
"                                                                                                                                                                                                                                                                                                                                                                                                                                                                                                                                                                                                                                                                                                                                                                                ",
"                                                                                                                                                                                                                                                                                                                                                                                                                                                                                                                                                                                                                                                                                                                                                                                ",
"                                                                                                                                                                                                                                                                                                                                                                                                                                                                                                                                                                                                                                                                                                                                                                                ",
"                                                                                                                                                                                                                                                                                                                                                                                                                                                                                                                                                                                                                                                                                                                                                                                ",
"                                                                                                                                                                                                                                                                                                                                                                                                                                                                                                                                                                                                                                                                                                                                                                                ",
"                                                                                                                                                                                                                                                                                                                                                                                                                                                                                                                                                                                                                                                                                                                                                                                ",
"                                                                                                                                                                                                                                                                                                                                                                                                                                                                                                                                                                                                                                                                                                                                                                                ",
"                                                                                                                                                                                                                                                                                                                                                                                                                                                                                                                                                                                                                                                                                                                                                                                ",
"                                                                                                                                                                                                                                                                                                                                                                                                                                                                                                                                                                                                                                                                                                                                                                                ",
"                                                                                                                                                                                                                                                                                                                                                                                                                                                                                                                                                                                                                                                                                                                                                                                ",
"                                                                                                                                                                                                                                                                                                                                                                                                                                                                                                                                                                                                                                                                                                                                                                                ",
"                                                                                                                                                                                                                                                                                                                                                                                                                                                                                                                                                                                                                                                                                                                                                                                ",
"                                                                                                                                                                                                                                                                                                                                                                                                                                                                                                                                                                                                                                                                                                                                                                                ",
"                                                                                                                                                                                                                                                                                                                                                                                                                                                                                                                                                                                                                                                                                                                                                                                ",
"                                                                                                                                                                                                                                                                                                                                                                                                                                                                                                                                                                                                                                                                                                                                                                                ",
"                                                                                                                                                                                                                                                                                                                                                                                                                                                                                                                                                                                                                                                                                                                                                                                ",
"                                                                                                                                                                                                                                                                                                                                                                                                                                                                                                                                                                                                                                                                                                                                                                                ",
"                                                                                                                                                                                                                                                                                                                                                                                                                                                                                                                                                                                                                                                                                                                                                                                ",
"                                                                                                                                                                                                                                                                                                                                                                                                                                                                                                                                                                                                                                                                                                                                                                                ",
"                                                                                                                                                                                                                                                                                                                                                                                                                                                                                                                                                                                                                                                                                                                                                                                ",
"                                                                                                                                                                                                                                                                                                                                                                                                                                                                                                                                                                                                                                                                                                                                                                                ",
"                                                                                                                                                                                                                                                                                                                                                                                                                                                                                                                                                                                                                                                                                                                                                                                ",
"                                                                                                                                                                                                                                                                                                                                                                                                                                                                                                                                                                                                                                                                                                                                                                                ",
"                                                                                                                                                                                                                                                                                                                                                                                                                                                                                                                                                                                                                                                                                                                                                                                ",
"                                                                                                                                                                                                                                                                                                                                                                                                                                                                                                                                                                                                                                                                                                                                                                                ",
"                                                                                                                                                                                                                                                                                                                                                                                                                                                                                                                                                                                                                                                                                                                                                                                ",
"                                                                                                                                                                                                                                                                                                                                                                                                                                                                                                                                                                                                                                                                                                                                                                                ",
"                                                                                                                                                                                                                                                                                                                                                                                                                                                                                                                                                                                                                                                                                                                                                                                ",
"                                                                                                                                                                                                                                                                                                                                                                                                                                                                                                                                                                                                                                                                                                                                                                                ",
"                                                                                                                                                                                                                                                                                                                                                                                                                                                                                                                                                                                                                                                                                                                                                                                ",
"                                                                                                                                                                                                                                                                                                                                                                                                                                                                                                                                                                                                                                                                                                                                                                                ",
"                                                                                                                                                                                                                                                                                                                                                                                                                                                                                                                                                                                                                                                                                                                                                                                ",
"                                                                                                                                                                                                                                                                                                                                                                                                                                                                                                                                                                                                                                                                                                                                                                                ",
"                                                                                                                                                                                                                                                                                                                                                                                                                                                                                                                                                                                                                                                                                                                                                                                ",
"                                                                                                                                                                                                                                                                                                                                                                                                                                                                                                                                                                                                                                                                                                                                                                                ",
"                                                                                                                                                                                                                                                                                                                                                                                                                                                                                                                                                                                                                                                                                                                                                                                ",
"                                                                                                                                                                                                                                                                                                                                                                                                                                                                                                                                                                                                                                                                                                                                                                                ",
"                                                                                                                                                                                                                                                                                                                                                                                                                                                                                                                                                                                                                                                                                                                                                                                ",
"                                                                                                                                                                                                                                                                                                                                                                                                                                                                                                                                                                                                                                                                                                                                                                                ",
"                                                                                                                                                                                                                                                                                                                                                                                                                                                                                                                                                                                                                                                                                                                                                                                ",
"                                                                                                                                                                                                                                                                                                                                                                                                                                                                                                                                                                                                                                                                                                                                                                                ",
"                                                                                                                                                                                                                                                                                                                                                                                                                                                                                                                                                                                                                                                                                                                                                                                ",
"                                                                                                                                                                                                                                                                                                                                                                                                                                                                                                                                                                                                                                                                                                                                                                                ",
"                                                                                                                                                                                                                                                                                                                                                                                                                                                                                                                                                                                                                                                                                                                                                                                ",
"                                                                                                                                                                                                                                                                                                                                                                                                                                                                                                                                                                                                                                                                                                                                                                                ",
"                                                                                                                                                                                                                                                                                                                                                                                                                                                                                                                                                                                                                                                                                                                                                                                ",
"                                                                                                                                                                                                                                                                                                                                                                                                                                                                                                                                                                                                                                                                                                                                                                                ",
"                                                                                                                                                                                                                                                                                                                                                                                                                                                                                                                                                                                                                                                                                                                                                                                ",
"                                                                                                                                                                                                                                                                                                                                                                                                                                                                                                                                                                                                                                                                                                                                                                                ",
"                                                                                                                                                                                                                                                                                                                                                                                                                                                                                                                                                                                                                                                                                                                                                                                ",
"                                                                                                                                                                                                                                                                                                                                                                                                                                                                                                                                                                                                                                                                                                                                                                                ",
"                                                                                                                                                                                                                                                                                                                                                                                                                                                                                                                                                                                                                                                                                                                                                                                ",
"                                                                                                                                                                                                                                                                                                                                                                                                                                                                                                                                                                                                                                                                                                                                                                                ",
"                                                                                                                                                                                                                                                                                                                                                                                                                                                                                                                                                                                                                                                                                                                                                                                ",
"                                                                                                                                                                                                                                                                                                                                                                                                                                                                                                                                                                                                                                                                                                                                                                                ",
"                                                                                                                                                                                                                                                                                                                                                                                                                                                                                                                                                                                                                                                                                                                                                                                ",
"                                                                                                                                                                                                                                                                                                                                                                                                                                                                                                                                                                                                                                                                                                                                                                                ",
"                                                                                                                                                                                                                                                                                                                                                                                                                                                                                                                                                                                                                                                                                                                                                                                ",
"                                                                                                                                                                                                                                                                                                                                                                                                                                                                                                                                                                                                                                                                                                                                                                                ",
"                                                                                                                                                                                                                                                                                                                                                                                                                                                                                                                                                                                                                                                                                                                                                                                ",
"                                                                                                                                                                                                                                                                                                                                                                                                                                                                                                                                                                                                                                                                                                                                                                                ",
"                                                                                                                                                                                                                                                                                                                                                                                                                                                                                                                                                                                                                                                                                                                                                                                ",
"                                                                                                                                                                                                                                                                                                                                                                                                                                                                                                                                                                                                                                                                                                                                                                                ",
"                                                                                                                                                                                                                                                                                                                                                                                                                                                                                                                                                                                                                                                                                                                                                                                ",
"                                                                                                                                                                                                                                                                                                                                                                                                                                                                                                                                                                                                                                                                                                                                                                                ",
"                                                                                                                                                                                                                                                                                                                                                                                                                                                                                                                                                                                                                                                                                                                                                                                ",
"                                                                                                                                                                                                                                                                                                                                                                                                                                                                                                                                                                                                                                                                                                                                                                                ",
"                                                                                                                                                                                                                                                                                                                                                                                                                                                                                                                                                                                                                                                                                                                                                                                ",
"                                                                                                                                                                                                                                                                                                                                                                                                                                                                                                                                                                                                                                                                                                                                                                                ",
"                                                                                                                                                                                                                                                                                                                                                                                                                                                                                                                                                                                                                                                                                                                                                                                ",
"                                                                                                                                                                                                                                                                                                                                                                                                                                                                                                                                                                                                                                                                                                                                                                                ",
"                                                                                                                                                                                                                                                                                                                                                                                                                                                                                                                                                                                                                                                                                                                                                                                ",
"                                                                                                                                                                                                                                                                                                                                                                                                                                                                                                                                                                                                                                                                                                                                                                                ",
"                                                                                                                                                                                                                                                                                                                                                                                                                                                                                                                                                                                                                                                                                                                                                                                ",
"                                                                                                                                                                                                                                                                                                                                                                                                                                                                                                                                                                                                                                                                                                                                                                                ",
"                                                                                                                                                                                                                                                                                                                                                                                                                                                                                                                                                                                                                                                                                                                                                                                ",
"                                                                                                                                                                                                                                                                                                                                                                                                                                                                                                                                                                                                                                                                                                                                                                                ",
"                                                                                                                                                                                                                                                                                                                                                                                                                                                                                                                                                                                                                                                                                                                                                                                ",
"                                                                                                                                                                                                                                                                                                                                                                                                                                                                                                                                                                                                                                                                                                                                                                                ",
"                                                                                                                                                                                                                                                                                                                                                                                                                                                                                                                                                                                                                                                                                                                                                                                ",
"                                                                                                                                                                                                                                                                                                                                                                                                                                                                                                                                                                                                                                                                                                                                                                                ",
"                                                                                                                                                                                                                                                                                                                                                                                                                                                                                                                                                                                                                                                                                                                                                                                ",
"                                                                                                                                                                                                                                                                                                                                                                                                                                                                                                                                                                                                                                                                                                                                                                                ",
"                                                                                                                                                                                                                                                                                                                                                                                                                                                                                                                                                                                                                                                                                                                                                                                ",
"                                                                                                                                                                                                                                                                                                                                                                                                                                                                                                                                                                                                                                                                                                                                                                                ",
"                                                                                                                                                                                                                                                                                                                                                                                                                                                                                                                                                                                                                                                                                                                                                                                ",
"                                                                                                                                                                                                                                                                                                                                                                                                                                                                                                                                                                                                                                                                                                                                                                                ",
"                                                                                                                                                                                                                                                                                                                                                                                                                                                                                                                                                                                                                                                                                                                                                                                ",
"                                                                                                                                                                                                                                                                                                                                                                                                                                                                                                                                                                                                                                                                                                                                                                                ",
"                                                                                                                                                                                                                                                                                                                                                                                                                                                                                                                                                                                                                                                                                                                                                                                ",
"                                                                                                                                                                                                                                                                                                                                                                                                                                                                                                                                                                                                                                                                                                                                                                                ",
"                                                                                                                                                                                                                                                                                                                                                                                                                                                                                                                                                                                                                                                                                                                                                                                ",
"                                                                                                                                                                                                                                                                                                                                                                                                                                                                                                                                                                                                                                                                                                                                                                                ",
"                                                                                                                                                                                                                                                                                                                                                                                                                                                                                                                                                                                                                                                                                                                                                                                ",
"                                                                                                                                                                                                                                                                                                                                                                                                                                                                                                                                                                                                                                                                                                                                                                                ",
"                                                                                                                                                                                                                                                                                                                                                                                                                                                                                                                                                                                                                                                                                                                                                                                ",
"                                                                                                                                                                                                                                                                                                                                                                                                                                                                                                                                                                                                                                                                                                                                                                                ",
"                                                                                                                                                                                                                                                                                                                                                                                                                                                                                                                                                                                                                                                                                                                                                                                ",
"                                                                                                                                                                                                                                                                                                                                                                                                                                                                                                                                                                                                                                                                                                                                                                                ",
"                                                                                                                                                                                                                                                                                                                                                                                                                                                                                                                                                                                                                                                                                                                                                                                ",
"                                                                                                                                                                                                                                                                                                                                                                                                                                                                                                                                                                                                                                                                                                                                                                                ",
"                                                                                                                                                                                                                                                                                                                                                                                                                                                                                                                                                                                                                                                                                                                                                                                ",
"                                                                                                                                                                                                                                                                                                                                                                                                                                                                                                                                                                                                                                                                                                                                                                                ",
"                                                                                                                                                                                                                                                                                                                                                                                                                                                                                                                                                                                                                                                                                                                                                                                ",
"                                                                                                                                                                                                                                                                                                                                                                                                                                                                                                                                                                                                                                                                                                                                                                                ",
"                                                                                                                                                                                                                                                                                                                                                                                                                                                                                                                                                                                                                                                                                                                                                                                ",
"                                                                                                                                                                                                                                                                                                                                                                                                                                                                                                                                                                                                                                                                                                                                                                                ",
"                                                                                                                                                                                                                                                                                                                                                                                                                                                                                                                                                                                                                                                                                                                                                                                ",
"                                                                                                                                                                                                                                                                                                                                                                                                                                                                                                                                                                                                                                                                                                                                                                                ",
"                                                                                                                                                                                                                                                                                                                                                                                                                                                                                                                                                                                                                                                                                                                                                                                ",
"                                                                                                                                                                                                                                                                                                                                                                                                                                                                                                                                                                                                                                                                                                                                                                                ",
"                                                                                                                                                                                                                                                                                                                                                                                                                                                                                                                                                                                                                                                                                                                                                                                ",
"                                                                                                                                                                                                                                                                                                                                                                                                                                                                                                                                                                                                                                                                                                                                                                                ",
"                                                                                                                                                                                                                                                                                                                                                                                                                                                                                                                                                                                                                                                                                                                                                                                ",
"                                                                                                                                                                                                                                                                                                                                                                                                                                                                                                                                                                                                                                                                                                                                                                                ",
"                                                                                                                                                                                                                                                                                                                                                                                                                                                                                                                                                                                                                                                                                                                                                                                ",
"                                                                                                                                                                                                                                                                                                                                                                                                                                                                                                                                                                                                                                                                                                                                                                                ",
"                                                                                                                                                                                                                                                                                                                                                                                                                                                                                                                                                                                                                                                                                                                                                                                ",
"                                                                                                                                                                                                                                                                                                                                                                                                                                                                                                                                                                                                                                                                                                                                                                                ",
"                                                                                                                                                                                                                                                                                                                                                                                                                                                                                                                                                                                                                                                                                                                                                                                ",
"                                                                                                                                                                                                                                                                                                                                                                                                                                                                                                                                                                                                                                                                                                                                                                                ",
"                                                                                                                                                                                                                                                                                                                                                                                                                                                                                                                                                                                                                                                                                                                                                                                ",
"                                                                                                                                                                                                                                                                                                                                                                                                                                                                                                                                                                                                                                                                                                                                                                                ",
"                                                                                                                                                                                                                                                                                                                                                                                                                                                                                                                                                                                                                                                                                                                                                                                ",
"                                                                                                                                                                                                                                                                                                                                                                                                                                                                                                                                                                                                                                                                                                                                                                                ",
"                                                                                                                                                                                                                                                                                                                                                                                                                                                                                                                                                                                                                                                                                                                                                                                ",
"                                                                                                                                                                                                                                                                                                                                                                                                                                                                                                                                                                                                                                                                                                                                                                                ",
"                                                                                                                                                                                                                                                                                                                                                                                                                                                                                                                                                                                                                                                                                                                                                                                ",
"                                                                                                                                                                                                                                                                                                                                                                                                                                                                                                                                                                                                                                                                                                                                                                                ",
"                                                                                                                                                                                                                                                                                                                                                                                                                                                                                                                                                                                                                                                                                                                                                                                ",
"                                                                                                                                                                                                                                                                                                                                                                                                                                                                                                                                                                                                                                                                                                                                                                                ",
"                                                                                                                                                                                                                                                                                                                                                                                                                                                                                                                                                                                                                                                                                                                                                                                ",
"                                                                                                                                                                                                                                                                                                                                                                                                                                                                                                                                                                                                                                                                                                                                                                                ",
"                                                                                                                                                                                                                                                                                                                                                                                                                                                                                                                                                                                                                                                                                                                                                                                ",
"                                                                                                                                                                                                                                                                                                                                                                                                                                                                                                                                                                                                                                                                                                                                                                                ",
"                                                                                                                                                                                                                                                                                                                                                                                                                                                                                                                                                                                                                                                                                                                                                                                ",
"                                                                                                                                                                                                                                                                                                                                                                                                                                                                                                                                                                                                                                                                                                                                                                                ",
"                                                                                                                                                                                                                                                                                                                                                                                                                                                                                                                                                                                                                                                                                                                                                                                ",
"                                                                                                                                                                                                                                                                                                                                                                                                                                                                                                                                                                                                                                                                                                                                                                                ",
"                                                                                                                                                                                                                                                                                                                                                                                                                                                                                                                                                                                                                                                                                                                                                                                ",
"                                                                                                                                                                                                                                                                                                                                                                                                                                                                                                                                                                                                                                                                                                                                                                                ",
"                                                                                                                                                                                                                                                                                                                                                                                                                                                                                                                                                                                                                                                                                                                                                                                ",
"                                                                                                                                                                                                                                                                                                                                                                                                                                                                                                                                                                                                                                                                                                                                                                                ",
"                                                                                                                                                                                                                                                                                                                                                                                                                                                                                                                                                                                                                                                                                                                                                                                ",
"                                                                                                                                                                                                                                                                                                                                                                                                                                                                                                                                                                                                                                                                                                                                                                                ",
"                                                                                                                                                                                                                                                                                                                                                                                                                                                                                                                                                                                                                                                                                                                                                                                ",
"                                                                                                                                                                                                                                                                                                                                                                                                                                                                                                                                                                                                                                                                                                                                                                                ",
"                                                                                                                                                                                                                                                                                                                                                                                                                                                                                                                                                                                                                                                                                                                                                                                ",
"                                                                                                                                                                                                                                                                                                                                                                                                                                                                                                                                                                                                                                                                                                                                                                                ",
"                                                                                                                                                                                                                                                                                                                                                                                                                                                                                                                                                                                                                                                                                                                                                                                ",
"                                                                                                                                                                                                                                                                                                                                                                                                                                                                                                                                                                                                                                                                                                                                                                                ",
"                                                                                                                                                                                                                                                                                                                                                                                                                                                                                                                                                                                                                                                                                                                                                                                ",
"                                                                                                                                                                                                                                                                                                                                                                                                                                                                                                                                                                                                                                                                                                                                                                                ",
"                                                                                                                                                                                                                                                                                                                                                                                                                                                                                                                                                                                                                                                                                                                                                                                ",
"                                                                                                                                                                                                                                                                                                                                                                                                                                                                                                                                                                                                                                                                                                                                                                                ",
"                                                                                                                                                                                                                                                                                                                                                                                                                                                                                                                                                                                                                                                                                                                                                                                ",
"                                                                                                                                                                                                                                                                                                                                                                                                                                                                                                                                                                                                                                                                                                                                                                                ",
"                                                                                                                                                                                                                                                                                                                                                                                                                                                                                                                                                                                                                                                                                                                                                                                ",
"                                                                                                                                                                                                                                                                                                                                                                                                                                                                                                                                                                                                                                                                                                                                                                                ",
"                                                                                                                                                                                                                                                                                                                                                                                                                                                                                                                                                                                                                                                                                                                                                                                ",
"                                                                                                                                                                                                                                                                                                                                                                                                                                                                                                                                                                                                                                                                                                                                                                                ",
"                                                                                                                                                                                                                                                                                                                                                                                                                                                                                                                                                                                                                                                                                                                                                                                ",
"                                                                                                                                                                                                                                                                                                                                                                                                                                                                                                                                                                                                                                                                                                                                                                                ",
"                                                                                                                                                                                                                                                                                                                                                                                                                                                                                                                                                                                                                                                                                                                                                                                ",
"                                                                                                                                                                                                                                                                                                                                                                                                                                                                                                                                                                                                                                                                                                                                                                                ",
"                                                                                                                                                                                                                                                                                                                                                                                                                                                                                                                                                                                                                                                                                                                                                                                ",
"                                                                                                                                                                                                                                                                                                                                                                                                                                                                                                                                                                                                                                                                                                                                                                                ",
"                                                                                                                                                                                                                                                                                                                                                                                                                                                                                                                                                                                                                                                                                                                                                                                ",
"                                                                                                                                                                                                                                                                                                                                                                                                                                                                                                                                                                                                                                                                                                                                                                                ",
"                                                                                                                                                                                                                                                                                                                                                                                                                                                                                                                                                                                                                                                                                                                                                                                ",
"                                                                                                                                                                                                                                                                                                                                                                                                                                                                                                                                                                                                                                                                                                                                                                                ",
"                                                                                                                                                                                                                                                                                                                                                                                                                                                                                                                                                                                                                                                                                                                                                                                ",
"                                                                                                                                                                                                                                                                                                                                                                                                                                                                                                                                                                                                                                                                                                                                                                                ",
"                                                                                                                                                                                                                                                                                                                                                                                                                                                                                                                                                                                                                                                                                                                                                                                ",
"                                                                                                                                                                                                                                                                                                                                                                                                                                                                                                                                                                                                                                                                                                                                                                                ",
"                                                                                                                                                                                                                                                                                                                                                                                                                                                                                                                                                                                                                                                                                                                                                                                ",
"                                                                                                                                                                                                                                                                                                                                                                                                                                                                                                                                                                                                                                                                                                                                                                                ",
"                                                                                                                                                                                                                                                                                                                                                                                                                                                                                                                                                                                                                                                                                                                                                                                ",
"                                                                                                                                                                                                                                                                                                                                                                                                                                                                                                                                                                                                                                                                                                                                                                                ",
"                                                                                                                                                                                                                                                                                                                                                                                                                                                                                                                                                                                                                                                                                                                                                                                ",
"                                                                                                                                                                                                                                                                                                                                                                                                                                                                                                                                                                                                                                                                                                                                                                                ",
"                                                                                                                                                                                                                                                                                                                                                                                                                                                                                                                                                                                                                                                                                                                                                                                ",
"                                                                                                                                                                                                                                                                                                                                                                                                                                                                                                                                                                                                                                                                                                                                                                                ",
"                                                                                                                                                                                                                                                                                                                                                                                                                                                                                                                                                                                                                                                                                                                                                                                ",
"                                                                                                                                                                                                                                                                                                                                                                                                                                                                                                                                                                                                                                                                                                                                                                                ",
"                                                                                                                                                                                                                                                                                                                                                                                                                                                                                                                                                                                                                                                                                                                                                                                ",
"                                                                                                                                                                                                                                                                                                                                                                                                                                                                                                                                                                                                                                                                                                                                                                                ",
"                                                                                                                                                                                                                                                                                                                                                                                                                                                                                                                                                                                                                                                                                                                                                                                ",
"                                                                                                                                                                                                                                                                                                                                                                                                                                                                                                                                                                                                                                                                                                                                                                                ",
"                                                                                                                                                                                                                                                                                                                                                                                                                                                                                                                                                                                                                                                                                                                                                                                ",
"                                                                                                                                                                                                                                                                                                                                                                                                                                                                                                                                                                                                                                                                                                                                                                                ",
"                                                                                                                                                                                                                                                                                                                                                                                                                                                                                                                                                                                                                                                                                                                                                                                ",
"                                                                                                                                                                                                                                                                                                                                                                                                                                                                                                                                                                                                                                                                                                                                                                                ",
"                                                                                                                                                                                                                                                                                                                                                                                                                                                                                                                                                                                                                                                                                                                                                                                ",
"                                                                                                                                                                                                                                                                                                                                                                                                                                                                                                                                                                                                                                                                                                                                                                                ",
"                                                                                                                                                                                                                                                                                                                                                                                                                                                                                                                                                                                                                                                                                                                                                                                ",
"                                                                                                                                                                                                                                                                                                                                                                                                                                                                                                                                                                                                                                                                                                                                                                                ",
"                                                                                                                                                                                                                                                                                                                                                                                                                                                                                                                                                                                                                                                                                                                                                                                ",
"                                                                                                                                                                                                                                                                                                                                                                                                                                                                                                                                                                                                                                                                                                                                                                                ",
"                                                                                                                                                                                                                                                                                                                                                                                                                                                                                                                                                                                                                                                                                                                                                                                ",
"                                                                                                                                                                                                                                                                                                                                                                                                                                                                                                                                                                                                                                                                                                                                                                                ",
"                                                                                                                                                                                                                                                                                                                                                                                                                                                                                                                                                                                                                                                                                                                                                                                ",
"                                                                                                                                                                                                                                                                                                                                                                                                                                                                                                                                                                                                                                                                                                                                                                                ",
"                                                                                                                                                                                                                                                                                                                                                                                                                                                                                                                                                                                                                                                                                                                                                                                ",
"                                                                                                                                                                                                                                                                                                                                                                                                                                                                                                                                                                                                                                                                                                                                                                                ",
"                                                                                                                                                                                                                                                                                                                                                                                                                                                                                                                                                                                                                                                                                                                                                                                ",
"                                                                                                                                                                                                                                                                                                                                                                                                                                                                                                                                                                                                                                                                                                                                                                                ",
"                                                                                                                                                                                                                                                                                                                                                                                                                                                                                                                                                                                                                                                                                                                                                                                ",
"                                                                                                                                                                                                                                                                                                                                                                                                                                                                                                                                                                                                                                                                                                                                                                                ",
"                                                                                                                                                                                                                                                                                                                                                                                                                                                                                                                                                                                                                                                                                                                                                                                ",
"                                                                                                                                                                                                                                                                                                                                                                                                                                                                                                                                                                                                                                                                                                                                                                                ",
"                                                                                                                                                                                                                                                                                                                                                                                                                                                                                                                                                                                                                                                                                                                                                                                ",
"                                                                                                                                                                                                                                                                                                                                                                                                                                                                                                                                                                                                                                                                                                                                                                                ",
"                                                                                                                                                                                                                                                                                                                                                                                                                                                                                                                                                                                                                                                                                                                                                                                ",
"                                                                                                                                                                                                                                                                                                                                                                                                                                                                                                                                                                                                                                                                                                                                                                                ",
"                                                                                                                                                                                                                                                                                                                                                                                                                                                                                                                                                                                                                                                                                                                                                                                ",
"                                                                                                                                                                                                                                                                                                                                                                                                                                                                                                                                                                                                                                                                                                                                                                                ",
"                                                                                                                                                                                                                                                                                                                                                                                                                                                                                                                                                                                                                                                                                                                                                                                ",
"                                                                                                                                                                                                                                                                                                                                                                                                                                                                                                                                                                                                                                                                                                                                                                                ",
"                                                                                                                                                                                                                                                                                                                                                                                                                                                                                                                                                                                                                                                                                                                                                                                ",
"                                                                                                                                                                                                                                                                                                                                                                                                                                                                                                                                                                                                                                                                                                                                                                                ",
"                                                                                                                                                                                                                                                                                                                                                                                                                                                                                                                                                                                                                                                                                                                                                                                ",
"                                                                                                                                                                                                                                                                                                                                                                                                                                                                                                                                                                                                                                                                                                                                                                                ",
"                                                                                                                                                                                                                                                                                                                                                                                                                                                                                                                                                                                                                                                                                                                                                                                ",
"                                                                                                                                                                                                                                                                                                                                                                                                                                                                                                                                                                                                                                                                                                                                                                                ",
"                                                                                                                                                                                                                                                                                                                                                                                                                                                                                                                                                                                                                                                                                                                                                                                ",
"                                                                                                                                                                                                                                                                                                                                                                                                                                                                                                                                                                                                                                                                                                                                                                                ",
"                                                                                                                                                                                                                                                                                                                                                                                                                                                                                                                                                                                                                                                                                                                                                                                ",
"                                                                                                                                                                                                                                                                                                                                                                                                                                                                                                                                                                                                                                                                                                                                                                                ",
"                                                                                                                                                                                                                                                                                                                                                                                                                                                                                                                                                                                                                                                                                                                                                                                ",
"                                                                                                                                                                                                                                                                                                                                                                                                                                                                                                                                                                                                                                                                                                                                                                                ",
"                                                                                                                                                                                                                                                                                                                                                                                                                                                                                                                                                                                                                                                                                                                                                                                ",
"                                                                                                                                                                                                                                                                                                                                                                                                                                                                                                                                                                                                                                                                                                                                                                                ",
"                                                                                                                                                                                                                                                                                                                                                                                                                                                                                                                                                                                                                                                                                                                                                                                ",
"                                                                                                                                                                                                                                                                                                                                                                                                                                                                                                                                                                                                                                                                                                                                                                                ",
"                                                                                                                                                                                                                                                                                                                                                                                                                                                                                                                                                                                                                                                                                                                                                                                ",
"                                                                                                                                                                                                                                                                                                                                                                                                                                                                                                                                                                                                                                                                                                                                                                                ",
"                                                                                                                                                                                                                                                                                                                                                                                                                                                                                                                                                                                                                                                                                                                                                                                "
};
