/* XPM */
static char *d48f543c2e864d1d9132652c4ee2a94a0wVZVaMi2Pq07miU[] = {
/* columns rows colors chars-per-pixel */
"376 1079 173 2 ",
"   c black",
".  c #0A0F0D",
"X  c #100D0C",
"o  c #0D0D10",
"O  c #101010",
"+  c #141E1B",
"@  c gray12",
"#  c #201C13",
"$  c #201719",
"%  c #201819",
"&  c #302B1C",
"*  c #191920",
"=  c #1C2C2B",
"-  c #202020",
";  c #202E25",
":  c #302325",
">  c #252530",
",  c #2B3D32",
"<  c #263A39",
"1  c gray19",
"2  c #403526",
"3  c #403B26",
"4  c #402F32",
"5  c #503B3F",
"6  c #354C3E",
"7  c #504A30",
"8  c #605839",
"9  c #353443",
"0  c #2C2B6B",
"q  c #3E3D7C",
"w  c #304947",
"e  c #395756",
"r  c #00635F",
"t  c #0A6B67",
"y  c #15756C",
"u  c #137470",
"i  c #1C7D79",
"p  c #207E72",
"a  c gray25",
"s  c #5F474C",
"d  c #405B4A",
"f  c #505050",
"g  c #5F5F5F",
"h  c #60474B",
"j  c #6F5B48",
"k  c #705258",
"l  c #4B6A57",
"z  c #776C48",
"x  c #4B4B60",
"c  c #585870",
"v  c #7F5F65",
"b  c #436664",
"n  c #567963",
"m  c #4C7472",
"M  c #606060",
"N  c #6F6F6F",
"B  c #65647F",
"V  c gray44",
"C  c gray50",
"Z  c #801D18",
"A  c #821729",
"S  c #8B272D",
"D  c #90312E",
"F  c #922C3D",
"G  c #935F16",
"H  c #816702",
"J  c #98641C",
"K  c #927916",
"L  c #993647",
"P  c #9F4545",
"I  c #A54755",
"U  c #AD5657",
"Y  c #80754C",
"T  c #866F50",
"R  c #805E65",
"E  c #B15565",
"W  c #8F6A72",
"Q  c #906A72",
"!  c #9F767E",
"~  c #BC686F",
"^  c #A0767E",
"/  c #C3707A",
"(  c #2B8779",
")  c #618970",
"_  c #6C987C",
"`  c #9F8726",
"'  c #A18827",
"]  c #AD9536",
"[  c #B0983A",
"{  c #8F8456",
"}  c #A0905F",
"|  c #BDA64A",
" . c #9F8E60",
".. c #B8996E",
"X. c #B3A16C",
"o. c #BFB073",
"O. c #C0904D",
"+. c #D0BB70",
"@. c #D7C269",
"#. c #DFC972",
"$. c #E7D27C",
"%. c #535290",
"&. c #646480",
"*. c #757595",
"=. c #7574AD",
"-. c #C87484",
";. c #D07F8E",
":. c #268480",
">. c #36938F",
",. c #508D8A",
"<. c #409986",
"1. c #60918F",
"2. c #55AA92",
"3. c #6EA793",
"4. c #51AAA6",
"5. c #56AEAA",
"6. c #73AFAC",
"7. c #6CBDA0",
"8. c #72BCB8",
"9. c #72C4AD",
"0. c #74C9C5",
"q. c #7CD0CC",
"w. c #808080",
"e. c gray56",
"r. c #909090",
"t. c #9F9F9F",
"y. c #AF828B",
"u. c #BF8E97",
"i. c #81B695",
"p. c #8988B3",
"a. c #9796BF",
"s. c #A0A0A0",
"d. c #AFAFAF",
"f. c gray69",
"g. c gray75",
"h. c #D68992",
"j. c #CF99A4",
"k. c #E498A6",
"l. c #DFA5B1",
"z. c #EFA9B4",
"x. c #EFB1BD",
"c. c #85CBA8",
"v. c #96D4AE",
"b. c #8CD8B4",
"n. c #97E1BA",
"m. c #A1E4BA",
"M. c #DFCD86",
"N. c #EFC68B",
"B. c #F7CC8F",
"V. c #EFDA86",
"C. c #EFDC8F",
"Z. c #FFD599",
"A. c #F7E38F",
"S. c #FFEB99",
"D. c #9493CE",
"F. c #A2A1DA",
"G. c #ACABD9",
"H. c #B9B8EE",
"J. c #BBBAF2",
"K. c #F8B2C0",
"L. c #FFBDCA",
"P. c #86CCC8",
"I. c #86D8D4",
"U. c #8FDBD7",
"Y. c #8FE1DD",
"T. c #A1EAC0",
"R. c #ACF3C7",
"E. c #99E9E5",
"W. c gray81",
"Q. c #DFDFDF",
"!. c #C9C8FF",
"~. c #EFEFEF",
"^. c white",
/* pixels */
"                                                                                                                                                                                                                                                                                                                                                                                                                                                                                                                                                                                                                                                                                                                                                                                ",
"                                                                                                                                                                                                                                                                                                                                                                                                                                                                                                                                                                                                                                                                                                                                                                                ",
"                                                                                                                                                                                                                                                                                                                                                                                                                                                                                                                                                                                                                                                                                                                                                                                ",
"                                                                                                                                                                                                                                                                                                                                                                                                                                                                                                                                                                                                                                                                                                                                                                                ",
"                                                                                                                                                                                                                                                                                                                                                                                                                                                                                                                                                                                                                                                                                                                                                                                ",
"                                                                                                                                                                                                                                                                                                                                                                                                                                                                                                                                                                                                                                                                                                                                                                                ",
"                                                                                                                                                                                                                                                                                                                                                                                                                                                                                                                                                                                                                                                                                                                                                                                ",
"                                                                                                                                                                                                                                                                                                                                                                                                                                                                                                                                                                                                                                                                                                                                                                                ",
"                                                                                                                                                                                                                                                                                                                                                                                                                                                                                                                                                                                                                                                                                                                                                                                ",
"                                                                                                                                                                                                                                                                                                                                                                                                                                                                                                                                                                                                                                                                                                                                                                                ",
"                                                                                                                                                                                                                                                                                                                                                                                                                                                                                                                                                                                                                                                                                                                                                                                ",
"                                                                                                                                                                                                                                                                                                                                                                                                                                                                                                                                                                                                                                                                                                                                                                                ",
"                                                                                                                                                                                                                                                                                                                                                                                                                                                                                                                                                                                                                                                                                                                                                                                ",
"                                                                                                                                                                                                                                                                                                                                                                                                                                                                                                                                                                                                                                                                                                                                                                                ",
"                                                                                                                                                                                                                                                                                                                                                                                                                                                                                                                                                                                                                                                                                                                                                                                ",
"                                                                                                                                                                                                                                                                                                                                                                                                                                                                                                                                                                                                                                                                                                                                                                                ",
"                                                                                                                                                                                                                                                                                                                                                                                                                                                                                                                                                                                                                                                                                                                                                                                ",
"                                                                                                                                                                                                                                                                                                                                                                                                                                                                                                                                                                                                                                                                                                                                                                                ",
"                                                                                                                                                                                                                                                                                                                                                                                                                                                                                                                                                                                                                                                                                                                                                                                ",
"                                                                                                                                                                                                                                                                                                                                                                                                                                                                                                                                                                                                                                                                                                                                                                                ",
"                                                                                                                                                                                                                                                                                                                                                                                                                                                                                                                                                                                                                                                                                                                                                                                ",
"                                                                                                                                                                                                                                                                                                                                                                                                                                                                                                                                                                                                                                                                                                                                                                                ",
"                                                                                                                                                                                                                                                                                                                                                                                                                                                                                                                                                                                                                                                                                                                                                                                ",
"                                                                                                                                                                                                                                                                                                                                                                                                                                                                                                                                                                                                                                                                                                                                                                                ",
"                                                                                                                                                                                                                                                                                                                                                                                                                                                                                                                                                                                                                                                                                                                                                                                ",
"                                                                                                                                                                                                                                                                                                                                                                                                                                                                                                                                                                                                                                                                                                                                                                                ",
"                                                                                                                                                                                                                                                                                                                                                                                                                                                                                                                                                                                                                                                                                                                                                                                ",
"                                                                                                                                                                                                                                                                                                                                                                                                                                                                                                                                                                                                                                                                                                                                                                                ",
"                                                                                                                                                                                                                                                                                                                                                                                                                                                                                                                                                                                                                                                                                                                                                                                ",
"                                                                                                                                                                                                                                                                                                                                                                                                                                                                                                                                                                                                                                                                                                                                                                                ",
"                                                                                                                                                                                                                                                                                                                                                                                                                                                                                                                                                                                                                                                                                                                                                                                ",
"                                                                                                                                                                                                                                                                                                                                                                                                                                                                                                                                                                                                                                                                                                                                                                                ",
"                                                                                                                                                                                                                                                                                                                                                                                                                                                                                                                                                                                                                                                                                                                                                                                ",
"                                                                                                                                                                                                                                                                                                                                                                                                                                                                                                                                                                                                                                                                                                                                                                                ",
"                                                                                                                                                                                                                                                                                                                                                                                                                                                                                                                                                                                                                                                                                                                                                                                ",
"                                                                                                                                                                                                                                                                                                                                                                                                                                                                                                                                                                                                                                                                                                                                                                                ",
"                                                                                                                                                                                                                                                                                                                                                                                                                                                                                                                                                                                                                                                                                                                                                                                ",
"                                                                                                                                                                                                                                                                                                                                                                                                                                                                                                                                                                                                                                                                                                                                                                                ",
"                                                                                                                                                                                                                                                                                                                                                                                                                                                                                                                                                                                                                                                                                                                                                                                ",
"                                                                                                                                                                                                                                                                                                                                                                                                                                                                                                                                                                                                                                                                                                                                                                                ",
"                                                                                                                                                                                                                                                                                                                                                                                                                                                                                                                                                                                                                                                                                                                                                                                ",
"                                                                                                                                                                                                                                                                                                                                                                                                                                                                                                                                                                                                                                                                                                                                                                                ",
"                                                                                                                                                                                                                                                                                                                                                                                                                                                                                                                                                                                                                                                                                                                                                                                ",
"                                                                                                                                                                                                                                                                                                                                                                                                                                                                                                                                                                                                                                                                                                                                                                                ",
"                                                                                                                                                                                                                                                                                                                                                                                                                                                                                                                                                                                                                                                                                                                                                                                ",
"                                                                                                                                                                                                                                                                                                                                                                                                                                                                                                                                                                                                                                                                                                                                                                                ",
"                                                                                                                                                                                                                                                                                                                                                                                                                                                                                                                                                                                                                                                                                                                                                                                ",
"                                                                                                                                                                                                                                                                                                                                                                                                                                                                                                                                                                                                                                                                                                                                                                                ",
"                                                                                                                                                                                                                                                                                                                                                                                                                                                                                                                                                                                                                                                                                                                                                                                ",
"                                                                                                                                                                                                                                                                                                                                                                                                                                                                                                                                                                                                                                                                                                                                                                                ",
"                                                                                                                                                                                                                                                                                                                                                                                                                                                                                                                                                                                                                                                                                                                                                                                ",
"                                                                                                                                                                                                                                                                                                                                                                                                                                                                                                                                                                                                                                                                                                                                                                                ",
"                                                                                                                                                                                                                                                                                                                                                                                                                                                                                                                                                                                                                                                                                                                                                                                ",
"                                                                                                                                                                                                                                                                                                                                                                                                                                                                                                                                                                                                                                                                                                                                                                                ",
"                                                                                                                                                                                                                                                                                                                                                                                                                                                                                                                                                                                                                                                                                                                                                                                ",
"                                                                                                                                                                                                                                                                                                                                                                                                                                                                                                                                                                                                                                                                                                                                                                                ",
"                                                                                                                                                                                                                                                                                                                                                                                                                                                                                                                                                                                                                                                                                                                                                                                ",
"                                                                                                                                                                                                                                                                                                                                                                                                                                                                                                                                                                                                                                                                                                                                                                                ",
"                                                                                                                                                                                                                                                                                                                                                                                                                                                                                                                                                                                                                                                                                                                                                                                ",
"                                                                                                                                                                                                                                                                                                                                                                                                                                                                                                                                                                                                                                                                                                                                                                                ",
"                                                                                                                                                                                                                                                                                                                                                                                                                                                                                                                                                                                                                                                                                                                                                                                ",
"                                                                                                                                                                                                                                                                                                                                                                                                                                                                                                                                                                                                                                                                                                                                                                                ",
"                                                                                                                                                                                                                                                                                                                                                                                                                                                                                                                                                                                                                                                                                                                                                                                ",
"                                                                                                                                                                                                                                                                                                                                                                                                                                                                                                                                                                                                                                                                                                                                                                                ",
"                                                                                                                                                                                                                                                            O g.g.M             O g.g.M                                                                                                                                                                                                                                                                                                                                                                                                                                                                                         ",
"                                                                                                                                                                                                                                                            - ^.^.w.            - ^.^.w.                                                                                              a e.@                                                                                                                                                                                                                                                                                                                                                                                     ",
"                                                                                                                                                                                                                                                            - ^.^.w.            - ^.^.w.                                                                                            M ^.^.@                                                                                                                                                                                                                                                                                                                                                                                     ",
"                                                                                                                                                                                                                                                            - ^.^.w.            - ^.^.w.                                                                                            M ^.^.@                                                                                                                                                                                                                                                                                                                                                                                     ",
"                                                                                                                                                                                                                                                            - ^.^.w.            - ^.^.w.              O 1 a 1                                                                   O - N ^.^.a - O             - a a O                                                             - a a O               O 1 a -                                                                                                                                                                                                                                                                   ",
"                                                                                                                                                                                                                                                            - ^.^.w.            - ^.^.w.          - g.^.^.^.^.Q.M       O ~.^.g.          t.^.^.a         - ^.^.r.              w.^.^.^.^.^.^.g.        f W.^.^.^.^.g.-                       - ^.^.M         a ^.^.M       1 g.^.^.^.^.Q.O         C ~.^.^.^.Q.-                                                                                                                                                                                                                                                               ",
"                                                                                                                                                                                                                                                            - ^.^.w.            - ^.^.w.        - Q.^.^.^.^.^.^.^.C       g.^.~.O         Q.^.^.r.        M ^.^.1               w.^.^.^.^.^.^.g.      C ^.^.^.^.^.^.^.~.1                     - ^.^.M         a ^.^.M     - Q.^.^.^.^.^.^.        e.^.^.^.^.^.^.~.1                                                                                                                                                                                                                                                             ",
"                                                                                                                                                                                                                                                            - ^.^.d.M M M M M M V ^.^.w.        Q.^.^.r.O   a Q.^.^.a     M ^.^.f       a ^.^.^.~.        g.^.Q.                - a w.^.^.M a 1     1 ^.^.Q.a   O V ^.^.Q.O                   - ^.^.M         a ^.^.M     M ^.^.M     1 V       M ^.^.d.O   M ^.^.g.                                                                                                                                                                                                                                                            ",
"                                                                                                                                                                                                                                                            - ^.^.^.^.^.^.^.^.^.^.^.^.w.      M ^.^.w.        - ~.^.g.    O ^.^.t.      t.^.~.^.^.a     O ^.^.r.                    M ^.^.@         g.^.^.-         w.^.^.V                   - ^.^.M         a ^.^.M     w.^.~.                g.^.Q.        w.^.^.@                                                                                                                                                                                                                                                           ",
"                                                                                                                                                                                                                                                            - ^.^.^.^.^.^.^.^.^.^.^.^.w.      d.^.^.-           r.^.^.@     g.^.~.      Q.^.V ~.^.w.    M ^.^.1                     M ^.^.@       O ^.^.t.          O ~.^.g.                  - ^.^.M         a ^.^.M     a ^.^.e.-             ^.^.V         1 ^.^.M                                                                                                                                                                                                                                                           ",
"                                                                                                                                                                                                                                                            - ^.^.r.- - - - - - a ^.^.w.      W.^.W.            M ^.^.f     V ^.^.a   a ^.^.1 s.^.W.    d.^.Q.                      M ^.^.@       a ^.^.V             d.^.Q.                  - ^.^.M         a ^.^.M       g.^.^.Q.C         1 ^.^.W.g.g.g.g.W.^.^.w.                                                                                                                                                                                                                                                          ",
"                                                                                                                                                                                                                                                            - ^.^.w.            - ^.^.w.      Q.^.g.            a ^.^.M     O ^.^.r.  t.^.Q.  f ^.^.@ O ^.^.t.                      M ^.^.@       a ^.^.M             s.^.^.                  - ^.^.M         a ^.^.M         w.Q.^.^.Q.1     a ^.^.^.^.^.^.^.^.^.^.w.                                                                                                                                                                                                                                                          ",
"                                                                                                                                                                                                                                                            - ^.^.w.            - ^.^.w.      Q.^.W.            f ^.^.f       g.^.Q.  Q.^.r.  O ~.^.V f ^.^.a                       M ^.^.@       1 ^.^.M             g.^.~.                  - ^.^.M         a ^.^.M           - s.^.^.~.-   1 ^.^.d.w.w.w.w.w.w.w.a                                                                                                                                                                                                                                                           ",
"                                                                                                                                                                                                                                                            - ^.^.w.            - ^.^.w.      d.^.~.O           r.^.^.1       V ^.^.C ^.^.1     g.^.g.t.^.Q.                        M ^.^.@       O ^.^.r.            Q.^.g.                  - ^.^.w.        a ^.^.M               a ^.^.r.  O ^.^.r.                                                                                                                                                                                                                                                                          ",
"                                                                                                                                                                                                                                                            - ^.^.w.            - ^.^.w.      V ^.^.w.        - Q.^.Q.        O ^.^.~.^.Q.      V ^.^.~.^.t.                        M ^.^.@         g.^.~.O         M ^.^.M                   O ^.^.t.        t.^.^.M                 Q.^.g.    Q.^.Q.                                                                                                                                                                                                                                                                          ",
"                                                                                                                                                                                                                                                            - ^.^.w.            - ^.^.w.      O Q.^.~.M     O W.^.^.M           g.^.^.^.t.      O ^.^.^.^.a                         M ^.^.a   O     f ^.^.W.-     a ~.^.Q.-                     W.^.~.-     g ^.^.^.M     M a       g ^.^.t.    w.^.^.t.-       a V                                                                                                                                                                                                                                                             ",
"                                                                                                                                                                                                                                                            - ^.^.w.            - ^.^.w.        a ^.^.^.~.Q.^.^.^.s.            V ^.^.^.a         g.^.^.Q.                          1 ^.^.^.Q.~.      r.^.^.^.Q.~.^.^.^.f                       V ^.^.^.Q.~.^.^.^.^.M     r.^.^.Q.Q.^.^.^.1     O W.^.^.^.g.Q.~.^.t.                                                                                                                                                                                                                                                            ",
"                                                                                                                                                                                                                                                            - ^.^.w.            - ^.^.w.          1 Q.^.^.^.^.~.w.              O ^.^.Q.          V ^.^.t.                            s.^.^.^.^.O       w.^.^.^.^.^.Q.a                           w.^.^.^.^.~.V ^.^.V     s.^.^.^.^.^.~.M         - s.^.^.^.^.^.^.w.                                                                                                                                                                                                                                                            ",
"                                                                                                                                                                                                                                                              - - O               - - O               a M M f O                   - - -             - - O                               a M M a           O a M M a                                 - f M f O   - - O       - f M M a O               - f M M a O                                                                                                                                                                                                                                                               ",
"                                                                                                                                                                                                                                                                                                                                                                                                                                                                                                                                                                                                                                                                                                                                                                                ",
"                                                                                                                                                                                                                                                                                                                                                                                                                                                                                                                                                                                                                                                                                                                                                                                ",
"                                                                                                                                                                                                                                                                                                                                                                                                                                                                                                                                                                                                                                                                                                                                                                                ",
"                                                                                                                                                                                                                                                                                                                                                                                                                                                                                                                                                                                                                                                                                                                                                                                ",
"                                                                                                                                                                                                                                                                                                                                                                                                                                                                                                                                                                                                                                                                                                                                                                                ",
"                                                                                                                                                                                                                                                                                                                                                                                                                                                                                                                                                                                                                                                                                                                                                                                ",
"                                                                                                                                                                                                                                                                                                                                                                                                                                                                                                                                                                                                                                                                                                                                                                                ",
"                                                                                                                                                                                                                                                                                                                                                                                                                                                                                                                                                                                                                                                                                                                                                                                ",
"                                                                                                                                                                                                                                                                                                                                                                                                                                                                                                                                                                                                                                                                                                                                                                                ",
"                                                                                                                                                                                                                                                                                                                                                                                                                                                                                                                                                                                                                                                                                                                                                                                ",
"                                                                                                                                                                                                                                                                                                                                                                                                                                                                                                                                                                                                                                                                                                                                                                                ",
"                                                                                                                                                                                                                                                                                                                                                                                                                                                                                                                                                                                                                                                                                                                                                                                ",
"                                                                                                                                                                                                                                                                                                                                                                                                                                                                                                                                                                                                                                                                                                                                                                                ",
"                                                                                                                                                                                                                                                                                                                                                                                                                                                                                                                                                                                                                                                                                                                                                                                ",
"                                                                                                                                                                                                                                                                                                                                                                                                                                                                                                                                                                                                                                                                                                                                                                                ",
"                                                                                                                                                                                                                                                                                                                                                                                                                                                                                                                                                                                                                                                                                                                                                                                ",
"                                                                                                                                                                                                                                                                                                                                                                                                                                                                                                                                                                                                                                                                                                                                                                                ",
"                                                                                                                                                                                                                                                                                                                                                                                                                                                                                                                                                                                                                                                                                                                                                                                ",
"                                                                                                                                                                                                                                                                                                                                                                                                                                                                                                                                                                                                                                                                                                                                                                                ",
"                                                                                                                                                                                                                                                                                                                                                                                                                                                                                                                                                                                                                                                                                                                                                                                ",
"                                                                                                                                                                                                                                                                                                                                                                                                                                                                                                                                                                                                                                                                                                                                                                                ",
"                                                                                                                                                                                                                                                                                                                                                                                                                                                                                                                                                                                                                                                                                                                                                                                ",
"                                                                                                                                                                                                                                                                                                                                                                                                                                                                                                                                                                                                                                                                                                                                                                                ",
"                                                                                                                                                                                                                                                                                                                                                                                                                                                                                                                                                                                                                                                                                                                                                                                ",
"                                                                                                                                                                                                                                                                                                                                                                                                                                                                                                                                                                                                                                                                                                                                                                                ",
"                                                                                                                                                                                                                                                                                                                                                                                                                                                                                                                                                                                                                                                                                                                                                                                ",
"                                                                                                                                                                                                                                                                                                                                                                                                                                                                                                                                                                                                                                                                                                                                                                                ",
"                                                                                                                                                                                                                                                                                                                                                                                                                                                                                                                                                                                                                                                                                                                                                                                ",
"                                                                                                                                                                                                                                                                                                                                                                                                                                                                                                                                                                                                                                                                                                                                                                                ",
"                                                                                                                                                                                                                                                                                                                                                                                                                                                                                                                                                                                                                                                                                                                                                                                ",
"                                                                                                                                                                                                                                                                                                                                                                                                                                                                                                                                                                                                                                                                                                                                                                                ",
"                                                                                                                                                                                                                                                                                                                                                                                                                                                                                                                                                                                                                                                                                                                                                                                ",
"                                                                                                                                                                                                                                                                                                                                                                                                                                                                                                                                                                                                                                                                                                                                                                                ",
"                                                                                                                                                                                                                                                                                                                                                                                                                                                                                                                                                                                                                                                                                                                                                                                ",
"                                                                                                                                                                                                                                                                                                                                                                                                                                                                                                                                                                                                                                                                                                                                                                                ",
"                                                                                                                                                                                                                                                                                                                                                                                                                                                                                                                                                                                                                                                                                                                                                                                ",
"                                                                                                                                                                                                                                                                                                                                                                                                                                                                                                                                                                                                                                                                                                                                                                                ",
"                                                                                                                                                                                                                                                                                                                                                                                                                                                                                                                                                                                                                                                                                                                                                                                ",
"                                                                                                                                                                                                                                                                                                                                                                                                                                                                                                                                                                                                                                                                                                                                                                                ",
"                                                                                                                                                                                                                                                                                                                                                                                                                                                                                                                                                                                                                                                                                                                                                                                ",
"                                                                                                                                                                                                                                                                                                                                                                                                                                                                                                                                                                                                                                                                                                                                                                                ",
"                                                                                                                                                                                                                                                                                                                                                                                                                                                                                                                                                                                                                                                                                                                                                                                ",
"                                                                                                                                                                                                                                                                                                                                                                                                                                                                                                                                                                                                                                                                                                                                                                                ",
"                                                                                                                                                                                                                                                                                                                                                                                                                                                                                                                                                                                                                                                                                                                                                                                ",
"                                                                                                                                                                                                                                                                                                                                                                                                                                                                                                                                                                                                                                                                                                                                                                                ",
"                                                                                                                                                                                                                                                                                                                                                                                                                                                                                                                                                                                                                                                                                                                                                                                ",
"                                                                                                                                                                                                                                                                                                                                                                                                                                                                                                                                                                                                                                                                                                                                                                                ",
"                                                                                                                                                                                                                                                                                                                                                                                                                                                                                                                                                                                                                                                                                                                                                                                ",
"                                                                                                                                                                                                                                                                                                                                                                                                                                                                                                                                                                                                                                                                                                                                                                                ",
"                                                                                                                                                                                                                                                                                                                                                                                                                                                                                                                                                                                                                                                                                                                                                                                ",
"                                                                                                                                                                                                                                                                                                                                                                                                                                                                                                                                                                                                                                                                                                                                                                                ",
"                                                                                                                                                                                                                                                                                                                                                                                                                                                                                                                                                                                                                                                                                                                                                                                ",
"                                                                                                                                                                                                                                                                                                                                                                                                                                                                                                                                                                                                                                                                                                                                                                                ",
"                                                                                                                                                                                                                                                                                                                                                                                                                                                                                                                                                                                                                                                                                                                                                                                ",
"                                                                                                                                                                                                                                                                                                                                                                                                                                                                                                                                                                                                                                                                                                                                                                                ",
"                                                                                                                                                                                                                                                                                                                                                                                                                                                                                                                                                                                                                                                                                                                                                                                ",
"                                                                                                                                                                                                                                                                                                                                                                                                                                                                                                                                                                                                                                                                                                                                                                                ",
"                                                                                                                                                                                                                                                                                                                                                                                                                                                                                                                                                                                                                                                                                                                                                                                ",
"                                                                                                                                                                                                                                                                                                                                                                                                                                                                                                                                                                                                                                                                                                                                                                                ",
"                                                                                                                                                                                                                                                                                                                                                                                                                                                                                                                                                                                                                                                                                                                                                                                ",
"                                                                                                                                                                                                                                                                                                                                                                                                                                                                                                                                                                                                                                                                                                                                                                                ",
"                                                                                                                                                                                                                                                                                                                                                                                                                                                                                                                                                                                                                                                                                                                                                                                ",
"                                                                                                                                                                                                                                                                                                                                                                                                                                                                                                                                                                                                                                                                                                                                                                                ",
"                                                                                                                                                                                                                                                                                                                                                                                                                                                                                                                                                                                                                                                                                                                                                                                ",
"                                                                                                                                                                                                                                                                                                                                                                                                                                                                                                                                                                                                                                                                                                                                                                                ",
"                                                                                                                                                                                                                                                                                                                                                                                                                                                                                                                                                                                                                                                                                                                                                                                ",
"                                                                                                                                                                                                                                                                                                                                                                                                                                                                                                                                                                                                                                                                                                                                                                                ",
"                                                                                                                                                                                                                                                                                                                                                                                                                                                                                                                                                                                                                                                                                                                                                                                ",
"                                                                                                                                                                                                                                                                                                                                                                                                                                                                                                                                                                                                                                                                                                                                                                                ",
"                                                                                                                                                                                                                                                                                                                                                                                                                                                                                                                                                                                                                                                                                                                                                                                ",
"                                                                                                                                                                                                                                                                                                                                                                                                                                                                                                                                                                                                                                                                                                                                                                                ",
"                                                                                                                                                                                                                                                                                                                                                                                                                                                                                                                                                                                                                                                                                                                                                                                ",
"                                                                                                                                                                                                                                                                                                                                                                                                                                                                                                                                                                                                                                                                                                                                                                                ",
"                                                                                                                                                                                                                                                                                                                                                                                                                                                                                                                                                                                                                                                                                                                                                                                ",
"                                                                                                                                                                                                                                                                                                                                                                                                                                                                                                                                                                                                                                                                                                                                                                                ",
"                                                                                                                                                                                                                                                                                                                                                                                                                                                                                                                                                                                                                                                                                                                                                                                ",
"                                                                                                                                                                                                                                                                                                                                                                                                                                                                                                                                                                                                                                                                                                                                                                                ",
"                                                                                                                                                                                                                                                                                                                                                                                                                                                                                                                                                                                                                                                                                                                                                                                ",
"                                                                                                                                                                                                                                                                                                                                                                                                                                                                                                                                                                                                                                                                                                                                                                                ",
"                                                                                                                                                                                                                                                                                                                                                                                                                                                                                                                                                                                                                                                                                                                                                                                ",
"                                                                                                                                                                                                                                                                                                                                                                                                                                                                                                                                                                                                                                                                                                                                                                                ",
"                                                                                                                                                                                                                                                                                                                                                                                                                                                                                                                                                                                                                                                                                                                                                                                ",
"                                                                                                                                                                                                                                                                                                                                                                                                                                                                                                                                                                                                                                                                                                                                                                                ",
"                                                                                                                                                                                                                                                                                                                                                                                                                                                                                                                                                                                                                                                                                                                                                                                ",
"                                                                                                                                                                                                                                                                                                                                                                                                                                                                                                                                                                                                                                                                                                                                                                                ",
"                                                                                                                                                                                                                                                                                                                                                                                                                                                                                                                                                                                                                                                                                                                                                                                ",
"                                                                                                                                                                                                                                                                                                                                                                                                                                                                                                                                                                                                                                                                                                                                                                                ",
"                                                                                                                                                                                                                                                                                                                                                                                                                                                                                                                                                                                                                                                                                                                                                                                ",
"                                                                                                                                                                                                                                                                                                                                                                                                                                                                                                                                                                                                                                                                                                                                                                                ",
"                                                                                                                                                                                                                                                                                                                                                                                                                                                                                                                                                                                                                                                                                                                                                                                ",
"                                                                                                                                                                                                                                                                                                                                                                                                                                                                                                                                                                                                                                                                                                                                                                                ",
"                                                                                                                                                                                                                                                                                                                                                                                                                                                                                                                                                                                                                                                                                                                                                                                ",
"                                                                                                                                                                                                                                                                                                                                                                                                                                                                                                                                                                                                                                                                                                                                                                                ",
"                                                                                                                                                                                                                                                                                                                                                                                                                                                                                                                                                                                                                                                                                                                                                                                ",
"                                                                                                                                                                                                                                                                                                                                                                                                                                                                                                                                                                                                                                                                                                                                                                                ",
"                                                                                                                                                                                                                                                                                                                                                                                                                                                                                                                                                                                                                                                                                                                                                                                ",
"                                                                                                                                                                                                                                                                                                                                                                                                                                                                                                                                                                                                                                                                                                                                                                                ",
"                                                                                                                                                                                                                                                                                                                                                                                                                                                                                                                                                                                                                                                                                                                                                                                ",
"                                                                                                                                                                                                                                                                                                                                                                                                                                                                                                                                                                                                                                                                                                                                                                                ",
"                                                                                                                                                                                                                                                                                                                                                                                                                                                                                                                                                                                                                                                                                                                                                                                ",
"                                                                                                                                                                                                                                                                                                                                                                                                                                                                                                                                                                                                                                                                                                                                                                                ",
"                                                                                                                                                                                                                                                                                                                                                                                                                                                                                                                                                                                                                                                                                                                                                                                ",
"                                                                                                                                                                                                                                                                                                                                                                                                                                                                                                                                                                                                                                                                                                                                                                                ",
"                                                                                                                                                                                                                                                                                                                                                                                                                                                                                                                                                                                                                                                                                                                                                                                ",
"                                                                                                                                                                                                                                                                                                                                                                                                                                                                                                                                                                                                                                                                                                                                                                                ",
"                                                                                                                                                                                                                                                                                                                                                                                                                                                                                                                                                                                                                                                                                                                                                                                ",
"                                                                                                                                                                                                                                                                                                                                                                                                                                                                                                                                                                                                                                                                                                                                                                                ",
"                                                                                                                                                                                                                                                                                                                                                                                                                                                                                                                                                                                                                                                                                                                                                                                ",
"                                                                                                                                                                                                                                                                                                                                                                                                                                                                                                                                                                                                                                                                                                                                                                                ",
"                                                                                                                                                                                                                                                                                                                                                                                                                                                                                                                                                                                                                                                                                                                                                                                ",
"                                                                                                                                                                                                                                                                                                                                                                                                                                                                                                                                                                                                                                                                                                                                                                                ",
"                                                                                                                                                                                                                                                                                                                                                                                                                                                                                                                                                                                                                                                                                                                                                                                ",
"                                                                                                                                                                                                                                                                                                                                                                                                                                                                                                                                                                                                                                                                                                                                                                                ",
"                                                                                                                                                                                                                                                                                                                                                                                                                                                                                                                                                                                                                                                                                                                                                                                ",
"                                                                                                                                                                                                                                                                                                                                                                                                                                                                                                                                                                                                                                                                                                                                                                                ",
"                                                                                                                                                                                                                                                                                                                                                                                                                                                                                                                                                                                                                                                                                                                                                                                ",
"                                                                                                                                                                                                                                                                                                                                                                                                                                                                                                                                                                                                                                                                                                                                                                                ",
"                                                                                                                                                                                                                                                                                                                                                                                                                                                                                                                                                                                                                                                                                                                                                                                ",
"                                                                                                                                                                                                                                                                                                                                                                                                                                                                                                                                                                                                                                                                                                                                                                                ",
"                                                                                                                                                                                                                                                                                                                                                                                                                                                                                                                                                                                                                                                                                                                                                                                ",
"                                                                                                                                                                                                                                                                                                                                                                                                                                                                                                                                                                                                                                                                                                                                                                                ",
"                                                                                                                                                                                                                                                                                                                                                                                                                                                                                                                                                                                                                                                                                                                                                                                ",
"                                                                                                                                                                                                                                                                                                                                                                                                                                                                                                                                                                                                                                                                                                                                                                                ",
"                                                                                                                                                                                                                                                                                                                                                                                                                                                                                                                                                                                                                                                                                                                                                                                ",
"                                                                                                                                                                                                                                                                                                                                                                                                                                                                                                                                                                                                                                                                                                                                                                                ",
"                                                                                                                                                                                                                                                                                                                                9 a.J.!.!.!.!.!.!.!.!.!.!.!.!.!.!.!.!.!.F.*.+                       9 *.G.!.!.!.!.!.!.!.!.!.!.!.!.!.!.!.!.!.F.*.*                                                                                                                                                                                                                                                                                                                               ",
"                                                                                                                                                                                                                                                                                                                            * a.!.!.!.!.!.!.!.!.!.!.!.!.!.!.!.!.!.!.!.!.!.!.!.c                   *.!.!.!.!.!.!.!.!.!.!.!.!.!.!.!.!.!.!.!.!.!.!.!.*.                                                                                                                                                                                                                                                                                                                            ",
"                                                                                                                                                                                                                                                                                                                          * G.!.!.!.!.!.!.!.!.!.!.!.!.!.!.!.!.!.!.!.!.!.!.!.!.!.B               a.!.!.!.!.!.!.!.!.!.!.!.!.!.!.!.!.!.!.!.!.!.!.!.!.!.a.                                                                                                                                                                                                                                                                                                                          ",
"                                                                                                                                                                                                                                                                                                                          G.!.!.!.!.!.!.!.!.!.!.!.!.!.!.!.!.!.!.!.!.!.!.!.!.!.!.!.9           B !.!.!.!.!.!.!.!.!.!.!.!.!.!.!.!.!.!.!.!.!.!.!.!.!.!.!.&.                                                                                                                                                                                                                                                                                                                        ",
"                                                                                                                                                                                                                                                                                                                        x !.!.!.!.!.!.!.!.!.!.!.!.!.!.!.!.!.!.!.!.!.!.!.!.!.!.!.!.a.        * !.!.!.!.!.!.!.!.!.!.!.!.!.!.!.!.!.!.!.!.!.!.!.!.!.!.!.!.J.o                                                                                                                                                                                                                                                                                                                       ",
"                                                                                                                                                                                                                                                                                                                        p.!.!.!.!.!.!.!.!.!.!.!.!.!.!.!.!.!.!.!.!.!.!.!.!.!.!.!.!.!.>       x !.!.!.!.!.!.!.!.!.!.!.!.!.!.!.!.!.!.!.!.!.!.!.!.!.!.!.!.!.c                                                                                                                                                                                                                                                                                                                       ",
"                                                                                                                                                                                                                                                                                                                        J.!.!.!.!.!.!.!.!.!.!.!.!.!.!.!.!.!.!.!.!.!.!.!.!.!.!.!.!.!.x       p.!.!.!.!.!.!.!.!.!.!.!.!.!.!.!.!.!.!.!.!.!.!.!.!.!.!.!.!.!.*.                                                                                                                                                                                                                                                                                                                      ",
"                                                                                                        1 w.w.w.w.w.w.a                                                                                                                                                                                                 !.!.!.!.!.!.!.!.!.!.!.!.!.!.!.!.!.!.!.!.!.!.!.!.!.!.!.!.!.!.&.      a.!.!.!.!.!.!.!.!.!.!.!.!.!.!.!.!.!.!.!.!.!.!.!.!.!.!.!.!.!.a.                                                                                                                                                                                                                                                                                                                      ",
"                                                                                                        M ^.^.^.^.^.^.w.                                                                                                                                                                                                !.!.!.!.!.!.!.!.!.!.!.!.!.!.!.!.!.!.!.!.!.!.!.!.!.!.!.!.!.!.&.      a.!.!.!.!.!.!.!.!.!.!.!.!.!.!.!.!.!.!.!.!.!.!.!.!.!.!.!.!.!.a.                                                                                                                                                                                                                                                                                                                      ",
"                                                                                                        O - - - - d.^.-                                                                                                                                                                                                 !.!.!.!.!.!.!.!.!.!.!.!.!.!.!.!.!.!.!.!.!.!.!.!.!.!.!.!.!.!.&.      a.!.!.!.!.!.!.!.!.!.!.!.!.!.!.!.!.!.!.!.!.!.!.!.!.!.!.!.!.!.a.                                                                                                                                                                                                                                                                                                                      ",
"                                                                                                                f ^.w.      O C t.e.f         O V t.t.M       - w.1 C t.M   a t.e.1                                                                                                                                     !.!.!.!.!.!.!.!.!.!.!.!.!.!.!.!.!.!.!.!.!.!.!.!.!.!.!.!.!.!.&.      a.!.!.!.!.!.!.!.!.!.!.!.!.!.J.H.J.!.!.!.!.!.!.!.!.!.!.!.!.!.a.                                                                                                                                                                                                                                                                                                                      ",
"                                                                                                                Q.Q.      - Q.^.W.Q.^.C     O Q.^.W.Q.^.e.    a ^.^.~.Q.^.g.^.W.Q.^.a                                                                                                                                   !.!.!.!.!.!.!.!.!.!.!.!.!.J.=.0 F.!.!.!.!.!.!.!.!.!.!.!.!.!.&.      a.!.!.!.!.!.!.!.!.!.!.!.!.p.q q 0 =.!.!.!.!.!.!.!.!.!.!.!.!.a.                                                                                                                                                                                                                                                                                                                      ",
"                                                                                                              C ^.a       t.^.1     d.^.a   e.^.V     r.^.a   a ^.Q.    g.^.w.  - ^.t.                                                                                                                                  !.!.!.!.!.!.!.!.!.!.!.!.!.=.=.q F.!.!.!.!.!.!.!.!.!.!.!.!.!.&.      a.!.!.!.!.!.!.!.!.!.!.!.H.0 F.!.H.q F.!.!.!.!.!.!.!.!.!.!.!.a.                                                                                                                                                                                                                                                                                                                      ",
"                                                                                                            - ^.t.        ~.g.      1 ^.V   W.W.      O ^.r.  a ^.V     s.^.O     Q.t.                                                                                                                                  !.!.!.!.!.!.!.!.!.!.!.!.!.J.!.q F.!.!.!.!.!.!.!.!.!.!.!.!.!.&.      a.!.!.!.!.!.!.!.!.!.!.!.G.=.!.!.!.%.D.!.!.!.!.!.!.!.!.!.!.!.a.                                                                                                                                                                                                                                                                                                                      ",
"                                                                                                            g.Q.-         ^.t.        ^.t.  ^.g.        ~.f.  a ^.M     s.^.      Q.t.                                                                                                                                  !.!.!.!.!.!.!.!.!.!.!.!.!.!.!.q F.!.!.!.!.!.!.!.!.!.!.!.!.!.&.      a.!.!.!.!.!.!.!.!.!.!.!.!.!.!.!.!.q D.!.!.!.!.!.!.!.!.!.!.!.a.                                                                                                                                                                                                                                                                                                                      ",
"                                                                                                          M ^.M           ~.f.      - ^.r.  Q.W.        ^.f.  a ^.M     s.^.      Q.t.                                                                                                                                  !.!.!.!.!.!.!.!.!.!.!.!.!.!.!.q F.!.!.!.!.!.!.!.!.!.!.!.!.!.&.      a.!.!.!.!.!.!.!.!.!.!.!.!.!.!.J.=.%.!.!.!.!.!.!.!.!.!.!.!.!.a.                                                                                                                                                                                                                                                                                                                      ",
"                                                                                                        - Q.Q.            g.~.-     C ^.a   r.^.1     N ^.M   a ^.M     s.^.      Q.t.                                                                                                                                  !.!.!.!.!.!.!.!.!.!.!.!.!.!.!.q F.!.!.!.!.!.!.!.!.!.!.!.!.!.&.      a.!.!.!.!.!.!.!.!.!.!.!.!.!.J.%.%.J.!.!.!.!.!.!.!.!.!.!.!.!.a.                                                                                                                                                                                                                                                                                                                      ",
"                                                                                                        w.^.~.Q.Q.Q.Q.t.  1 ~.Q.e.d.^.t.    - Q.Q.e.t.^.W.    a ^.M     s.^.      Q.t.                                                                                                                                  !.!.!.!.!.!.!.!.!.!.!.!.!.!.!.q F.!.!.!.!.!.!.!.!.!.!.!.!.!.&.      a.!.!.!.!.!.!.!.!.!.!.!.!.H.q =.!.!.!.!.!.!.!.!.!.!.!.!.!.!.a.                                                                                                                                                                                                                                                                                                                      ",
"                                                                                                        f t.t.t.t.t.t.C     - d.Q.Q.w.O       - s.Q.Q.w.O     - t.a     M t.      r.M                                                                                                                                   !.!.!.!.!.!.!.!.!.!.!.!.!.!.!.q F.!.!.!.!.!.!.!.!.!.!.!.!.!.&.      a.!.!.!.!.!.!.!.!.!.!.!.H.q %.F.F.F.H.!.!.!.!.!.!.!.!.!.!.!.a.                                                                                                                                                                                                                                                                                                                      ",
"                                                                                                                                                                                                                                                                                                                        !.!.!.!.!.!.!.!.!.!.!.!.!.!.!.%.G.!.!.!.!.!.!.!.!.!.!.!.!.!.&.      a.!.!.!.!.!.!.!.!.!.!.!.D.%.%.%.%.%.F.!.!.!.!.!.!.!.!.!.!.!.a.                                                                                                                                                                                                                                                                                                                      ",
"                                                                                                                                                                                                                                                                                                                        !.!.!.!.!.!.!.!.!.!.!.!.!.!.!.!.!.!.!.!.!.!.!.!.!.!.!.!.!.!.&.      a.!.!.!.!.!.!.!.!.!.!.!.!.!.!.!.!.!.!.!.!.!.!.!.!.!.!.!.!.!.a.                                                                                                                                                                                                                                                                                                                      ",
"                                                                                                                                                                                                                                                                                                                        !.!.!.!.!.!.!.!.!.!.!.!.!.!.!.!.!.!.!.!.!.!.!.!.!.!.!.!.!.!.&.      a.!.!.!.!.!.!.!.!.!.!.!.!.!.!.!.!.!.!.!.!.!.!.!.!.!.!.!.!.!.a.                                                                                                                                                                                                                                                                                                                      ",
"                                                                                                                                                                                                                                                                                                                        !.!.!.!.!.!.!.!.!.!.!.!.!.!.!.!.!.!.!.!.!.!.!.!.!.!.!.!.!.!.&.      a.!.!.!.!.!.!.!.!.!.!.!.!.!.!.!.!.!.!.!.!.!.!.!.!.!.!.!.!.!.a.                                                                                                                                                                                                                                                                                                                      ",
"                                                                                                                                                                                                                                                                                                                        J.!.!.!.!.!.!.!.!.!.!.!.!.!.!.!.!.!.!.!.!.!.!.!.!.!.!.!.!.!.c       p.!.!.!.!.!.!.!.!.!.!.!.!.!.!.!.!.!.!.!.!.!.!.!.!.!.!.!.!.!.a.                                                                                                                                                                                                                                                                                                                      ",
"                                                                                                                                                                                                                                                                                                                        F.!.!.!.!.!.!.!.!.!.!.!.!.!.!.!.!.!.!.!.!.!.!.!.!.!.!.!.!.!.9       *.!.!.!.!.!.!.!.!.!.!.!.!.!.!.!.!.!.!.!.!.!.!.!.!.!.!.!.!.!.*.                                                                                                                                                                                                                                                                                                                      ",
"                                                                                                                                                                                                                                                                                                                        &.!.!.!.!.!.!.!.!.!.!.!.!.!.!.!.!.!.!.!.!.!.!.!.!.!.!.!.!.G.        9 !.!.!.!.!.!.!.!.!.!.!.!.!.!.!.!.!.!.!.!.!.!.!.!.!.!.!.!.!.9                                                                                                                                                                                                                                                                                                                       ",
"                                                                                                                                                                                                                                                                                                                        . J.!.!.!.!.!.!.!.!.!.!.!.!.!.!.!.!.!.!.!.!.!.!.!.!.!.!.!.&.          a.!.!.!.!.!.!.!.!.!.!.!.!.!.!.!.!.!.!.!.!.!.!.!.!.!.!.!.G.                                                                                                                                                                                                                                                                                                                        ",
"                                                                                                                                                                                                                                                                                                                          c !.!.!.!.!.!.!.!.!.!.!.!.!.!.!.!.!.!.!.!.!.!.!.!.!.!.G.            * J.!.!.!.!.!.!.!.!.!.!.!.!.!.!.!.!.!.!.!.!.!.!.!.!.!.J.*                                                                                                                                                                                                                                                                                                                         ",
"                                                                                                                                                                                                                                                                                                                            &.!.!.!.!.!.!.!.!.!.!.!.!.!.!.!.!.!.!.!.!.!.!.!.!.F.*               > G.!.!.!.!.!.!.!.!.!.!.!.!.!.!.!.!.!.!.!.!.!.!.!.J.>                                                                                                                                                                                                                                                                                                                           ",
"                                                                                                                                                                                                                                                                                                                              * a.!.!.!.!.!.!.!.!.!.!.!.!.!.!.!.!.!.!.!.!.J.&.o                   * *.!.!.!.!.!.!.!.!.!.!.!.!.!.!.!.!.!.!.!.!.!.*.*                                                                                                                                                                                                                                                                                                                             ",
"                                                                                                                                                                                                                                                                                                                                  * 9 x x x x x x x x x x x x x x x x x 9 o                           o 9 x x x x x x x x x x x x x x x x x 9 o                                                                                                                                                                                                                                                                                                                                 ",
"                                                                                                                                                                                                                                                                                                                                                                                                                                                                                                                                                                                                                                                                                                                                                                                ",
"                                                                                                                                                                                                                                                                                                                                                                                                                                                                                                                                                                                                                                                                                                                                                                                ",
"                                                                                                                                                                                                                                                                                                                                                                                                                                                                                                                                                                                                                                                                                                                                                                                ",
"                                                                                                                                                                                                                                                                                                                                                                                                                                                                                                                                                                                                                                                                                                                                                                                ",
"                                                                                                                                                                                                                                                                                                                                                                                                                                                                                                                                                                                                                                                                                                                                                                                ",
"                                                                                                                                                                                                                                                                                                                                                                                                                                                                                                                                                                                                                                                                                                                                                                                ",
"                                                                                                                                                                                                                                                                                                                                                                                                                                                                                                                                                                                                                                                                                                                                                                                ",
"                                                                                                                                                                                                                                                                                                                                                                                                                                                                                                                                                                                                                                                                                                                                                                                ",
"                                                                                                                                                                                                                                                                                                                                                                                                                                                                                                                                                                                                                                                                                                                                                                                ",
"                                                                                                                                                                                                                                                                                                                                                                                                                                                                                                                                                                                                                                                                                                                                                                                ",
"                                                                                                                                                                                                                                                                                                                                                                                                                                                                                                                                                                                                                                                                                                                                                                                ",
"                                                                                                                                                                                                                                                                                                                                                                                                                                                                                                                                                                                                                                                                                                                                                                                ",
"                                                                                                                                                                                                                                                                                                                                                                                                                                                                                                                                                                                                                                                                                                                                                                                ",
"                                                                                                                                                                                                                                                                                                                                                                                                                                                                                                                                                                                                                                                                                                                                                                                ",
"                                                                                                                                                                                                                                                                                                                                                                                                                                                                                                                                                                                                                                                                                                                                                                                ",
"                                                                                                                                                                                                                                                                                                                                                                                                                                                                                                                                                                                                                                                                                                                                                                                ",
"                                                                                                                                                                                                                                                                                                                                                                                                                                                                                                                                                                                                                                                                                                                                                                                ",
"                                                                                                                                                                                                                                                                                                                                                                                                                                                                                                                                                                                                                                                                                                                                                                                ",
"                                                                                                                                                                                                                                                                                                                                                                                                                                                                                                                                                                                                                                                                                                                                                                                ",
"                                                                                                                                                                                                                                                                                                                                                                                                                                                                                                                                                                                                                                                                                                                                                                                ",
"                                                                                                                                                                                                                                                                                                                                                                                                                                                                                                                                                                                                                                                                                                                                                                                ",
"                                                                                                                                                                                                                                                                                                                                                                                                                                                                                                                                                                                                                                                                                                                                                                                ",
"                                                                                                                                                                                                                                                                                                                                                                                                                                                                                                                                                                                                                                                                                                                                                                                ",
"                                                                                                                                                                                                                                                                                                                                                                                                                                                                                                                                                                                                                                                                                                                                                                                ",
"                                                                                                                                                                                                                                                                                                                                                                                                                                                                                                                                                                                                                                                                                                                                                                                ",
"                                                                                                                                                                                                                                                                                                                                                                                                                                                                                                                                                                                                                                                                                                                                                                                ",
"                                                                                                                                                                                                                                                                                                                                                                                                                                                                                                                                                                                                                                                                                                                                                                                ",
"                                                                                                                                                                                                                                                                                                                                                                                                                                                                                                                                                                                                                                                                                                                                                                                ",
"                                                                                                                                                                                                                                                                                                                                                                                                                                                                                                                                                                                                                                                                                                                                                                                ",
"                                                                                                                                                                                                                                                                                                                                                                                                                                                                                                                                                                                                                                                                                                                                                                                ",
"                                                                                                                                                                                                                                                                                                                                                                                                                                                                                                                                                                                                                                                                                                                                                                                ",
"                                                                                                                                                                                                                                                                                                                                                                                                                                                                                                                                                                                                                                                                                                                                                                                ",
"                                                                                                                                                                                                                                                                                                                                                                                                                                                                                                                                                                                                                                                                                                                                                                                ",
"                                                                                                                                                                                                                                                                                                                                4 u.x.L.L.L.L.L.L.L.L.L.L.L.L.L.L.L.L.L.j.W $                       4 W l.L.L.L.L.L.L.L.L.L.L.L.L.L.L.L.L.L.j.! $                       X v j.L.L.L.L.L.L.L.L.L.L.L.L.L.L.L.L.L.x.u.h                       X k u.x.L.L.L.L.L.L.L.L.L.L.L.L.L.L.L.L.x.u.h $                       4 y.l.L.L.L.L.L.L.L.L.L.L.L.L.L.L.L.L.L.j.! $                       $ W l.L.L.L.L.L.L.L.L.L.L.L.L.L.L.L.L.L.l.! 4                                             ",
"                                                                                                                                                                                                                                                                                                                            $ u.L.L.L.L.L.L.L.L.L.L.L.L.L.L.L.L.L.L.L.L.L.L.L.k                   W L.L.L.L.L.L.L.L.L.L.L.L.L.L.L.L.L.L.L.L.L.L.L.W                   k x.L.L.L.L.L.L.L.L.L.L.L.L.L.L.L.L.L.L.L.L.L.L.l.$                 : l.L.L.L.L.L.L.L.L.L.L.L.L.L.L.L.L.L.L.L.L.L.L.l.5                 $ u.L.L.L.L.L.L.L.L.L.L.L.L.L.L.L.L.L.L.L.L.L.L.L.v                   v L.L.L.L.L.L.L.L.L.L.L.L.L.L.L.L.L.L.L.L.L.L.L.! X                                         ",
"                                                                                                                                                                                                                                                                                                                          $ l.L.L.L.L.L.L.L.L.L.L.L.L.L.L.L.L.L.L.L.L.L.L.L.L.L.v               u.L.L.L.L.L.L.L.L.L.L.L.L.L.L.L.L.L.L.L.L.L.L.L.L.L.u.              v L.L.L.L.L.L.L.L.L.L.L.L.L.L.L.L.L.L.L.L.L.L.L.L.L.l.$             : x.L.L.L.L.L.L.L.L.L.L.L.L.L.L.L.L.L.L.L.L.L.L.L.L.L.s             $ l.L.L.L.L.L.L.L.L.L.L.L.L.L.L.L.L.L.L.L.L.L.L.L.L.L.v               W L.L.L.L.L.L.L.L.L.L.L.L.L.L.L.L.L.L.L.L.L.L.L.L.L.l.X                                       ",
"                                                                                                                                                                                                                                                                                                                          l.L.L.L.L.L.L.L.L.L.L.L.L.L.L.L.L.L.L.L.L.L.L.L.L.L.L.L.4           v L.L.L.L.L.L.L.L.L.L.L.L.L.L.L.L.L.L.L.L.L.L.L.L.L.L.L.R           : L.L.L.L.L.L.L.L.L.L.L.L.L.L.L.L.L.L.L.L.L.L.L.L.L.L.L.u.          $ l.L.L.L.L.L.L.L.L.L.L.L.L.L.L.L.L.L.L.L.L.L.L.L.L.L.L.x.$           ! L.L.L.L.L.L.L.L.L.L.L.L.L.L.L.L.L.L.L.L.L.L.L.L.L.L.L.h           h L.L.L.L.L.L.L.L.L.L.L.L.L.L.L.L.L.L.L.L.L.L.L.L.L.L.L.W                                       ",
"                                                                                                                                                                                                                                                                                                                        h L.L.L.L.L.L.L.L.L.L.L.L.L.L.L.L.L.L.L.L.L.L.L.L.L.L.L.L.u.        $ L.L.L.L.L.L.L.L.L.L.L.L.L.L.L.L.L.L.L.L.L.L.L.L.L.L.L.L.x.X         j.L.L.L.L.L.L.L.L.L.L.L.L.L.L.L.L.L.L.L.L.L.L.L.L.L.L.L.L.h         v L.L.L.L.L.L.L.L.L.L.L.L.L.L.L.L.L.L.L.L.L.L.L.L.L.L.L.L.!         4 L.L.L.L.L.L.L.L.L.L.L.L.L.L.L.L.L.L.L.L.L.L.L.L.L.L.L.L.x.          l.L.L.L.L.L.L.L.L.L.L.L.L.L.L.L.L.L.L.L.L.L.L.L.L.L.L.L.L.4                                     ",
"                                                                                                                                                                                                                                                                                                                        y.L.L.L.L.L.L.L.L.L.L.L.L.L.L.L.L.L.L.L.L.L.L.L.L.L.L.L.L.L.:       h L.L.L.L.L.L.L.L.L.L.L.L.L.L.L.L.L.L.L.L.L.L.L.L.L.L.L.L.L.k       $ L.L.L.L.L.L.L.L.L.L.L.L.L.L.L.L.L.L.L.L.L.L.L.L.L.L.L.L.L.u.        l.L.L.L.L.L.L.L.L.L.L.L.L.L.L.L.L.L.L.L.L.L.L.L.L.L.L.L.L.x.X       ! L.L.L.L.L.L.L.L.L.L.L.L.L.L.L.L.L.L.L.L.L.L.L.L.L.L.L.L.L.4       5 L.L.L.L.L.L.L.L.L.L.L.L.L.L.L.L.L.L.L.L.L.L.L.L.L.L.L.L.L.Q                                     ",
"                                                                                                                                                                                                                                                                                                                        x.L.L.L.L.L.L.L.L.L.L.L.L.L.L.L.L.L.L.L.L.L.L.L.L.L.L.L.L.L.h       y.L.L.L.L.L.L.L.L.L.L.L.L.L.L.L.L.L.L.L.L.L.L.L.L.L.L.L.L.L.!       5 L.L.L.L.L.L.L.L.L.L.L.L.L.L.L.L.L.L.L.L.L.L.L.L.L.L.L.L.L.x.      X L.L.L.L.L.L.L.L.L.L.L.L.L.L.L.L.L.L.L.L.L.L.L.L.L.L.L.L.L.L.:       j.L.L.L.L.L.L.L.L.L.L.L.L.L.L.L.L.L.L.L.L.L.L.L.L.L.L.L.L.L.R       Q L.L.L.L.L.L.L.L.L.L.L.L.L.L.L.L.L.L.L.L.L.L.L.L.L.L.L.L.L.j.                                    ",
"                                                                                                                                                                                                                                                                                                                        L.L.L.L.L.L.L.L.L.L.L.L.L.L.L.L.L.L.L.L.L.L.L.L.L.L.L.L.L.L.R       u.L.L.L.L.L.L.L.L.L.L.L.L.L.L.L.L.L.L.L.L.L.L.L.L.L.L.L.L.L.u.      R L.L.L.L.L.L.L.L.L.L.L.L.L.L.L.L.L.L.L.L.L.L.L.L.L.L.L.L.L.L.      % L.L.L.L.L.L.L.L.L.L.L.L.L.L.L.L.L.L.L.L.L.L.L.L.L.L.L.L.L.L.4       l.L.L.L.L.L.L.L.L.L.L.L.L.L.L.L.L.L.L.L.L.L.L.L.L.L.L.L.L.L.!       ^ L.L.L.L.L.L.L.L.L.L.L.L.L.L.L.L.L.L.L.L.L.L.L.L.L.L.L.L.L.l.                                    ",
"                                                                                                                                                                                                                                                                                                                        L.L.L.L.L.L.L.L.L.L.L.L.L.L.L.L.L.L.L.L.L.L.L.L.L.L.L.L.L.L.R       u.L.L.L.L.L.L.L.L.L.L.L.L.L.L.L.L.L.L.L.L.L.L.L.L.L.L.L.L.L.u.      R L.L.L.L.L.L.L.L.L.L.L.L.L.L.L.L.L.L.L.L.L.L.L.L.L.L.L.L.L.L.      % L.L.L.L.L.L.L.L.L.L.L.L.L.L.L.L.L.L.L.L.L.L.L.L.L.L.L.L.L.L.4       l.L.L.L.L.L.L.L.L.L.L.L.L.L.L.L.L.L.L.L.L.L.L.L.L.L.L.L.L.L.!       ^ L.L.L.L.L.L.L.L.L.L.L.L.L.L.L.L.L.L.L.L.L.L.L.L.L.L.L.L.L.l.                                    ",
"                                                                                                                                                                                                                                                                                                                        L.L.L.L.L.L.L.L.L.L.L.L.L.L.L.L.L.L.L.L.L.L.L.L.L.L.L.L.L.L.R       u.L.L.L.L.L.L.L.L.L.L.L.L.L.L.L.L.L.L.L.L.L.L.L.L.L.L.L.L.L.u.      R L.L.L.L.L.L.L.L.L.L.L.L.L.L.L.L.L.L.L.L.L.L.L.L.L.L.L.L.L.L.      % L.L.L.L.L.L.L.L.L.L.L.L.L.L.L.L.L.L.L.L.L.L.L.L.L.L.L.L.L.L.4       l.L.L.L.L.L.L.L.L.L.L.L.L.L.L.L.L.L.L.L.L.L.L.L.L.L.L.L.L.L.!       ^ L.L.L.L.L.L.L.L.L.L.L.L.L.L.L.L.L.L.L.L.L.L.L.L.L.L.L.L.L.l.                                    ",
"                                                                                                O w.w.w.V -                                                               - ^.M                                                                                                                                         L.L.L.L.L.L.L.L.L.L.L.L.L.L.L.L.L.L.L.L.L.L.L.L.L.L.L.L.L.L.R       u.L.L.L.L.L.L.L.L.L.L.L.L.L.L.L.L.L.L.L.L.L.L.L.L.L.L.L.L.L.u.      R L.L.L.L.L.L.L.L.L.L.L.L.L.L.L.L.L.L.L.L.L.L.L.L.L.L.L.L.L.L.      % L.L.L.L.L.L.L.L.L.L.L.L.L.L.K.z.L.L.L.L.L.L.L.L.L.L.L.L.L.L.4       l.L.L.L.L.L.L.L.L.L.L.L.L.L.L.L.L.L.L.L.L.L.L.L.L.L.L.L.L.L.!       ^ L.L.L.L.L.L.L.L.L.L.L.L.L.x.z.x.L.L.L.L.L.L.L.L.L.L.L.L.L.l.                                    ",
"                                                                                                - ^.^.^.^.^.V                         M t.                      O e.V     - Q.f                                                                                                                                         L.L.L.L.L.L.L.L.L.L.L.L.;.A A A A F L.L.L.L.L.L.L.L.L.L.L.L.R       u.L.L.L.L.L.L.L.L.L.L.L.L.L.L.D h.L.L.L.L.L.L.L.L.L.L.L.L.L.u.      R L.L.L.L.L.L.L.L.L.L.L.L.E A A A A z.L.L.L.L.L.L.L.L.L.L.L.L.      % L.L.L.L.L.L.L.L.L.L.L.L.K.I S S F k.L.L.L.L.L.L.L.L.L.L.L.L.4       l.L.L.L.L.L.L.L.L.L.L.L.k.A A A A F L.L.L.L.L.L.L.L.L.L.L.L.!       ^ L.L.L.L.L.L.L.L.L.L.L.L.h.S D Z / L.L.L.L.L.L.L.L.L.L.L.L.l.                                    ",
"                                                                                                - ^.r.- 1 W.~.O                       g.Q.                      - ^.w.                                                                                                                                                  L.L.L.L.L.L.L.L.L.L.L.L.L.L.L.z.F ;.L.L.L.L.L.L.L.L.L.L.L.L.R       u.L.L.L.L.L.L.L.L.L.L.L.L.L.h.D L.L.L.L.L.L.L.L.L.L.L.L.L.L.u.      R L.L.L.L.L.L.L.L.L.L.L.L.I ;.L.L.L.L.L.L.L.L.L.L.L.L.L.L.L.L.      % L.L.L.L.L.L.L.L.L.L.L.L.~ L K.L.;.z.L.L.L.L.L.L.L.L.L.L.L.L.4       l.L.L.L.L.L.L.L.L.L.L.L.L.L.L.L./ E L.L.L.L.L.L.L.L.L.L.L.L.!       ^ L.L.L.L.L.L.L.L.L.L.L.L.D / L.z.Z z.L.L.L.L.L.L.L.L.L.L.L.l.                                    ",
"                                                                                                - ^.w.    w.^.@       M t.t.M       t.Q.~.t.f   O V t.t.M     a d.^.W.t.O O g.f       M t.t.M       O w.a C t.e.-                                                                                                       L.L.L.L.L.L.L.L.L.L.L.L.L.L.k.F ;.L.L.L.L.L.L.L.L.L.L.L.L.L.R       u.L.L.L.L.L.L.L.L.L.L.L.L.L.D h.L.L.L.L.L.L.L.L.L.L.L.L.L.L.u.      R L.L.L.L.L.L.L.L.L.L.L.L.I k.L.L.L.L.L.L.L.L.L.L.L.L.L.L.L.L.      % L.L.L.L.L.L.L.L.L.L.L.L.L k.L.L.L.L.L.L.L.L.L.L.L.L.L.L.L.L.4       l.L.L.L.L.L.L.L.L.L.L.L.L.L.L.L.F k.L.L.L.L.L.L.L.L.L.L.L.L.!       ^ L.L.L.L.L.L.L.L.L.L.L.L.Z z.L.L.S k.L.L.L.L.L.L.L.L.L.L.L.l.                                    ",
"                                                                                                - ^.w.  O Q.Q.      d.^.W.g.^.g.    Q.^.^.Q.V   M ~.W.g.^.w.  f Q.^.~.Q.@ - ^.M     e.^.W.g.^.W.O     ^.~.~.g.^.Q.O                                                                                                     L.L.L.L.L.L.L.L.L.L.L.L.L.k.S F ;.L.L.L.L.L.L.L.L.L.L.L.L.L.R       u.L.L.L.L.L.L.L.L.L.L.L.L.k.D L.k.k.L.L.L.L.L.L.L.L.L.L.L.L.u.      R L.L.L.L.L.L.L.L.L.L.L.L.I I F I ;.L.L.L.L.L.L.L.L.L.L.L.L.L.      % L.L.L.L.L.L.L.L.L.L.L.L.F -.I L E K.L.L.L.L.L.L.L.L.L.L.L.L.4       l.L.L.L.L.L.L.L.L.L.L.L.L.L.L.;.F L.L.L.L.L.L.L.L.L.L.L.L.L.!       ^ L.L.L.L.L.L.L.L.L.L.L.L.U D / U D L.L.L.L.L.L.L.L.L.L.L.L.l.                                    ",
"                                                                                                - ^.~.Q.^.Q.1     M ^.w.    w.^.V     g.Q.      - O     d.~.    - ^.w.    - ^.M   M ^.w.    M ^.w.    ^.Q.-   w.^.f                                                                                                     L.L.L.L.L.L.L.L.L.L.L.L.L.L.;.k.F -.L.L.L.L.L.L.L.L.L.L.L.L.R       u.L.L.L.L.L.L.L.L.L.L.L.L.P / L.~ U L.L.L.L.L.L.L.L.L.L.L.L.u.      R L.L.L.L.L.L.L.L.L.L.L.L.I ~ z.;.S k.L.L.L.L.L.L.L.L.L.L.L.L.      % L.L.L.L.L.L.L.L.L.L.L.L.F F k.k.I I L.L.L.L.L.L.L.L.L.L.L.L.4       l.L.L.L.L.L.L.L.L.L.L.L.L.L.L.I ;.L.L.L.L.L.L.L.L.L.L.L.L.L.!       ^ L.L.L.L.L.L.L.L.L.L.L.L.~ S U D D x.L.L.L.L.L.L.L.L.L.L.L.l.                                    ",
"                                                                                                - ^.W.g.^.e.      g.~.        ~.g.    g.Q.        O M w.g.^.    - ^.w.    - ^.M   d.^.O       Q.W.    ^.f.    - ^.M                                                                                                     L.L.L.L.L.L.L.L.L.L.L.L.L.L.L.L.h.F L.L.L.L.L.L.L.L.L.L.L.L.R       u.L.L.L.L.L.L.L.L.L.L.L.z.S z.L.~ U L.L.L.L.L.L.L.L.L.L.L.L.u.      R L.L.L.L.L.L.L.L.L.L.L.L.L.L.L.L./ E L.L.L.L.L.L.L.L.L.L.L.L.      % L.L.L.L.L.L.L.L.L.L.L.L.F h.L.L.K.A K.L.L.L.L.L.L.L.L.L.L.L.4       l.L.L.L.L.L.L.L.L.L.L.L.L.L.z.A z.L.L.L.L.L.L.L.L.L.L.L.L.L.!       ^ L.L.L.L.L.L.L.L.L.L.L.z.Z z.L.L.D h.L.L.L.L.L.L.L.L.L.L.L.l.                                    ",
"                                                                                                - ^.w.  w.^.a     g.Q.        W.Q.    g.Q.      N ^.^.Q.~.^.    - ^.w.    - ^.M   g.Q.        g.Q.    ^.w.    - ^.M                                                                                                     L.L.L.L.L.L.L.L.L.L.L.L.K.z.L.L.k.F L.L.L.L.L.L.L.L.L.L.L.L.R       u.L.L.L.L.L.L.L.L.L.L.L.~ Z D D S S / L.L.L.L.L.L.L.L.L.L.L.u.      R L.L.L.L.L.L.L.L.L.L.L.L.-.L.L.L.-.I L.L.L.L.L.L.L.L.L.L.L.L.      % L.L.L.L.L.L.L.L.L.L.L.L.L h.L.L.z.A K.L.L.L.L.L.L.L.L.L.L.L.4       l.L.L.L.L.L.L.L.L.L.L.L.L.L.E E L.L.L.L.L.L.L.L.L.L.L.L.L.L.!       ^ L.L.L.L.L.L.L.L.L.L.L.k.D L.L.L.I ~ L.L.L.L.L.L.L.L.L.L.L.l.                                    ",
"                                                                                                - ^.w.  O ~.g.    d.~.        Q.g.    g.Q.    - ^.d.O   r.^.    - ^.w.    - ^.M   s.~.        W.W.    ^.w.    - ^.M                                                                                                     L.L.L.L.L.L.L.L.L.L.L.L./ L k.z.L ~ L.L.L.L.L.L.L.L.L.L.L.L.R       u.L.L.L.L.L.L.L.L.L.L.L.x.z.z.z.~ I x.L.L.L.L.L.L.L.L.L.L.L.u.      R L.L.L.L.L.L.L.L.L.L.L.L.L / k.k.F ;.L.L.L.L.L.L.L.L.L.L.L.L.      % L.L.L.L.L.L.L.L.L.L.L.L.-.F k.z.E E L.L.L.L.L.L.L.L.L.L.L.L.4       l.L.L.L.L.L.L.L.L.L.L.L.L.L.F k.L.L.L.L.L.L.L.L.L.L.L.L.L.L.!       ^ L.L.L.L.L.L.L.L.L.L.L.x.S / z.k.Z z.L.L.L.L.L.L.L.L.L.L.L.l.                                    ",
"                                                                                                - ^.w.    r.^.1   w.^.a     f ^.r.    g.Q.    a ^.M     W.^.    - ^.w.    - ^.M   V ^.V     - ^.t.    ^.w.    - ^.M                                                                                                     L.L.L.L.L.L.L.L.L.L.L.L.L./ F S / L.L.L.L.L.L.L.L.L.L.L.L.L.R       u.L.L.L.L.L.L.L.L.L.L.L.L.L.L.L.h./ L.L.L.L.L.L.L.L.L.L.L.L.u.      R L.L.L.L.L.L.L.L.L.L.L.L.z.E S F -.L.L.L.L.L.L.L.L.L.L.L.L.L.      % L.L.L.L.L.L.L.L.L.L.L.L.L./ F S E K.L.L.L.L.L.L.L.L.L.L.L.L.4       l.L.L.L.L.L.L.L.L.L.L.L.L.k.I L.L.L.L.L.L.L.L.L.L.L.L.L.L.L.!       ^ L.L.L.L.L.L.L.L.L.L.L.L.k.P Z D / L.L.L.L.L.L.L.L.L.L.L.L.l.                                    ",
"                                                                                                - ^.w.    1 ^.r.  O Q.^.t.e.~.Q.-     s.^.t.V O ~.Q.w.g.^.^.      ~.Q.e.- - ^.M   O W.^.t.e.~.Q.-     ^.w.    - ^.M                                                                                                     L.L.L.L.L.L.L.L.L.L.L.L.L.L.L.L.L.L.L.L.L.L.L.L.L.L.L.L.L.L.R       u.L.L.L.L.L.L.L.L.L.L.L.L.L.L.L.L.L.L.L.L.L.L.L.L.L.L.L.L.L.u.      R L.L.L.L.L.L.L.L.L.L.L.L.L.L.L.L.L.L.L.L.L.L.L.L.L.L.L.L.L.L.      % L.L.L.L.L.L.L.L.L.L.L.L.L.L.L.L.L.L.L.L.L.L.L.L.L.L.L.L.L.L.4       l.L.L.L.L.L.L.L.L.L.L.L.L.L.L.L.L.L.L.L.L.L.L.L.L.L.L.L.L.L.!       ^ L.L.L.L.L.L.L.L.L.L.L.L.L.L.L.L.L.L.L.L.L.L.L.L.L.L.L.L.L.l.                                    ",
"                                                                                                O t.f       w.e.    - s.W.Q.r.-       - g.Q.r.  f g.Q.g.V g.      w.W.Q.a - g.a     - s.W.Q.t.-       g.M     - g.a                                                                                                     L.L.L.L.L.L.L.L.L.L.L.L.L.L.L.L.L.L.L.L.L.L.L.L.L.L.L.L.L.L.R       u.L.L.L.L.L.L.L.L.L.L.L.L.L.L.L.L.L.L.L.L.L.L.L.L.L.L.L.L.L.u.      R L.L.L.L.L.L.L.L.L.L.L.L.L.L.L.L.L.L.L.L.L.L.L.L.L.L.L.L.L.L.      % L.L.L.L.L.L.L.L.L.L.L.L.L.L.L.L.L.L.L.L.L.L.L.L.L.L.L.L.L.L.4       l.L.L.L.L.L.L.L.L.L.L.L.L.L.L.L.L.L.L.L.L.L.L.L.L.L.L.L.L.L.!       ^ L.L.L.L.L.L.L.L.L.L.L.L.L.L.L.L.L.L.L.L.L.L.L.L.L.L.L.L.L.l.                                    ",
"                                                                                                                                                                                                                                                                                                                        L.L.L.L.L.L.L.L.L.L.L.L.L.L.L.L.L.L.L.L.L.L.L.L.L.L.L.L.L.L.R       u.L.L.L.L.L.L.L.L.L.L.L.L.L.L.L.L.L.L.L.L.L.L.L.L.L.L.L.L.L.u.      R L.L.L.L.L.L.L.L.L.L.L.L.L.L.L.L.L.L.L.L.L.L.L.L.L.L.L.L.L.L.      % L.L.L.L.L.L.L.L.L.L.L.L.L.L.L.L.L.L.L.L.L.L.L.L.L.L.L.L.L.L.4       l.L.L.L.L.L.L.L.L.L.L.L.L.L.L.L.L.L.L.L.L.L.L.L.L.L.L.L.L.L.!       ^ L.L.L.L.L.L.L.L.L.L.L.L.L.L.L.L.L.L.L.L.L.L.L.L.L.L.L.L.L.l.                                    ",
"                                                                                                                                                                                                                                                                                                                        x.L.L.L.L.L.L.L.L.L.L.L.L.L.L.L.L.L.L.L.L.L.L.L.L.L.L.L.L.L.k       y.L.L.L.L.L.L.L.L.L.L.L.L.L.L.L.L.L.L.L.L.L.L.L.L.L.L.L.L.L.u.      h L.L.L.L.L.L.L.L.L.L.L.L.L.L.L.L.L.L.L.L.L.L.L.L.L.L.L.L.L.L.      % L.L.L.L.L.L.L.L.L.L.L.L.L.L.L.L.L.L.L.L.L.L.L.L.L.L.L.L.L.L.4       l.L.L.L.L.L.L.L.L.L.L.L.L.L.L.L.L.L.L.L.L.L.L.L.L.L.L.L.L.L.R       ^ L.L.L.L.L.L.L.L.L.L.L.L.L.L.L.L.L.L.L.L.L.L.L.L.L.L.L.L.L.j.                                    ",
"                                                                                                                                                                                                                                                                                                                        j.L.L.L.L.L.L.L.L.L.L.L.L.L.L.L.L.L.L.L.L.L.L.L.L.L.L.L.L.L.4       Q L.L.L.L.L.L.L.L.L.L.L.L.L.L.L.L.L.L.L.L.L.L.L.L.L.L.L.L.L.Q       4 L.L.L.L.L.L.L.L.L.L.L.L.L.L.L.L.L.L.L.L.L.L.L.L.L.L.L.L.L.j.        x.L.L.L.L.L.L.L.L.L.L.L.L.L.L.L.L.L.L.L.L.L.L.L.L.L.L.L.L.L.%       y.L.L.L.L.L.L.L.L.L.L.L.L.L.L.L.L.L.L.L.L.L.L.L.L.L.L.L.L.L.h       k L.L.L.L.L.L.L.L.L.L.L.L.L.L.L.L.L.L.L.L.L.L.L.L.L.L.L.L.L.y.                                    ",
"                                                                                                                                                                                                                                                                                                                        R L.L.L.L.L.L.L.L.L.L.L.L.L.L.L.L.L.L.L.L.L.L.L.L.L.L.L.L.l.        4 L.L.L.L.L.L.L.L.L.L.L.L.L.L.L.L.L.L.L.L.L.L.L.L.L.L.L.L.L.4       X x.L.L.L.L.L.L.L.L.L.L.L.L.L.L.L.L.L.L.L.L.L.L.L.L.L.L.L.L.Q         u.L.L.L.L.L.L.L.L.L.L.L.L.L.L.L.L.L.L.L.L.L.L.L.L.L.L.L.L.j.        k L.L.L.L.L.L.L.L.L.L.L.L.L.L.L.L.L.L.L.L.L.L.L.L.L.L.L.L.L.%       X L.L.L.L.L.L.L.L.L.L.L.L.L.L.L.L.L.L.L.L.L.L.L.L.L.L.L.L.L.h                                     ",
"                                                                                                                                                                                                                                                                                                                        X x.L.L.L.L.L.L.L.L.L.L.L.L.L.L.L.L.L.L.L.L.L.L.L.L.L.L.L.R           u.L.L.L.L.L.L.L.L.L.L.L.L.L.L.L.L.L.L.L.L.L.L.L.L.L.L.L.l.          R L.L.L.L.L.L.L.L.L.L.L.L.L.L.L.L.L.L.L.L.L.L.L.L.L.L.L.x.%         4 L.L.L.L.L.L.L.L.L.L.L.L.L.L.L.L.L.L.L.L.L.L.L.L.L.L.L.L.h         X l.L.L.L.L.L.L.L.L.L.L.L.L.L.L.L.L.L.L.L.L.L.L.L.L.L.L.L.!           u.L.L.L.L.L.L.L.L.L.L.L.L.L.L.L.L.L.L.L.L.L.L.L.L.L.L.L.l.                                      ",
"                                                                                                                                                                                                                                                                                                                          k L.L.L.L.L.L.L.L.L.L.L.L.L.L.L.L.L.L.L.L.L.L.L.L.L.L.l.            % x.L.L.L.L.L.L.L.L.L.L.L.L.L.L.L.L.L.L.L.L.L.L.L.L.L.x.%           X j.L.L.L.L.L.L.L.L.L.L.L.L.L.L.L.L.L.L.L.L.L.L.L.L.L.L.k             Q L.L.L.L.L.L.L.L.L.L.L.L.L.L.L.L.L.L.L.L.L.L.L.L.L.L.!             4 L.L.L.L.L.L.L.L.L.L.L.L.L.L.L.L.L.L.L.L.L.L.L.L.L.L.l.%           % l.L.L.L.L.L.L.L.L.L.L.L.L.L.L.L.L.L.L.L.L.L.L.L.L.L.L.:                                       ",
"                                                                                                                                                                                                                                                                                                                            R L.L.L.L.L.L.L.L.L.L.L.L.L.L.L.L.L.L.L.L.L.L.L.L.j.%               : l.L.L.L.L.L.L.L.L.L.L.L.L.L.L.L.L.L.L.L.L.L.L.L.x.:               % l.L.L.L.L.L.L.L.L.L.L.L.L.L.L.L.L.L.L.L.L.L.L.L.L.R                 Q L.L.L.L.L.L.L.L.L.L.L.L.L.L.L.L.L.L.L.L.L.L.L.L.y.X               h L.L.L.L.L.L.L.L.L.L.L.L.L.L.L.L.L.L.L.L.L.L.L.L.l.%               % l.L.L.L.L.L.L.L.L.L.L.L.L.L.L.L.L.L.L.L.L.L.L.L.x.h                                         ",
"                                                                                                                                                                                                                                                                                                                              % u.L.L.L.L.L.L.L.L.L.L.L.L.L.L.L.L.L.L.L.L.x.R X                   % ^ L.L.L.L.L.L.L.L.L.L.L.L.L.L.L.L.L.L.L.L.L.! %                     R l.L.L.L.L.L.L.L.L.L.L.L.L.L.L.L.L.L.L.L.L.u.4                     h l.L.L.L.L.L.L.L.L.L.L.L.L.L.L.L.L.L.L.L.L.x.k                     % ^ L.L.L.L.L.L.L.L.L.L.L.L.L.L.L.L.L.L.L.L.x.R X                   % ^ L.L.L.L.L.L.L.L.L.L.L.L.L.L.L.L.L.L.L.L.L.u.%                                           ",
"                                                                                                                                                                                                                                                                                                                                  % 5 h h h h h h h h h h h h h h h h h 4 X                           X 4 h h h h h h h h h h h h h h h h h 5 X                             4 h h h h h h h h h h h h h h h h h h $                             : 5 h h h h h h h h h h h h h h h h h :                             % 5 h h h h h h h h h h h h h h h h h 4 X                           X 4 h h h h h h h h h h h h h h h h h 5 X                                               ",
"                                                                                                                                                                                                                                                                                                                                                                                                                                                                                                                                                                                                                                                                                                                                                                                ",
"                                                                                                                                                                                                                                                                                                                                                                                                                                                                                                                                                                                                                                                                                                                                                                                ",
"                                                                                                                                                                                                                                                                                                                                                                                                                                                                                                                                                                                                                                                                                                                                                                                ",
"                                                                                                                                                                                                                                                                                                                                                                                                                                                                                                                                                                                                                                                                                                                                                                                ",
"                                                                                                                                                                                                                                                                                                                                                                                                                                                                                                                                                                                                                                                                                                                                                                                ",
"                                                                                                                                                                                                                                                                                                                                                                                                                                                                                                                                                                                                                                                                                                                                                                                ",
"                                                                                                                                                                                                                                                                                                                                                                                                                                                                                                                                                                                                                                                                                                                                                                                ",
"                                                                                                                                                                                                                                                                                                                                                                                                                                                                                                                                                                                                                                                                                                                                                                                ",
"                                                                                                                                                                                                                                                                                                                                                                                                                                                                                                                                                                                                                                                                                                                                                                                ",
"                                                                                                                                                                                                                                                                                                                                                                                                                                                                                                                                                                                                                                                                                                                                                                                ",
"                                                                                                                                                                                                                                                                                                                                                                                                                                                                                                                                                                                                                                                                                                                                                                                ",
"                                                                                                                                                                                                                                                                                                                                                                                                                                                                                                                                                                                                                                                                                                                                                                                ",
"                                                                                                                                                                                                                                                                                                                                                                                                                                                                                                                                                                                                                                                                                                                                                                                ",
"                                                                                                                                                                                                                                                                                                                                                                                                                                                                                                                                                                                                                                                                                                                                                                                ",
"                                                                                                                                                                                                                                                                                                                                                                                                                                                                                                                                                                                                                                                                                                                                                                                ",
"                                                                                                                                                                                                                                                                                                                                                                                                                                                                                                                                                                                                                                                                                                                                                                                ",
"                                                                                                                                                                                                                                                                                                                                                                                                                                                                                                                                                                                                                                                                                                                                                                                ",
"                                                                                                                                                                                                                                                                                                                                                                                                                                                                                                                                                                                                                                                                                                                                                                                ",
"                                                                                                                                                                                                                                                                                                                                                                                                                                                                                                                                                                                                                                                                                                                                                                                ",
"                                                                                                                                                                                                                                                                                                                                                                                                                                                                                                                                                                                                                                                                                                                                                                                ",
"                                                                                                                                                                                                                                                                                                                                                                                                                                                                                                                                                                                                                                                                                                                                                                                ",
"                                                                                                                                                                                                                                                                                                                                                                                                                                                                                                                                                                                                                                                                                                                                                                                ",
"                                                                                                                                                                                                                                                                                                                                                                                                                                                                                                                                                                                                                                                                                                                                                                                ",
"                                                                                                                                                                                                                                                                                                                                                                                                                                                                                                                                                                                                                                                                                                                                                                                ",
"                                                                                                                                                                                                                                                                                                                                                                                                                                                                                                                                                                                                                                                                                                                                                                                ",
"                                                                                                                                                                                                                                                                                                                                                                                                                                                                                                                                                                                                                                                                                                                                                                                ",
"                                                                                                                                                                                                                                                                                                                                                                                                                                                                                                                                                                                                                                                                                                                                                                                ",
"                                                                                                                                                                                                                                                                                                                                                                                                                                                                                                                                                                                                                                                                                                                                                                                ",
"                                                                                                                                                                                                                                                                                                                                                                                                  X k u.x.L.L.L.L.L.L.L.L.L.L.L.L.L.L.L.L.x.u.h $                                                                                                                                                                                                                                                                                                                               ",
"                                                                                                                                                                                                                                                                                                                                                                                                : l.L.L.L.L.L.L.L.L.L.L.L.L.L.L.L.L.L.L.L.L.L.L.l.5                                                                                                                                                                                                                                                                                                                             ",
"                                                                                                                                                                                                                                                                                                                                                                                              : x.L.L.L.L.L.L.L.L.L.L.L.L.L.L.L.L.L.L.L.L.L.L.L.L.L.s                                                                                                                                                                                                                                                                                                                           ",
"                                                                                                                                                                                                                                                                                                                                                                                            $ l.L.L.L.L.L.L.L.L.L.L.L.L.L.L.L.L.L.L.L.L.L.L.L.L.L.L.x.$                                                                                                                                                                                                                                                                                                                         ",
"                                                                                                                                                                                                                                                                                                                                                                                            ! L.L.L.L.L.L.L.L.L.L.L.L.L.L.L.L.L.L.L.L.L.L.L.L.L.L.L.L.Q                                                                                                                                                                                                                                                                                                                         ",
"                                                                                                                                                                                                                                                                                                                                                                                            l.L.L.L.L.L.L.L.L.L.L.L.L.L.L.L.L.L.L.L.L.L.L.L.L.L.L.L.L.x.                                                                                                                                                                                                                                                                                                                        ",
"                                                                                                                                                                                                                                                                                                                                                                                          % L.L.L.L.L.L.L.L.L.L.L.L.L.L.L.L.L.L.L.L.L.L.L.L.L.L.L.L.L.L.:                                                                                                                                                                                                                                                                                                                       ",
"                                                                                                                                                                                                                                                                                                                                                                                          4 L.L.L.L.L.L.L.L.L.L.L.L.L.L.L.L.L.L.L.L.L.L.L.L.L.L.L.L.L.L.4                                                                                                                                                                                                                                                                                                                       ",
"                                                                                                                                                                                                                                                                                                                                                                                          4 L.L.L.L.L.L.L.L.L.L.L.L.L.L.L.L.L.L.L.L.L.L.L.L.L.L.L.L.L.L.4                                                                                                                                                                                                                                                                                                                       ",
"                                                                                                                                                                                                                                                                                                                                                                                          4 L.L.L.L.L.L.L.L.L.L.L.L.L.L.L.L.L.L.L.L.L.L.L.L.L.L.L.L.L.L.4                                                                                                                                                                                                                                                                                                                       ",
"                                                                                                                                                                                                                                                                                                                                                                                          4 L.L.L.L.L.L.L.L.L.L.L.L.L.L.L.L.L.L.L.L.L.L.L.L.L.L.L.L.L.L.4                                                                                                                                                                                                                                                                                                                       ",
"                                                                                                                                                                                                                                                                                                                                                                                          4 L.L.L.L.L.L.L.L.L.L.L.L.L.L.K.L.L.L.L.L.L.L.L.L.L.L.L.L.L.L.4                                                                                                                                                                                                                                                                                                                       ",
"                                                                                                                                                                                                                                                                                                                                                                                          4 L.L.L.L.L.L.L.L.L.L.L.L.L.z.F E L.L.L.L.L.L.L.L.L.L.L.L.L.L.4                                                                                                                                                                                                                                                                                                                       ",
"                                                                                                                                                                                                                                                                                                                                                                                          4 L.L.L.L.L.L.L.L.L.L.L.L.z.F ;.E E L.L.L.L.L.L.L.L.L.L.L.L.L.4                                                                                                                                                                                                                                                                                                                       ",
"                                                                                                                                                                                                                                                                                                                                                                                          4 L.L.L.L.L.L.L.L.L.L.L.z.F ;.L.L.E E L.L.L.L.L.L.L.L.L.L.L.L.4                                                                                                                                                                                                                                                                                                                       ",
"                                                                                                                                                                                                                                                                                                                                                                                          4 L.L.L.L.L.L.L.L.L.L.z.F ;.L.L.L.L.E E L.L.L.L.L.L.L.L.L.L.L.4                                                                                                                                                                                                                                                                                                                       ",
"                                                                                                                                                                                                                                                                                                                                                                                          4 L.L.L.L.L.L.L.L.L.z.F ;.L.L.L.L.L.L.E E L.L.L.L.L.L.L.L.L.L.4                                                                                                                                                                                                                                                                                                                       ",
"                                                                                                                                                                                                                                                                                                                                                                                          4 L.L.L.L.L.L.L.L.L.I ;.L.L.L.L.L.L.L.L.E h.L.L.L.L.L.L.L.L.L.4                                                                                                                                                                                                                                                                                                                       ",
"                                                                                                                                                                                                                                                                                                                                                                                          4 L.L.L.L.L.L.L.L.L.K.L.L.L.L.L.L.L.L.L.L.L.L.L.L.L.L.L.L.L.L.4                                                                                                                                                                                                                                                                                                                       ",
"                                                                                                                                                                                                                                                                                                                                                                                          4 L.L.L.L.L.L.L.L.L.L.L.L.L.L.L.L.L.L.L.L.L.L.L.L.L.L.L.L.L.L.4                                                                                                                                                                                                                                                                                                                       ",
"                                                                                                                                                                                                                                                                                                                                                                                          4 L.L.L.L.L.L.L.L.L.L.L.L.L.L.L.L.L.L.L.L.L.L.L.L.L.L.L.L.L.L.4                                                                                                                                                                                                                                                                                                                       ",
"                                                                                                                                                                                                                                                                                                                                                                                          4 L.L.L.L.L.L.L.L.L.L.L.L.L.L.L.L.L.L.L.L.L.L.L.L.L.L.L.L.L.L.4                                                                                                                                                                                                                                                                                                                       ",
"                                                                                                                                                                                                                                                                                                                                                                                          4 L.L.L.L.L.L.L.L.L.L.L.L.L.L.L.L.L.L.L.L.L.L.L.L.L.L.L.L.L.L.4                                                                                                                                                                                                                                                                                                                       ",
"                                                                                                                                                                                                                                                                                                                                                                                          % L.L.L.L.L.L.L.L.L.L.L.L.L.L.L.L.L.L.L.L.L.L.L.L.L.L.L.L.L.L.4                                                                                                                                                                                                                                                                                                                       ",
"                                                                                                                                                                                                                                                                                                                                                                                          X x.L.L.L.L.L.L.L.L.L.L.L.L.L.L.L.L.L.L.L.L.L.L.L.L.L.L.L.L.L.X                                                                                                                                                                                                                                                                                                                       ",
"                                                                                                                                                                                                                                                                                                                                                                                            u.L.L.L.L.L.L.L.L.L.L.L.L.L.L.L.L.L.L.L.L.L.L.L.L.L.L.L.L.u.                                                                                                                                                                                                                                                                                                                        ",
"                                                                                                                                                                                                                                                                                                                                                                                            4 L.L.L.L.L.L.L.L.L.L.L.L.L.L.L.L.L.L.L.L.L.L.L.L.L.L.L.L.h                                                                                                                                                                                                                                                                                                                         ",
"                                                                                                                                                                                                                                                                                                                                                                                              Q L.L.L.L.L.L.L.L.L.L.L.L.L.L.L.L.L.L.L.L.L.L.L.L.L.L.Q                                                                                                                                                                                                                                                                                                                           ",
"                                                                                                                                                                                                                                                                                                                                                                                                Q L.L.L.L.L.L.L.L.L.L.L.L.L.L.L.L.L.L.L.L.L.L.L.L.^                                                                                                                                                                                                                                                                                                                             ",
"                                                                                                                                                                                                                                                                                                                                                                                                  h l.L.L.L.L.L.L.L.L.L.L.L.L.L.L.L.L.L.L.L.L.x.k                                                                                                                                                                                                                                                                                                                               ",
"                                                                                                                                                                                                                                                                                                                                                                                                      : 5 h h h h h h h h h h h h h h h h h :                                                                                                                                                                                                                                                                                                                                   ",
"                                                                                                                                                                                                                                                                                                                                                                                                                                                                                                                                                                                                                                                                                                                                                                                ",
"                                                                                                                                                                                                                                                                                                                                      # & 3 3 3 3 3 3 3 3 3 3 3 3 3 3 3 &                               # & 2 2 2 2 2 2 2 2 2 2 2 2 2 2 2 #                             . + , , , , , , , , , , , , , , , , +                                                                                                                                                                                                                                                                   ",
"                                                                                                                                                                                                                                                                                                                                X z C.S.S.S.S.S.S.S.S.S.S.S.S.S.S.S.S.S.S.S.o.3                   # T N.Z.Z.Z.Z.Z.Z.Z.Z.Z.Z.Z.Z.Z.Z.Z.Z.Z.Z.N. .#                   , i.m.R.R.R.R.R.R.R.R.R.R.R.R.R.R.R.R.R.R.v._ +                                                                                                                                                                                                                                                             ",
"                                                                                                                                                                                                                                                                                                                              & M.S.S.S.S.S.S.S.S.S.S.S.S.S.S.S.S.S.S.S.S.S.S.S.{               j N.Z.Z.Z.Z.Z.Z.Z.Z.Z.Z.Z.Z.Z.Z.Z.Z.Z.Z.Z.Z.Z.Z.Z.z               n R.R.R.R.R.R.R.R.R.R.R.R.R.R.R.R.R.R.R.R.R.R.R.v.6                                                                                                                                                                                                                                                           ",
"                                                                                                            - w.w.              w.w.-                                                                                                                                                                                       & C.S.S.S.S.S.S.S.S.S.S.S.S.S.S.S.S.S.S.S.S.S.S.S.S.S.}           j Z.Z.Z.Z.Z.Z.Z.Z.Z.Z.Z.Z.Z.Z.Z.Z.Z.Z.Z.Z.Z.Z.Z.Z.Z.Z.z           n R.R.R.R.R.R.R.R.R.R.R.R.R.R.R.R.R.R.R.R.R.R.R.R.R.R.,                                                                                                                                                                                                                                                         ",
"                                                                                                            a ^.^.a           M ^.^.a                                                                                                                                                                                       M.S.S.S.S.S.S.S.S.S.S.S.S.S.S.S.S.S.S.S.S.S.S.S.S.S.S.S.8       # Z.Z.Z.Z.Z.Z.Z.Z.Z.Z.Z.Z.Z.Z.Z.Z.Z.Z.Z.Z.Z.Z.Z.Z.Z.Z.Z.Z.2       d R.R.R.R.R.R.R.R.R.R.R.R.R.R.R.R.R.R.R.R.R.R.R.R.R.R.R.m..                                                                                                                                                                                                                                                       ",
"                                                                                                            a ^.^.g.          g.^.^.a                                                                                                                                                                                     8 S.S.S.S.S.S.S.S.S.S.S.S.S.S.S.S.S.S.S.S.S.S.S.S.S.S.S.S.C.       .Z.Z.Z.Z.Z.Z.Z.Z.Z.Z.Z.Z.Z.Z.Z.Z.Z.Z.Z.Z.Z.Z.Z.Z.Z.Z.Z.Z...      c.R.R.R.R.R.R.R.R.R.R.R.R.R.R.R.R.R.R.R.R.R.R.R.R.R.R.R.R.n                                                                                                                                                                                                                                                       ",
"                                                                                                            a ^.Q.^.O       - ^.g.^.a       a e.t.e.-     f V       - w.-     V t.e.-                                                                                                                                     o.S.S.S.S.S.S.S.S.S.S.S.S.S.S.S.S.S.S.S.S.S.S.S.S.S.S.S.S.S.3     N.Z.Z.Z.Z.Z.Z.Z.Z.Z.Z.Z.Z.Z.Z.Z.Z.Z.Z.Z.Z.Z.Z.Z.Z.Z.Z.Z.Z.Z.X   + R.R.R.R.R.R.R.R.R.R.R.R.R.R.R.R.R.R.R.R.R.R.R.R.R.R.R.R.R.v.                                                                                                                                                                                                                                                      ",
"                                                                                                            a ^.V ~.w.      w.^.w.^.a     f ^.~.g.^.~.1   V ^.a     t.~.    e.^.W.Q.^.a                                                                                                                                   C.S.S.S.S.S.S.S.S.S.S.S.S.S.S.S.S.S.S.S.S.S.S.S.S.S.S.S.S.S.8   # Z.Z.Z.Z.Z.Z.Z.Z.Z.Z.Z.Z.Z.Z.Z.Z.Z.Z.Z.Z.Z.Z.Z.Z.Z.Z.Z.Z.Z.Z.&   6 R.R.R.R.R.R.R.R.R.R.R.R.R.R.R.R.R.R.R.R.R.R.R.R.R.R.R.R.R.R.                                                                                                                                                                                                                                                      ",
"                                                                                                            a ^.M r.~.O     Q.t.M ^.a   O Q.Q.O   - ~.g.  O ^.w.    Q.t.  a ^.V   O ~.g.                                                                                                                                  S.S.S.S.S.S.S.S.S.S.S.S.S.S.S.S.S.S.S.S.S.S.S.S.S.S.S.S.S.S.Y   2 Z.Z.Z.Z.Z.Z.Z.Z.Z.Z.Z.Z.Z.Z.Z.Z.Z.Z.Z.Z.Z.Z.Z.Z.Z.Z.Z.Z.Z.Z.2   d R.R.R.R.R.R.R.R.R.R.R.R.R.R.R.R.R.R.R.R.R.R.R.R.R.R.R.R.R.R.+                                                                                                                                                                                                                                                     ",
"                                                                                                            a ^.M a ^.f   f ^.a M ^.a   f ^.M       r.^.@   g.g.  a ^.a   r.^.a a a g.^.                                                                                                                                  S.S.S.S.S.S.S.S.S.S.S.S.S.S.S.S.S.S.S.S.S.S.S.S.S.S.S.S.S.S.Y   2 Z.Z.Z.Z.Z.Z.Z.Z.Z.Z.Z.Z.Z.Z.Z.Z.Z.Z.Z.Z.Z.Z.Z.Z.Z.Z.Z.Z.Z.Z.2   d R.R.R.R.R.R.R.R.R.R.R.R.R.R.R.R.R.R.R.R.R.R.R.R.R.R.R.R.R.R.+                                                                                                                                                                                                                                                     ",
"                                                                                                            a ^.M   g.g.  d.Q.  M ^.a   M ^.a       M ^.a   V ^.@ t.Q.    s.^.^.^.^.^.^.                                                                                                                                  S.S.S.S.S.S.S.S.S.S.S.S.S.S.S.S.V.' S.S.S.S.S.S.S.S.S.S.S.S.Y   2 Z.Z.Z.Z.Z.Z.Z.Z.Z.Z.Z.Z.Z.Z.Z.Z.Z.Z.Z.Z.Z.Z.Z.Z.Z.Z.Z.Z.Z.Z.2   d R.R.R.R.R.R.R.R.R.R.R.n.2.R.R.R.R.R.R.R.R.R.R.R.R.R.R.R.R.R.+                                                                                                                                                                                                                                                     ",
"                                                                                                            a ^.M   V ^.M ^.M   M ^.a   M ^.f       w.^.1   O ^.w.Q.t.    s.^.1 - - - -                                                                                                                                   S.S.S.S.S.S.S.S.S.S.S.S.S.S.S.V.K +.S.S.S.S.S.S.S.S.S.S.S.S.Y   2 Z.Z.Z.Z.Z.Z.Z.Z.Z.Z.Z.Z.Z.Z.Z.Z.Z.Z.Z.Z.Z.Z.Z.Z.Z.Z.Z.Z.Z.Z.2   d R.R.R.R.R.R.R.R.R.R.R.R.<.<.R.R.R.R.R.R.R.R.R.R.R.R.R.R.R.R.+                                                                                                                                                                                                                                                     ",
"                                                                                                            a ^.M   O ~.~.^.-   M ^.a   O ^.g.    O Q.Q.      g.~.^.a     V ^.a                                                                                                                                           S.S.S.S.S.S.S.S.S.S.S.S.S.S.V.K +.S.S.S.S.S.S.S.S.S.S.S.S.S.Y   2 Z.Z.Z.Z.Z.Z.Z.Z.Z.B.Z.Z.Z.Z.Z.Z.Z.Z.Z.B.Z.Z.Z.Z.Z.Z.Z.Z.Z.Z.2   d R.R.R.R.R.R.R.R.R.R.R.R.R.<.<.R.R.R.R.R.R.R.R.R.R.R.R.R.R.R.+                                                                                                                                                                                                                                                     ",
"                                                                                                            a ^.M     r.^.t.    M ^.a     w.^.g.w.W.^.M       V ^.Q.      O Q.^.t.w.g.V                                                                                                                                   S.S.S.S.S.S.S.S.S.S.S.S.S.V.K @.S.S.S.S.S.S.S.S.S.S.S.S.S.S.Y   2 Z.Z.Z.Z.Z.Z.Z.Z.Z.J O.Z.Z.Z.Z.Z.Z.Z.B.J +.Z.Z.Z.Z.Z.Z.Z.Z.Z.2   d R.R.R.R.R.R.R.R.R.R.R.R.R.R.<.<.R.R.R.R.R.R.R.R.R.R.R.R.R.R.+                                                                                                                                                                                                                                                     ",
"                                                                                                            1 g.a     - t.1     f g.1       M g.Q.g.a         O t.M         - s.W.Q.d.a                                                                                                                                   S.S.S.S.S.S.S.S.S.S.S.S.V.K +.S.S.S.S.S.S.S.S.S.S.S.S.S.S.S.Y   2 Z.Z.Z.Z.Z.Z.Z.Z.Z.N.G O.Z.Z.Z.Z.Z.B.J O.Z.Z.Z.Z.Z.Z.Z.Z.Z.Z.2   d R.R.R.R.R.R.R.R.R.R.R.R.R.R.R.<.<.R.R.R.R.R.R.R.R.R.R.R.R.R.+                                                                                                                                                                                                                                                     ",
"                                                                                                                                                                                                                                                                                                                          S.S.S.S.S.S.S.S.S.S.S.V.K +.S.S.S.S.S.S.S.S.S.S.S.S.S.S.S.S.Y   2 Z.Z.Z.Z.Z.Z.Z.Z.Z.Z.N.G O.Z.Z.Z.B.J O.Z.Z.Z.Z.Z.Z.Z.Z.Z.Z.Z.2   d R.R.R.R.R.R.R.R.R.R.R.R.R.R.R.R.<.<.R.R.R.R.R.R.R.R.R.R.R.R.+                                                                                                                                                                                                                                                     ",
"                                                                                                                                                                                                                                                                                                                          S.S.S.S.S.S.S.S.S.S.S.S.[ [ S.S.S.S.S.S.S.S.S.S.S.S.S.S.S.S.Y   2 Z.Z.Z.Z.Z.Z.Z.Z.Z.Z.Z.N.G O.Z.B.J O.Z.Z.Z.Z.Z.Z.Z.Z.Z.Z.Z.Z.2   d R.R.R.R.R.R.R.R.R.R.R.R.R.R.R.n.y 2.R.R.R.R.R.R.R.R.R.R.R.R.+                                                                                                                                                                                                                                                     ",
"                                                                                                                                                                                                                                                                                                                          S.S.S.S.S.S.S.S.S.S.S.S.S.[ [ S.S.S.S.S.S.S.S.S.S.S.S.S.S.S.Y   2 Z.Z.Z.Z.Z.Z.Z.Z.Z.Z.Z.Z.N.G O.J O.Z.Z.Z.Z.Z.Z.Z.Z.Z.Z.Z.Z.Z.2   d R.R.R.R.R.R.R.R.R.R.R.R.R.R.n.y 2.R.R.R.R.R.R.R.R.R.R.R.R.R.+                                                                                                                                                                                                                                                     ",
"                                                                                                                                                                                                                                                                                                                          S.S.S.S.S.S.S.S.S.S.S.S.S.S.[ [ S.S.S.S.S.S.S.S.S.S.S.S.S.S.Y   2 Z.Z.Z.Z.Z.Z.Z.Z.Z.Z.Z.Z.Z.N.G O.Z.Z.Z.Z.Z.Z.Z.Z.Z.Z.Z.Z.Z.Z.2   d R.R.R.R.R.R.R.R.R.R.R.R.R.n.y 2.R.R.R.R.R.R.R.R.R.R.R.R.R.R.+                                                                                                                                                                                                                                                     ",
"                                                                                                                                                                                                                                                                                                                          S.S.S.S.S.S.S.S.S.S.S.S.S.S.S.[ [ S.S.S.S.S.S.S.S.S.S.S.S.S.Y   2 Z.Z.Z.Z.Z.Z.Z.Z.Z.Z.Z.Z.Z.Z.B.Z.Z.Z.Z.Z.Z.Z.Z.Z.Z.Z.Z.Z.Z.Z.2   d R.R.R.R.R.R.R.R.R.R.R.R.n.y 2.R.R.R.R.R.R.R.R.R.R.R.R.R.R.R.+                                                                                                                                                                                                                                                     ",
"                                                                                                                                                                                                                                                                                                                          S.S.S.S.S.S.S.S.S.S.S.S.S.S.S.S.[ [ S.S.S.S.S.S.S.S.S.S.S.S.Y   2 Z.Z.Z.Z.Z.Z.Z.Z.Z.Z.Z.Z.Z.Z.Z.Z.Z.Z.Z.Z.Z.Z.Z.Z.Z.Z.Z.Z.Z.Z.2   d R.R.R.R.R.R.R.R.R.R.R.n.y 2.R.R.R.R.R.R.R.R.R.R.R.R.R.R.R.R.+                                                                                                                                                                                                                                                     ",
"                                                                                                                                                                                                                                                                                                                          S.S.S.S.S.S.S.S.S.S.S.S.S.S.S.S.S.@.S.S.S.S.S.S.S.S.S.S.S.S.Y   2 Z.Z.Z.Z.Z.Z.Z.Z.Z.Z.Z.Z.Z.Z.Z.Z.Z.Z.Z.Z.Z.Z.Z.Z.Z.Z.Z.Z.Z.Z.2   d R.R.R.R.R.R.R.R.R.R.R.n.7.R.R.R.R.R.R.R.R.R.R.R.R.R.R.R.R.R.+                                                                                                                                                                                                                                                     ",
"                                                                                                                                                                                                                                                                                                                          S.S.S.S.S.S.S.S.S.S.S.S.S.S.S.S.S.S.S.S.S.S.S.S.S.S.S.S.S.S.Y   2 Z.Z.Z.Z.Z.Z.Z.Z.Z.Z.Z.Z.Z.Z.Z.Z.Z.Z.Z.Z.Z.Z.Z.Z.Z.Z.Z.Z.Z.Z.2   d R.R.R.R.R.R.R.R.R.R.R.R.R.R.R.R.R.R.R.R.R.R.R.R.R.R.R.R.R.R.+                                                                                                                                                                                                                                                     ",
"                                                                                                                                                                                                                                                                                                                          S.S.S.S.S.S.S.S.S.S.S.S.S.S.S.S.S.S.S.S.S.S.S.S.S.S.S.S.S.S.Y   2 Z.Z.Z.Z.Z.Z.Z.Z.Z.Z.Z.Z.Z.Z.Z.Z.Z.Z.Z.Z.Z.Z.Z.Z.Z.Z.Z.Z.Z.Z.2   d R.R.R.R.R.R.R.R.R.R.R.R.R.R.R.R.R.R.R.R.R.R.R.R.R.R.R.R.R.R.+                                                                                                                                                                                                                                                     ",
"                                                                                                                                                                                                                                                                                                                          C.S.S.S.S.S.S.S.S.S.S.S.S.S.S.S.S.S.S.S.S.S.S.S.S.S.S.S.S.S.z   # Z.Z.Z.Z.Z.Z.Z.Z.Z.Z.Z.Z.Z.Z.Z.Z.Z.Z.Z.Z.Z.Z.Z.Z.Z.Z.Z.Z.Z.Z.2   d R.R.R.R.R.R.R.R.R.R.R.R.R.R.R.R.R.R.R.R.R.R.R.R.R.R.R.R.R.R.                                                                                                                                                                                                                                                      ",
"                                                                                                                                                                                                                                                                                                                          o.S.S.S.S.S.S.S.S.S.S.S.S.S.S.S.S.S.S.S.S.S.S.S.S.S.S.S.S.S.3     N.Z.Z.Z.Z.Z.Z.Z.Z.Z.Z.Z.Z.Z.Z.Z.Z.Z.Z.Z.Z.Z.Z.Z.Z.Z.Z.Z.Z.Z.X   + R.R.R.R.R.R.R.R.R.R.R.R.R.R.R.R.R.R.R.R.R.R.R.R.R.R.R.R.R.c.                                                                                                                                                                                                                                                      ",
"                                                                                                                                                                                                                                                                                                                          z S.S.S.S.S.S.S.S.S.S.S.S.S.S.S.S.S.S.S.S.S.S.S.S.S.S.S.S.N.      T Z.Z.Z.Z.Z.Z.Z.Z.Z.Z.Z.Z.Z.Z.Z.Z.Z.Z.Z.Z.Z.Z.Z.Z.Z.Z.Z.Z...      i.R.R.R.R.R.R.R.R.R.R.R.R.R.R.R.R.R.R.R.R.R.R.R.R.R.R.R.R.n                                                                                                                                                                                                                                                       ",
"                                                                                                                                                                                                                                                                                                                          X M.S.S.S.S.S.S.S.S.S.S.S.S.S.S.S.S.S.S.S.S.S.S.S.S.S.S.S.8       # Z.Z.Z.Z.Z.Z.Z.Z.Z.Z.Z.Z.Z.Z.Z.Z.Z.Z.Z.Z.Z.Z.Z.Z.Z.Z.Z.Z.#       , R.R.R.R.R.R.R.R.R.R.R.R.R.R.R.R.R.R.R.R.R.R.R.R.R.R.R.v.+                                                                                                                                                                                                                                                       ",
"                                                                                                                                                                                                                                                                                                                            3 S.S.S.S.S.S.S.S.S.S.S.S.S.S.S.S.S.S.S.S.S.S.S.S.S.S.}           j Z.Z.Z.Z.Z.Z.Z.Z.Z.Z.Z.Z.Z.Z.Z.Z.Z.Z.Z.Z.Z.Z.Z.Z.Z.Z.T           ) R.R.R.R.R.R.R.R.R.R.R.R.R.R.R.R.R.R.R.R.R.R.R.R.R.R.6                                                                                                                                                                                                                                                         ",
"                                                                                                                                                                                                                                                                                                                              7 M.S.S.S.S.S.S.S.S.S.S.S.S.S.S.S.S.S.S.S.S.S.S.S.}               T Z.Z.Z.Z.Z.Z.Z.Z.Z.Z.Z.Z.Z.Z.Z.Z.Z.Z.Z.Z.Z.Z.Z.Z.T               n R.R.R.R.R.R.R.R.R.R.R.R.R.R.R.R.R.R.R.R.R.R.R.m.d                                                                                                                                                                                                                                                           ",
"                                                                                                                                                                                                                                                                                                                                # } M.S.S.S.S.S.S.S.S.S.S.S.S.S.S.S.S.S.S.S.o.3                   #  .N.Z.Z.Z.Z.Z.Z.Z.Z.Z.Z.Z.Z.Z.Z.Z.Z.Z.Z.N...2                   , i.R.R.R.R.R.R.R.R.R.R.R.R.R.R.R.R.R.R.R.m.) +                                                                                                                                                                                                                                                             ",
"                                                                                                                                                                                                                                                                                                                                      & 3 3 3 3 3 3 3 3 3 3 3 3 3 3 3 3 & X                             & 2 2 2 2 2 2 2 2 2 2 2 2 2 2 2 2 & X                           . , , , , , , , , , , , , , , , , , +                                                                                                                                                                                                                                                                   ",
"                                                                                                                                                                                                                                                                                                                                                                                                                                                                                                                                                                                                                                                                                                                                                                                ",
"                                                                                                                                                                                                                                                                                                                                                                                                                                                                                                                                                                                                                                                                                                                                                                                ",
"                                                                                                                                                                                                                                                                                                                                                                                                                                                                                                                                                                                                                                                                                                                                                                                ",
"                                                                                                                                                                                                                                                                                                                                                                                                                                                                                                                                                                                                                                                                                                                                                                                ",
"                                                                                                                                                                                                                                                                                                                                                                                                                                                                                                                                                                                                                                                                                                                                                                                ",
"                                                                                                                                                                                                                                                                                                                                                                                                                                                                                                                                                                                                                                                                                                                                                                                ",
"                                                                                                                                                                                                                                                                                                                                                                                                                                                                                                                                                                                                                                                                                                                                                                                ",
"                                                                                                                                                                                                                                                                                                                                                                                                                                                                                                                                                                                                                                                                                                                                                                                ",
"                                                                                                                                                                                                                                                                                                                                                                                                                                                                                                                                                                                                                                                                                                                                                                                ",
"                                                                                                                                                                                                                                                                                                                                                                                                                                                                                                                                                                                                                                                                                                                                                                                ",
"                                                                                                                                                                                                                                                                                                                                                                                                                                                                                                                                                                                                                                                                                                                                                                                ",
"                                                                                                                                                                                                                                                                                                                                                                                                                                                                                                                                                                                                                                                                                                                                                                                ",
"                                                                                                                                                                                                                                                                                                                                                                                                                                                                                                                                                                                                                                                                                                                                                                                ",
"                                                                                                                                                                                                                                                                                                                                                                                                                                                                                                                                                                                                                                                                                                                                                                                ",
"                                                                                                                                                                                                                                                                                                                                                                                                                                                                                                                                                                                                                                                                                                                                                                                ",
"                                                                                                                                                                                                                                                                                                                                                                                                                                                                                                                                                                                                                                                                                                                                                                                ",
"                                                                                                                                                                                                                                                                                                                                                                                                                                                                                                                                                                                                                                                                                                                                                                                ",
"                                                                                                                                                                                                                                                                                                                                                                                                                                                                                                                                                                                                                                                                                                                                                                                ",
"                                                                                                                                                                                                                                                                                                                                                                                                                                                                                                                                                                                                                                                                                                                                                                                ",
"                                                                                                                                                                                                                                                                                                                                                                                                                                                                                                                                                                                                                                                                                                                                                                                ",
"                                                                                                                                                                                                                                                                                                                                                                                                                                                                                                                                                                                                                                                                                                                                                                                ",
"                                                                                                                                                                                                                                                                                                                                                                                                                                                                                                                                                                                                                                                                                                                                                                                ",
"                                                                                                                                                                                                                                                                                                                                                                                                                                                                                                                                                                                                                                                                                                                                                                                ",
"                                                                                                                                                                                                                                                                                                                                                                                                                                                                                                                                                                                                                                                                                                                                                                                ",
"                                                                                                                                                                                                                                                                                                                                                                                                                                                                                                                                                                                                                                                                                                                                                                                ",
"                                                                                                                                                                                                                                                                                                                                                                                                                                                                                                                                                                                                                                                                                                                                                                                ",
"                                                                                                                                                                                                                                                                                                                                                                                                                                                                                                                                                                                                                                                                                                                                                                                ",
"                                                                                                                                                                                                                                                                                                                                                                                                                                                                                                                                                                                                                                                                                                                                                                                ",
"                                                                                                                                                                                                                                                                                                                                                                                                                                                                                                                                                                                                                                                                                                                                                                                ",
"                                                                                                                                                                                                                                                                                                                                                                                                                                                                                                                                                                                                                                                                                                                                                                                ",
"                                                                                                                                                                                                                                                                                                                                                                                                                                                                                                                                                                                                                                                                                                                                                                                ",
"                                                                                                                                                                                                                                                                                                                                                                                                                                                                                                                                                                                                                                                                                                                                                                                ",
"                                                                                                                                                                                                                                                                                                                                                                                                                                                                                                                                                                                                                                                                                                                                                                                ",
"                                                                                                                                                                                                                                                                                                                                                                                                                                                                                                                                                                                                                                                                                                                                                                                ",
"                                                                                                                                                                                                                                                                                                                                                                                                                                                                                                                                                                                                                                                                                                                                                                                ",
"                                                                                                                                                                                                                                                                                                                                                                                                                                                                                                                                                                                                                                                                                                                                                                                ",
"                                                                                                                                                                                                                                                                                                                                                                                                                                                                                                                                                                                                                                                                                                                                                                                ",
"                                                                                                                                                                                                                                                                                                                                                                                                                                                                                                                                                                                                                                                                                                                                                                                ",
"                                                                                                                                                                                                                                                                                                                                                                                                                                                                                                                                                                                                                                                                                                                                                                                ",
"                                                                                                                                                                                                                                                                                                                                                                                                                                                                                                                                                                                                                                                                                                                                                                                ",
"                                                                                                                                                                                                                                                                                                                                                                                                                                                                                                                                                                                                                                                                                                                                                                                ",
"                                                                                                                                                                                                                                                                                                                                                                                                                                                                                                                                                                                                                                                                                                                                                                                ",
"                                                                                                                                                                                                                                                                                                                                                                                                                                                                                                                                                                                                                                                                                                                                                                                ",
"                                                                                                                                                                                                                                                                                                                                                                                                                                                                                                                                                                                                                                                                                                                                                                                ",
"                                                                                                                                                                                                                                                                                                                                                                                                                                                                                                                                                                                                                                                                                                                                                                                ",
"                                                                                                                                                                                                                                                                                                                                < 6.U.E.E.E.E.E.E.E.E.E.E.E.E.E.E.E.E.E.8.,.+                       < ,.P.E.E.E.E.E.E.E.E.E.E.E.E.E.E.E.E.E.8.1.+                       . m 8.E.E.E.E.E.E.E.E.E.E.E.E.E.E.E.E.E.U.6.e                       . b 6.U.E.E.E.E.E.E.E.E.E.E.E.E.E.E.E.E.U.6.e +                                                                                                                                                                                     ",
"                                                                                                                                                                                                                                                                                                                            + 6.E.E.E.E.E.E.E.E.E.E.E.E.E.E.E.E.E.E.E.E.E.E.E.b                   ,.E.E.E.E.E.E.E.E.E.E.E.E.E.E.E.E.E.E.E.E.E.E.E.,.                  b U.E.E.E.E.E.E.E.E.E.E.E.E.E.E.E.E.E.E.E.E.E.E.P.+                 = P.E.E.E.E.E.E.E.E.E.E.E.E.E.E.E.E.E.E.E.E.E.E.P.w                                                                                                                                                                                   ",
"                                                                                                                                                                                                                                                                                                                          + P.E.E.E.E.E.E.E.E.E.E.E.E.E.E.E.E.E.E.E.E.E.E.E.E.E.m               6.E.E.E.E.E.E.E.E.E.E.E.E.E.E.E.E.E.E.E.E.E.E.E.E.E.6.              m E.E.E.E.E.E.E.E.E.E.E.E.E.E.E.E.E.E.E.E.E.E.E.E.E.P.+             = U.E.E.E.E.E.E.E.E.E.E.E.E.E.E.E.E.E.E.E.E.E.E.E.E.E.e                                                                                                                                                                                 ",
"                                                                                                                                                                                                                                                                                                                          P.E.E.E.E.E.E.E.E.E.E.E.E.E.E.E.E.E.E.E.E.E.E.E.E.E.E.E.<           m E.E.E.E.E.E.E.E.E.E.E.E.E.E.E.E.E.E.E.E.E.E.E.E.E.E.E.m           = E.E.E.E.E.E.E.E.E.E.E.E.E.E.E.E.E.E.E.E.E.E.E.E.E.E.E.6.          + P.E.E.E.E.E.E.E.E.E.E.E.E.E.E.E.E.E.E.E.E.E.E.E.E.E.E.U.+                                                                                                                                                                               ",
"                                                                                                                                                                                                                                                                                                                        e E.E.E.E.E.E.E.E.E.E.E.E.E.E.E.E.E.E.E.E.E.E.E.E.E.E.E.E.6.        + E.E.E.E.E.E.E.E.E.E.E.E.E.E.E.E.E.E.E.E.E.E.E.E.E.E.E.E.U..         8.E.E.E.E.E.E.E.E.E.E.E.E.E.E.E.E.E.E.E.E.E.E.E.E.E.E.E.E.e         m E.E.E.E.E.E.E.E.E.E.E.E.E.E.E.E.E.E.E.E.E.E.E.E.E.E.E.E.1.                                                                                                                                                                              ",
"                                                                                                                                                                                                                                                                                                                        3.E.E.E.E.E.E.E.E.E.E.E.E.E.E.E.E.E.E.E.E.E.E.E.E.E.E.E.E.E.=       e E.E.E.E.E.E.E.E.E.E.E.E.E.E.E.E.E.E.E.E.E.E.E.E.E.E.E.E.E.b       + E.E.E.E.E.E.E.E.E.E.E.E.E.E.E.E.E.E.E.E.E.E.E.E.E.E.E.E.E.6.        P.E.E.E.E.E.E.E.E.E.E.E.E.E.E.E.E.E.E.E.E.E.E.E.E.E.E.E.E.U..                                                                                                                                                                             ",
"                                                                                                                                                                                                                                                                                                                        U.E.E.E.E.E.E.E.E.E.E.E.E.E.E.E.E.E.E.E.E.E.E.E.E.E.E.E.E.E.e       3.E.E.E.E.E.E.E.E.E.E.E.E.E.E.E.E.E.E.E.E.E.E.E.E.E.E.E.E.E.1.      w E.E.E.E.E.E.E.E.E.E.E.E.E.E.E.E.E.E.E.E.E.E.E.E.E.E.E.E.E.U.      . E.E.E.E.E.E.E.E.E.E.E.E.E.E.E.E.E.E.E.E.E.E.E.E.E.E.E.E.E.E.=                                                                                                                                                                             ",
"                                                                                                                                                                                                                                                                                                                        E.E.E.E.E.E.E.E.E.E.E.E.E.E.E.E.E.E.E.E.E.E.E.E.E.E.E.E.E.E.m       6.E.E.E.E.E.E.E.E.E.E.E.E.E.E.E.E.E.E.E.E.E.E.E.E.E.E.E.E.E.6.      m E.E.E.E.E.E.E.E.E.E.E.E.E.E.E.E.E.E.E.E.E.E.E.E.E.E.E.E.E.E.      + E.E.E.E.E.E.E.E.E.E.E.E.E.E.E.E.E.E.E.E.E.E.E.E.E.E.E.E.E.E.<                                                                                                                                                                             ",
"                                                                                  a w.1           a w.- a ^.M                                                       O V t.e.f         M w.w.V f -                 W.r.  1 V t.e.M O       f w.w.w.f -                                                                   E.E.E.E.E.E.E.E.E.E.E.E.E.E.E.E.E.E.E.E.E.E.E.E.E.E.E.E.E.E.m       6.E.E.E.E.E.E.E.E.E.E.E.E.E.E.E.E.E.E.E.E.E.E.E.E.E.E.E.E.E.6.      m E.E.E.E.E.E.E.E.E.E.E.E.E.E.E.E.E.E.E.E.E.E.E.E.E.E.E.E.E.E.      + E.E.E.E.E.E.E.E.E.E.E.E.E.E.E.E.E.E.E.E.E.E.E.E.E.E.E.E.E.E.<                                                                                                                                                                             ",
"                                                                                  a ^.r.          d.~.  1 Q.f                                                       Q.^.~.~.^.C       g.^.^.^.^.^.e.            a ^.M   d.^.Q.~.^.Q.O     s.^.^.^.^.^.t.O                                                               E.E.E.E.E.E.E.E.E.E.E.E.E.E.E.E.E.E.E.E.E.E.E.E.E.E.E.E.E.E.m       6.E.E.E.E.E.E.E.E.E.E.E.E.E.E.E.E.E.E.E.E.E.E.E.E.E.E.E.E.E.6.      m E.E.E.E.E.E.E.E.E.E.E.E.E.E.E.E.E.E.E.E.E.E.E.E.E.E.E.E.E.E.      + E.E.E.E.E.E.E.E.E.E.E.E.E.E.E.E.E.E.E.E.E.E.E.E.E.E.E.E.E.E.<                                                                                                                                                                             ",
"                                                                                    g.~.        - ^.t.                                                              V 1   O g.^.O     g.Q.- - a s.^.e.          t.~.O   a O     w.^.V     s.^.- - a s.^.g.                                                              E.E.E.E.E.E.E.E.E.E.E.E.E.E.I.I.E.E.E.E.E.E.E.E.E.E.E.E.E.E.m       6.E.E.E.E.E.E.E.E.E.E.E.E.E.E.E.E.E.E.E.E.E.E.E.E.E.E.E.E.E.6.      m E.E.E.E.E.E.E.E.E.E.E.E.E.E.E.E.E.E.E.E.E.E.E.E.E.E.E.E.E.E.      + E.E.E.E.E.E.E.E.E.E.E.E.E.E.E.E.E.E.E.E.E.E.E.E.E.E.E.E.E.E.<                                                                                                                                                                             ",
"                                                                                    V ^.a       M ^.a   1 g.f     O C t.e.-     w.f       M w.      1 w.-                   w.^.@     g.Q.        d.^.@         Q.t.            1 ^.w.    s.^.        r.^.a                                                             E.E.E.E.E.E.E.E.E.E.E.E.q.i t u r 4.E.E.E.E.E.E.E.E.E.E.E.E.m       6.E.E.E.E.E.E.E.E.E.t q.E.E.q.r 0.E.E.q.t E.E.E.E.E.E.E.E.E.6.      m E.E.E.E.E.E.E.E.E.E.E.E.u r r r r >.E.E.E.E.E.E.E.E.E.E.E.E.      + E.E.E.E.E.E.E.E.E.E.E.E.r r r r i 8.E.E.E.E.E.E.E.E.E.E.E.E.<                                                                                                                                                                             ",
"                                                                                    O ^.r.      g.Q.    a ^.M     W.^.W.Q.~.1   g.~.      ~.^.a     t.~.                    g.Q.      g.Q.        a ^.V       a ^.f           O e.^.1     s.^.        - ^.r.                                                            E.E.E.E.E.E.E.E.E.E.E.I.t 5.E.E.I.u <.E.E.E.E.E.E.E.E.E.E.E.m       6.E.E.E.E.E.E.E.E.E.>.5.E.E.5.r 4.E.E.5.>.E.E.E.E.E.E.E.E.E.6.      m E.E.E.E.E.E.E.E.E.E.E.E.u 0.E.E.E.E.E.E.E.E.E.E.E.E.E.E.E.E.      + E.E.E.E.E.E.E.E.E.E.E.E.r I.E.E.5.t Y.E.E.E.E.E.E.E.E.E.E.E.<                                                                                                                                                                             ",
"                                                                                      g.~.O   - ^.M     a ^.M   M ^.V   - ~.f.  w.^.a   f ^.^.r.    ~.t.                  M ^.M       g.Q.        O ^.r.      t.~.        r.Q.^.^.V       s.^.          ^.t.                                                            E.E.E.E.E.E.E.E.E.E.E.>.>.E.E.E.E.0.t Y.E.E.E.E.E.E.E.E.E.E.m       6.E.E.E.E.E.E.E.E.E.5.:.E.E.:.>.:.E.E.:.5.E.E.E.E.E.E.E.E.E.6.      m E.E.E.E.E.E.E.E.E.E.E.E.u 0.E.E.E.E.E.E.E.E.E.E.E.E.E.E.E.E.      + E.E.E.E.E.E.E.E.E.E.E.E.r I.E.E.E.u 0.E.E.E.E.E.E.E.E.E.E.E.<                                                                                                                                                                             ",
"                                                                                      a ^.a   r.^.-     a ^.M   d.~.a a a W.Q.  - ^.w.  t.Q.g.Q.  f ^.f                 - Q.Q.        g.Q.        O ^.r.      Q.t.        M t.g.^.W.O     s.^.          ^.t.                                                            E.E.E.E.E.E.E.E.E.E.E.i 8.E.E.E.E.E.u 0.E.E.E.E.E.E.E.E.E.E.m       6.E.E.E.E.E.E.E.E.E.Y.t Y.Y.r I.r Y.E.r I.E.E.E.E.E.E.E.E.E.6.      m E.E.E.E.E.E.E.E.E.E.E.E.u 5.0.0.0.E.E.E.E.E.E.E.E.E.E.E.E.E.      + E.E.E.E.E.E.E.E.E.E.E.E.r I.E.E.E.t 0.E.E.E.E.E.E.E.E.E.E.E.<                                                                                                                                                                             ",
"                                                                                      O ~.t.  Q.f.      a ^.M   g.^.^.^.^.^.^.    g.g.  ~.r.M ^.1 t.~.                  W.~.-         g.Q.        a ^.V     f ^.a               a ^.V     s.^.        - ^.r.                                                            E.E.E.E.E.E.E.E.E.E.E.u 0.E.E.E.E.E.u 8.E.E.E.E.E.E.E.E.E.E.m       6.E.E.E.E.E.E.E.E.E.E.:.0.8.:.E.:.5.0.i E.E.E.E.E.E.E.E.E.E.6.      m E.E.E.E.E.E.E.E.E.E.E.E.u u u u u E.E.E.E.E.E.E.E.E.E.E.E.E.      + E.E.E.E.E.E.E.E.E.E.E.E.r <.4.4.:.i E.E.E.E.E.E.E.E.E.E.E.E.<                                                                                                                                                                             ",
"                                                                                        r.~.f ^.M       a ^.M   d.~.- - - - -     w.^.V ^.a O ^.w.Q.t.                t.^.f           g.Q.        t.^.-     t.Q.                  ^.w.    s.^.        t.^.a                                                             E.E.E.E.E.E.E.E.E.E.E.:.5.E.E.E.Y.E.t 0.E.E.E.E.E.E.E.E.E.E.m       6.E.E.E.E.E.E.E.E.E.E.4.<.>.5.E.5.>.>.<.E.E.E.E.E.E.E.E.E.E.6.      m E.E.E.E.E.E.E.E.E.E.E.E.u 0.E.E.E.E.E.E.E.E.E.E.E.E.E.E.E.E.      + E.E.E.E.E.E.E.E.E.E.E.E.r <.4.>.r Y.E.E.E.E.E.E.E.E.E.E.E.E.<                                                                                                                                                                             ",
"                                                                                        a ^.~.Q.        a ^.M   w.^.a             a ^.~.Q.    g.~.^.f               C ^.w.            g.Q.    a d.^.r.      ~.t.        -       N ^.M     s.^.    1 e.^.t.                                                              E.E.E.E.E.E.E.E.E.E.E.4.:.E.E.E.>.>.u E.E.E.E.E.E.E.E.E.E.E.m       6.E.E.E.E.E.E.E.E.E.E.0.u u q.E.q.t i 0.E.E.E.E.E.E.E.E.E.E.6.      m E.E.E.E.E.E.E.E.E.E.E.E.u 0.E.E.E.E.E.E.E.E.E.E.E.E.E.E.E.E.      + E.E.E.E.E.E.E.E.E.E.E.E.r I.E.E.u 5.E.E.E.E.E.E.E.E.E.E.E.E.<                                                                                                                                                                             ",
"                                                                                          W.^.t.        a ^.M   O Q.~.t.w.g.M       Q.^.t.    V ^.~.              f ^.~.g.g.g.g.f     g.^.Q.~.^.^.r.      f ^.a       a ^.g.d.g.^.Q.      s.^.Q.~.^.^.r.O                                                               E.E.E.E.E.E.E.E.E.E.E.Y.u >.q.I.5.r >.E.E.E.E.E.E.E.E.E.E.E.m       6.E.E.E.E.E.E.E.E.E.E.E.t u E.E.E.t u E.E.E.E.E.E.E.E.E.E.E.6.      m E.E.E.E.E.E.E.E.E.E.E.E.u 5.0.0.0.q.E.E.E.E.E.E.E.E.E.E.E.E.      + E.E.E.E.E.E.E.E.E.E.E.E.r I.E.E.5.u E.E.E.E.E.E.E.E.E.E.E.E.<                                                                                                                                                                             ",
"                                                                                          M t.-         1 g.a     - s.W.Q.d.1       V g.1     O g.w.              f g.g.g.g.g.g.a     V t.t.r.V O         d.Q.        O r.g.g.d.w.O       M t.t.t.V O                                                                   E.E.E.E.E.E.E.E.E.E.E.E.I.>.t t :.5.:.Y.E.E.E.E.E.E.E.E.E.E.m       6.E.E.E.E.E.E.E.E.E.E.E.4.4.E.E.E.5.4.E.E.E.E.E.E.E.E.E.E.E.6.      m E.E.E.E.E.E.E.E.E.E.E.E.>.:.:.:.:.5.E.E.E.E.E.E.E.E.E.E.E.E.      + E.E.E.E.E.E.E.E.E.E.E.E.:.Y.E.E.E.:.q.E.E.E.E.E.E.E.E.E.E.E.<                                                                                                                                                                             ",
"                                                                                                                                                                                                        O g.w.                                                                                                          E.E.E.E.E.E.E.E.E.E.E.E.E.E.E.E.E.E.E.E.E.E.E.E.E.E.E.E.E.E.m       6.E.E.E.E.E.E.E.E.E.E.E.E.E.E.E.E.E.E.E.E.E.E.E.E.E.E.E.E.E.6.      m E.E.E.E.E.E.E.E.E.E.E.E.E.E.E.E.E.E.E.E.E.E.E.E.E.E.E.E.E.E.      + E.E.E.E.E.E.E.E.E.E.E.E.E.E.E.E.E.E.E.E.E.E.E.E.E.E.E.E.E.E.<                                                                                                                                                                             ",
"                                                                                                                                                                                                                                                                                                                        E.E.E.E.E.E.E.E.E.E.E.E.E.E.E.E.E.E.E.E.E.E.E.E.E.E.E.E.E.E.m       6.E.E.E.E.E.E.E.E.E.E.E.E.E.E.E.E.E.E.E.E.E.E.E.E.E.E.E.E.E.6.      m E.E.E.E.E.E.E.E.E.E.E.E.E.E.E.E.E.E.E.E.E.E.E.E.E.E.E.E.E.E.      + E.E.E.E.E.E.E.E.E.E.E.E.E.E.E.E.E.E.E.E.E.E.E.E.E.E.E.E.E.E.<                                                                                                                                                                             ",
"                                                                                                                                                                                                                                                                                                                        E.E.E.E.E.E.E.E.E.E.E.E.E.E.E.E.E.E.E.E.E.E.E.E.E.E.E.E.E.E.m       6.E.E.E.E.E.E.E.E.E.E.E.E.E.E.E.E.E.E.E.E.E.E.E.E.E.E.E.E.E.6.      m E.E.E.E.E.E.E.E.E.E.E.E.E.E.E.E.E.E.E.E.E.E.E.E.E.E.E.E.E.E.      + E.E.E.E.E.E.E.E.E.E.E.E.E.E.E.E.E.E.E.E.E.E.E.E.E.E.E.E.E.E.<                                                                                                                                                                             ",
"                                                                                                                                                                                                                                                                                                                        U.E.E.E.E.E.E.E.E.E.E.E.E.E.E.E.E.E.E.E.E.E.E.E.E.E.E.E.E.E.b       3.E.E.E.E.E.E.E.E.E.E.E.E.E.E.E.E.E.E.E.E.E.E.E.E.E.E.E.E.E.6.      e E.E.E.E.E.E.E.E.E.E.E.E.E.E.E.E.E.E.E.E.E.E.E.E.E.E.E.E.E.E.      + E.E.E.E.E.E.E.E.E.E.E.E.E.E.E.E.E.E.E.E.E.E.E.E.E.E.E.E.E.E.<                                                                                                                                                                             ",
"                                                                                                                                                                                                                                                                                                                        8.E.E.E.E.E.E.E.E.E.E.E.E.E.E.E.E.E.E.E.E.E.E.E.E.E.E.E.E.E.<       ,.E.E.E.E.E.E.E.E.E.E.E.E.E.E.E.E.E.E.E.E.E.E.E.E.E.E.E.E.E.,.      < E.E.E.E.E.E.E.E.E.E.E.E.E.E.E.E.E.E.E.E.E.E.E.E.E.E.E.E.E.8.        U.E.E.E.E.E.E.E.E.E.E.E.E.E.E.E.E.E.E.E.E.E.E.E.E.E.E.E.E.E.+                                                                                                                                                                             ",
"                                                                                                                                                                                                                                                                                                                        m E.E.E.E.E.E.E.E.E.E.E.E.E.E.E.E.E.E.E.E.E.E.E.E.E.E.E.E.P.        < E.E.E.E.E.E.E.E.E.E.E.E.E.E.E.E.E.E.E.E.E.E.E.E.E.E.E.E.E.<       . U.E.E.E.E.E.E.E.E.E.E.E.E.E.E.E.E.E.E.E.E.E.E.E.E.E.E.E.E.,.        6.E.E.E.E.E.E.E.E.E.E.E.E.E.E.E.E.E.E.E.E.E.E.E.E.E.E.E.E.8.                                                                                                                                                                              ",
"                                                                                                                                                                                                                                                                                                                        . U.E.E.E.E.E.E.E.E.E.E.E.E.E.E.E.E.E.E.E.E.E.E.E.E.E.E.E.m           6.E.E.E.E.E.E.E.E.E.E.E.E.E.E.E.E.E.E.E.E.E.E.E.E.E.E.E.P.          m E.E.E.E.E.E.E.E.E.E.E.E.E.E.E.E.E.E.E.E.E.E.E.E.E.E.E.U.+         < E.E.E.E.E.E.E.E.E.E.E.E.E.E.E.E.E.E.E.E.E.E.E.E.E.E.E.E.e                                                                                                                                                                               ",
"                                                                                                                                                                                                                                                                                                                          b E.E.E.E.E.E.E.E.E.E.E.E.E.E.E.E.E.E.E.E.E.E.E.E.E.E.P.            + U.E.E.E.E.E.E.E.E.E.E.E.E.E.E.E.E.E.E.E.E.E.E.E.E.E.U.+           . 8.E.E.E.E.E.E.E.E.E.E.E.E.E.E.E.E.E.E.E.E.E.E.E.E.E.E.b             ,.E.E.E.E.E.E.E.E.E.E.E.E.E.E.E.E.E.E.E.E.E.E.E.E.E.E.1.                                                                                                                                                                                ",
"                                                                                                                                                                                                                                                                                                                            m E.E.E.E.E.E.E.E.E.E.E.E.E.E.E.E.E.E.E.E.E.E.E.E.8.+               = P.E.E.E.E.E.E.E.E.E.E.E.E.E.E.E.E.E.E.E.E.E.E.E.U.=               + P.E.E.E.E.E.E.E.E.E.E.E.E.E.E.E.E.E.E.E.E.E.E.E.E.m                 ,.E.E.E.E.E.E.E.E.E.E.E.E.E.E.E.E.E.E.E.E.E.E.E.E.3..                                                                                                                                                                                 ",
"                                                                                                                                                                                                                                                                                                                              + 6.E.E.E.E.E.E.E.E.E.E.E.E.E.E.E.E.E.E.E.E.U.m .                   + 1.E.E.E.E.E.E.E.E.E.E.E.E.E.E.E.E.E.E.E.E.E.1.+                     m P.E.E.E.E.E.E.E.E.E.E.E.E.E.E.E.E.E.E.E.E.6.<                     e P.E.E.E.E.E.E.E.E.E.E.E.E.E.E.E.E.E.E.E.E.U.b                                                                                                                                                                                     ",
"                                                                                                                                                                                                                                                                                                                                  + w e e e e e e e e e e e e e e e e e < .                           . < e e e e e e e e e e e e e e e e e w .                             < e e e e e e e e e e e e e e e e e e +                             = w e e e e e e e e e e e e e e e e e =                                                                                                                                                                                         ",
"                                                                                                                                                                                                                                                                                                                                                                                                                                                                                                                                                                                                                                                                                                                                                                                ",
"                                                                                                                                                                                                                                                                                                                                                                                                                                                                                                                                                                                                                                                                                                                                                                                ",
"                                                                                                                                                                                                                                                                                                                                                                                                                                                                                                                                                                                                                                                                                                                                                                                ",
"                                                                                                                                                                                                                                                                                                                                                                                                                                                                                                                                                                                                                                                                                                                                                                                ",
"                                                                                                                                                                                                                                                                                                                                                                                                                                                                                                                                                                                                                                                                                                                                                                                ",
"                                                                                                                                                                                                                                                                                                                                                                                                                                                                                                                                                                                                                                                                                                                                                                                ",
"                                                                                                                                                                                                                                                                                                                                                                                                                                                                                                                                                                                                                                                                                                                                                                                ",
"                                                                                                                                                                                                                                                                                                                                                                                                                                                                                                                                                                                                                                                                                                                                                                                ",
"                                                                                                                                                                                                                                                                                                                                                                                                                                                                                                                                                                                                                                                                                                                                                                                ",
"                                                                                                                                                                                                                                                                                                                                                                                                                                                                                                                                                                                                                                                                                                                                                                                ",
"                                                                                                                                                                                                                                                                                                                                                                                                                                                                                                                                                                                                                                                                                                                                                                                ",
"                                                                                                                                                                                                                                                                                                                                                                                                                                                                                                                                                                                                                                                                                                                                                                                ",
"                                                                                                                                                                                                                                                                                                                                                                                                                                                                                                                                                                                                                                                                                                                                                                                ",
"                                                                                                                                                                                                                                                                                                                                                                                                                                                                                                                                                                                                                                                                                                                                                                                ",
"                                                                                                                                                                                                                                                                                                                                                                                                                                                                                                                                                                                                                                                                                                                                                                                ",
"                                                                                                                                                                                                                                                                                                                                                                                                                                                                                                                                                                                                                                                                                                                                                                                ",
"                                                                                                                                                                                                                                                                                                                                                                                                                                                                                                                                                                                                                                                                                                                                                                                ",
"                                                                                                                                                                                                                                                                                                                                                                                                                                                                                                                                                                                                                                                                                                                                                                                ",
"                                                                                                                                                                                                                                                                                                                                                                                                                                                                                                                                                                                                                                                                                                                                                                                ",
"                                                                                                                                                                                                                                                                                                                                                                                                                                                                                                                                                                                                                                                                                                                                                                                ",
"                                                                                                                                                                                                                                                                                                                                                                                                                                                                                                                                                                                                                                                                                                                                                                                ",
"                                                                                                                                                                                                                                                                                                                                                                                                                                                                                                                                                                                                                                                                                                                                                                                ",
"                                                                                                                                                                                                                                                                                                                                                                                                                                                                                                                                                                                                                                                                                                                                                                                ",
"                                                                                                                                                                                                                                                                                                                                                                                                                                                                                                                                                                                                                                                                                                                                                                                ",
"                                                                                                                                                                                                                                                                                                                                                                                                                                                                                                                                                                                                                                                                                                                                                                                ",
"                                                                                                                                                                                                                                                                                                                                                                                                                                                                                                                                                                                                                                                                                                                                                                                ",
"                                                                                                                                                                                                                                                                                                                                                                                                                                                                                                                                                                                                                                                                                                                                                                                ",
"                                                                                                                                                                                                                                                                                                                                                                                                                                                                                                                                                                                                                                                                                                                                                                                ",
"                                                                                                                                                                                                                                                                                                                                                                                                                                                                                                                                                                                                                                                                                                                                                                                ",
"                                                                                                                                                                                                                                                                                                                                                                                                                                                                                                                                                                                                                                                                                                                                                                                ",
"                                                                                                                                                                                                                                                                                                                                                                                                                                                                                                                                                                                                                                                                                                                                                                                ",
"                                                                                                                                                                                                                                                                                                                                                                                                                                                                                                                                                                                                                                                                                                                                                                                ",
"                                                                                                                                                                                                                                                                                                                                                                                                                                                                                                                                                                                                                                                                                                                                                                                ",
"                                                                                                                                                                                                                                                                                                                                                                                                                                                                                                                                                                                                                                                                                                                                                                                ",
"                                                                                                                                                                                                                                                                                                                                                                                                                                                                                                                                                                                                                                                                                                                                                                                ",
"                                                                                                                                                                                                                                                                                                                                                                                                                                                                                                                                                                                                                                                                                                                                                                                ",
"                                                                                                                                                                                                                                                                                                                                                                                                                                                                                                                                                                                                                                                                                                                                                                                ",
"                                                                                                                                                                                                                                                                                                                                                                                                                                                                                                                                                                                                                                                                                                                                                                                ",
"                                                                                                                                                                                                                                                                                                                                                                                                                                                                                                                                                                                                                                                                                                                                                                                ",
"                                                                                                                                                                                                                                                                                                                                                                                                                                                                                                                                                                                                                                                                                                                                                                                ",
"                                                                                                                                                                                                                                                                                                                              3 o.C.S.S.S.S.S.S.S.S.S.S.S.S.S.S.S.S.S.+.{ #                       3 { M.S.S.S.S.S.S.S.S.S.S.S.S.S.S.S.S.S.+.} #                       X z +.C.S.S.S.S.S.S.S.S.S.S.S.S.S.S.S.S.C.o.8                                                                                                                                                                                                                                                             ",
"                                                                                                                                                                                                                                                                                                                          # o.S.S.S.S.S.S.S.S.S.S.S.S.S.S.S.S.S.S.S.S.S.S.S.z                   { S.S.S.S.S.S.S.S.S.S.S.S.S.S.S.S.S.S.S.S.S.S.S.{                   z C.S.S.S.S.S.S.S.S.S.S.S.S.S.S.S.S.S.S.S.S.S.S.M.#                                                                                                                                                                                                                                                         ",
"                                                                                                                                                                                                                                                                                                                        # M.S.S.S.S.S.S.S.S.S.S.S.S.S.S.S.S.S.S.S.S.S.S.S.S.S.z               o.S.S.S.S.S.S.S.S.S.S.S.S.S.S.S.S.S.S.S.S.S.S.S.S.S.o.              z S.S.S.S.S.S.S.S.S.S.S.S.S.S.S.S.S.S.S.S.S.S.S.S.S.M.#                                                                                                                                                                                                                                                       ",
"                                                                                                                                                                                                                                                                                                                        M.S.S.S.S.S.S.S.S.S.S.S.S.S.S.S.S.S.S.S.S.S.S.S.S.S.S.S.3           z S.S.S.S.S.S.S.S.S.S.S.S.S.S.S.S.S.S.S.S.S.S.S.S.S.S.S.Y           & S.S.S.S.S.S.S.S.S.S.S.S.S.S.S.S.S.S.S.S.S.S.S.S.S.S.S.o.                                                                                                                                                                                                                                                      ",
"                                                                                                                                                                                                                                                                                                                      8 S.S.S.S.S.S.S.S.S.S.S.S.S.S.S.S.S.S.S.S.S.S.S.S.S.S.S.S.o.        # S.S.S.S.S.S.S.S.S.S.S.S.S.S.S.S.S.S.S.S.S.S.S.S.S.S.S.S.C.X         o.S.S.S.S.S.S.S.S.S.S.S.S.S.S.S.S.S.S.S.S.S.S.S.S.S.S.S.S.8                                                                                                                                                                                                                                                     ",
"                                                                                                                                                                                                                                                                                                                      X.S.S.S.S.S.S.S.S.S.S.S.S.S.S.S.S.S.S.S.S.S.S.S.S.S.S.S.S.S.&       8 S.S.S.S.S.S.S.S.S.S.S.S.S.S.S.S.S.S.S.S.S.S.S.S.S.S.S.S.S.z       # S.S.S.S.S.S.S.S.S.S.S.S.S.S.S.S.S.S.S.S.S.S.S.S.S.S.S.S.S.o.                                                                                                                                                                                                                                                    ",
"                                                                                                                                                              a 1                                                                                                                                                     C.S.S.S.S.S.S.S.S.S.S.S.S.S.S.S.S.S.S.S.S.S.S.S.S.S.S.S.S.S.8       X.S.S.S.S.S.S.S.S.S.S.S.S.S.S.S.S.S.S.S.S.S.S.S.S.S.S.S.S.S.}       7 S.S.S.S.S.S.S.S.S.S.S.S.S.S.S.S.S.S.S.S.S.S.S.S.S.S.S.S.S.C.                                                                                                                                                                                                                                                    ",
"                                                                                                                          O f e.t.t.V O                       ^.t.                                                                                                                                                    S.S.S.S.S.S.S.S.S.S.S.S.S.S.S.S.S.S.S.S.S.S.S.S.S.S.S.S.S.S.Y       o.S.S.S.S.S.S.S.S.S.S.S.S.S.S.S.S.S.S.S.S.S.S.S.S.S.S.S.S.S.o.      Y S.S.S.S.S.S.S.S.S.S.S.S.S.S.S.S.S.S.S.S.S.S.S.S.S.S.S.S.S.S.                                                                                                                                                                                                                                                    ",
"                                                                                                                        - Q.^.~.Q.~.^.O                       ^.t.                                                                                                                                                    S.S.S.S.S.S.S.S.S.S.S.S.S.S.S.S.S.S.S.S.S.S.S.S.S.S.S.S.S.S.Y       o.S.S.S.S.S.S.S.S.S.S.S.S.S.S.S.S.S.S.S.S.S.S.S.S.S.S.S.S.S.o.      Y S.S.S.S.S.S.S.S.S.S.S.S.S.S.S.S.S.S.S.S.S.S.S.S.S.S.S.S.S.S.                                                                                                                                                                                                                                                    ",
"                                                                                                                      - Q.~.M O     -                         ^.t.                                                                                                                                                    S.S.S.S.S.S.S.S.S.S.S.S.S.S.S.S.S.S.S.S.S.S.S.S.S.S.S.S.S.S.Y       o.S.S.S.S.S.S.S.S.S.S.S.S.S.S.S.S.S.S.S.S.S.S.S.S.S.S.S.S.S.o.      Y S.S.S.S.S.S.S.S.S.S.S.S.S.S.S.S.S.S.S.S.S.S.S.S.S.S.S.S.S.S.                                                                                                                                                                                                                                                    ",
"                                                                                                                      t.^.f                   a e.t.e.-       ^.t.      a t.t.M -     O w.a C e.                                                                                                                      S.S.S.S.S.S.S.S.S.S.S.S.S.S.S.S.S.S.S.S.S.S.S.S.S.S.S.S.S.S.Y       o.S.S.S.S.S.S.S.S.S.S.S.S.S.A.V.A.S.S.S.S.S.S.S.S.S.S.S.S.S.o.      Y S.S.S.S.S.S.S.S.S.S.S.S.S.S.S.S.S.S.S.S.S.S.S.S.S.S.S.S.S.S.                                                                                                                                                                                                                                                    ",
"                                                                                                                      Q.g.                  C ^.~.g.^.Q.-     ^.t.    C ^.Q.g.^.Q.O   - ^.Q.^.W.                                                                                                                      S.S.S.S.S.S.S.S.S.S.S.S.S.S.#.' S.S.S.S.S.S.S.S.S.S.S.S.S.S.Y       o.S.S.S.S.S.S.S.S.S.S.S.V.' H K H ] V.S.S.S.S.S.S.S.S.S.S.S.o.      Y S.S.S.S.S.S.S.S.S.S.S.V.H H H H K $.S.S.S.S.S.S.S.S.S.S.S.S.                                                                                                                                                                                                                                                    ",
"                                                                                                                    O ^.r.                - ^.Q.O   - ~.g.    ^.t.  - ^.t.    a ^.r.  - ^.^.-                                                                                                                         S.S.S.S.S.S.S.S.S.S.S.S.S.S.#.' S.S.S.S.S.S.S.S.S.S.S.S.S.S.Y       o.S.S.S.S.S.S.S.S.S.S.S.K | A.S.A.[ K S.S.S.S.S.S.S.S.S.S.S.o.      Y S.S.S.S.S.S.S.S.S.S.S.V.H S.S.A.| K S.S.S.S.S.S.S.S.S.S.S.S.                                                                                                                                                                                                                                                    ",
"                                                                                                                    - ^.r.                f ^.f       r.^.O   ^.t.  w.^.1       g.~.  - ^.f.                                                                                                                          S.S.S.S.S.S.S.S.S.S.S.S.S.S.#.' S.S.S.S.S.S.S.S.S.S.S.S.S.S.Y       o.S.S.S.S.S.S.S.S.S.S.@.K S.S.S.S.S.H #.S.S.S.S.S.S.S.S.S.S.o.      Y S.S.S.S.S.S.S.S.S.S.S.V.H S.S.S.S.H V.S.S.S.S.S.S.S.S.S.S.S.                                                                                                                                                                                                                                                    ",
"                                                                                                                      ~.g.                w.^.1       w.^.@   ^.t.  s.^.        s.^.  - ^.w.                                                                                                                          S.S.S.S.S.S.S.S.S.S.S.S.S.S.#.' S.S.S.S.S.S.S.S.S.S.S.S.S.S.Y       o.S.S.S.S.S.S.S.S.S.S.| ] S.S.S.S.S.[ | S.S.S.S.S.S.S.S.S.S.o.      Y S.S.S.S.S.S.S.S.S.S.S.V.H S.S.S.V.H A.S.S.S.S.S.S.S.S.S.S.S.                                                                                                                                                                                                                                                    ",
"                                                                                                                      g.^.-               M ^.f       r.^.O   ^.t.  r.^.@       d.~.  - ^.w.                                                                                                                          S.S.S.S.S.S.S.S.S.S.S.S.S.S.#.' S.S.S.S.S.S.S.S.S.S.S.S.S.S.Y       o.S.S.S.S.S.S.S.S.S.S.[ [ S.S.S.S.S.| [ S.S.S.S.S.S.S.S.S.S.o.      Y S.S.S.S.S.S.S.S.S.S.S.V.H | | | K | S.S.S.S.S.S.S.S.S.S.S.S.                                                                                                                                                                                                                                                    ",
"                                                                                                                      a ^.Q.-       O     - ^.t.    O Q.Q.    ^.t.  a ^.e.    - ^.t.  - ^.w.                                                                                                                          S.S.S.S.S.S.S.S.S.S.S.S.S.S.#.' S.S.S.S.S.S.S.S.S.S.S.S.S.S.Y       o.S.S.S.S.S.S.S.S.S.S.| [ S.S.S.S.S.] | S.S.S.S.S.S.S.S.S.S.o.      Y S.S.S.S.S.S.S.S.S.S.S.V.H | | | @.S.S.S.S.S.S.S.S.S.S.S.S.S.                                                                                                                                                                                                                                                    ",
"                                                                                                                        M ^.^.g.g.W.~.O     r.^.d.e.Q.^.f     ^.t.    g.^.t.e.~.~.-   - ^.w.                                                                                                                          S.S.S.S.S.S.S.S.S.S.S.S.S.S.#.' S.S.S.S.S.S.S.S.S.S.S.S.S.S.Y       o.S.S.S.S.S.S.S.S.S.S.#.H A.S.S.S.V.K #.S.S.S.S.S.S.S.S.S.S.o.      Y S.S.S.S.S.S.S.S.S.S.S.V.H S.S.S.S.S.S.S.S.S.S.S.S.S.S.S.S.S.                                                                                                                                                                                                                                                    ",
"                                                                                                                          - r.g.Q.W.t.O       M W.Q.g.a       t.M     O w.W.Q.d.1     - g.M                                                                                                                           S.S.S.S.S.S.S.S.S.S.S.S.S.S.#.' S.S.S.S.S.S.S.S.S.S.S.S.S.S.Y       o.S.S.S.S.S.S.S.S.S.S.S.[ K #.V.#.K | S.S.S.S.S.S.S.S.S.S.S.o.      Y S.S.S.S.S.S.S.S.S.S.S.V.H S.S.S.S.S.S.S.S.S.S.S.S.S.S.S.S.S.                                                                                                                                                                                                                                                    ",
"                                                                                                                                                                                                                                                                                                                      S.S.S.S.S.S.S.S.S.S.S.S.S.S.$.| S.S.S.S.S.S.S.S.S.S.S.S.S.S.Y       o.S.S.S.S.S.S.S.S.S.S.S.S.| K H K | S.S.S.S.S.S.S.S.S.S.S.S.o.      Y S.S.S.S.S.S.S.S.S.S.S.V.` S.S.S.S.S.S.S.S.S.S.S.S.S.S.S.S.S.                                                                                                                                                                                                                                                    ",
"                                                                                                                                                                                                                                                                                                                      S.S.S.S.S.S.S.S.S.S.S.S.S.S.S.S.S.S.S.S.S.S.S.S.S.S.S.S.S.S.Y       o.S.S.S.S.S.S.S.S.S.S.S.S.S.S.S.S.S.S.S.S.S.S.S.S.S.S.S.S.S.o.      Y S.S.S.S.S.S.S.S.S.S.S.S.S.S.S.S.S.S.S.S.S.S.S.S.S.S.S.S.S.S.                                                                                                                                                                                                                                                    ",
"                                                                                                                                                                                                                                                                                                                      S.S.S.S.S.S.S.S.S.S.S.S.S.S.S.S.S.S.S.S.S.S.S.S.S.S.S.S.S.S.Y       o.S.S.S.S.S.S.S.S.S.S.S.S.S.S.S.S.S.S.S.S.S.S.S.S.S.S.S.S.S.o.      Y S.S.S.S.S.S.S.S.S.S.S.S.S.S.S.S.S.S.S.S.S.S.S.S.S.S.S.S.S.S.                                                                                                                                                                                                                                                    ",
"                                                                                                                                                                                                                                                                                                                      S.S.S.S.S.S.S.S.S.S.S.S.S.S.S.S.S.S.S.S.S.S.S.S.S.S.S.S.S.S.Y       o.S.S.S.S.S.S.S.S.S.S.S.S.S.S.S.S.S.S.S.S.S.S.S.S.S.S.S.S.S.o.      Y S.S.S.S.S.S.S.S.S.S.S.S.S.S.S.S.S.S.S.S.S.S.S.S.S.S.S.S.S.S.                                                                                                                                                                                                                                                    ",
"                                                                                                                                                                                                                                                                                                                      C.S.S.S.S.S.S.S.S.S.S.S.S.S.S.S.S.S.S.S.S.S.S.S.S.S.S.S.S.S.z       X.S.S.S.S.S.S.S.S.S.S.S.S.S.S.S.S.S.S.S.S.S.S.S.S.S.S.S.S.S.o.      8 S.S.S.S.S.S.S.S.S.S.S.S.S.S.S.S.S.S.S.S.S.S.S.S.S.S.S.S.S.S.                                                                                                                                                                                                                                                    ",
"                                                                                                                                                                                                                                                                                                                      +.S.S.S.S.S.S.S.S.S.S.S.S.S.S.S.S.S.S.S.S.S.S.S.S.S.S.S.S.S.3       { S.S.S.S.S.S.S.S.S.S.S.S.S.S.S.S.S.S.S.S.S.S.S.S.S.S.S.S.S.{       3 S.S.S.S.S.S.S.S.S.S.S.S.S.S.S.S.S.S.S.S.S.S.S.S.S.S.S.S.S.+.                                                                                                                                                                                                                                                    ",
"                                                                                                                                                                                                                                                                                                                      Y S.S.S.S.S.S.S.S.S.S.S.S.S.S.S.S.S.S.S.S.S.S.S.S.S.S.S.S.M.        3 S.S.S.S.S.S.S.S.S.S.S.S.S.S.S.S.S.S.S.S.S.S.S.S.S.S.S.S.S.3       X C.S.S.S.S.S.S.S.S.S.S.S.S.S.S.S.S.S.S.S.S.S.S.S.S.S.S.S.S.{                                                                                                                                                                                                                                                     ",
"                                                                                                                                                                                                                                                                                                                      X C.S.S.S.S.S.S.S.S.S.S.S.S.S.S.S.S.S.S.S.S.S.S.S.S.S.S.S.Y           o.S.S.S.S.S.S.S.S.S.S.S.S.S.S.S.S.S.S.S.S.S.S.S.S.S.S.S.M.          Y S.S.S.S.S.S.S.S.S.S.S.S.S.S.S.S.S.S.S.S.S.S.S.S.S.S.S.C.#                                                                                                                                                                                                                                                     ",
"                                                                                                                                                                                                                                                                                                                        z S.S.S.S.S.S.S.S.S.S.S.S.S.S.S.S.S.S.S.S.S.S.S.S.S.S.M.            # C.S.S.S.S.S.S.S.S.S.S.S.S.S.S.S.S.S.S.S.S.S.S.S.S.S.C.#           X +.S.S.S.S.S.S.S.S.S.S.S.S.S.S.S.S.S.S.S.S.S.S.S.S.S.S.z                                                                                                                                                                                                                                                       ",
"                                                                                                                                                                                                                                                                                                                          Y S.S.S.S.S.S.S.S.S.S.S.S.S.S.S.S.S.S.S.S.S.S.S.S.+.#               & M.S.S.S.S.S.S.S.S.S.S.S.S.S.S.S.S.S.S.S.S.S.S.S.C.&               # M.S.S.S.S.S.S.S.S.S.S.S.S.S.S.S.S.S.S.S.S.S.S.S.S.Y                                                                                                                                                                                                                                                         ",
"                                                                                                                                                                                                                                                                                                                            # o.S.S.S.S.S.S.S.S.S.S.S.S.S.S.S.S.S.S.S.S.C.Y X                   # } S.S.S.S.S.S.S.S.S.S.S.S.S.S.S.S.S.S.S.S.S.} #                     Y M.S.S.S.S.S.S.S.S.S.S.S.S.S.S.S.S.S.S.S.S.o.3                                                                                                                                                                                                                                                           ",
"                                                                                                                                                                                                                                                                                                                                # 7 8 8 8 8 8 8 8 8 8 8 8 8 8 8 8 8 8 3 X                           X 3 8 8 8 8 8 8 8 8 8 8 8 8 8 8 8 8 8 7 X                             3 8 8 8 8 8 8 8 8 8 8 8 8 8 8 8 8 8 8 #                                                                                                                                                                                                                                                               ",
"                                                                                                                                                                                                                                                                                                                                                                                                                                                                                                                                                                                                                                                                                                                                                                                ",
"                                                                                                                                                                                                                                                                                                                                                                                                                                                                                                                                                                                                                                                                                                                                                                                ",
"                                                                                                                                                                                                                                                                                                                                                                                                                                                                                                                                                                                                                                                                                                                                                                                ",
"                                                                                                                                                                                                                                                                                                                                                                                                                                                                                                                                                                                                                                                                                                                                                                                ",
"                                                                                                                                                                                                                                                                                                                                                                                                                                                                                                                                                                                                                                                                                                                                                                                ",
"                                                                                                                                                                                                                                                                                                                                                                                                                                                                                                                                                                                                                                                                                                                                                                                ",
"                                                                                                                                                                                                                                                                                                                                                                                                                                                                                                                                                                                                                                                                                                                                                                                ",
"                                                                                                                                                                                                                                                                                                                                                                                                                                                                                                                                                                                                                                                                                                                                                                                ",
"                                                                                                                                                                                                                                                                                                                                                                                                                                                                                                                                                                                                                                                                                                                                                                                ",
"                                                                                                                                                                                                                                                                                                                                                                                                                                                                                                                                                                                                                                                                                                                                                                                ",
"                                                                                                                                                                                                                                                                                                                                                                                                                                                                                                                                                                                                                                                                                                                                                                                ",
"                                                                                                                                                                                                                                                                                                                                                                                                                                                                                                                                                                                                                                                                                                                                                                                ",
"                                                                                                                                                                                                                                                                                                                                                                                                                                                                                                                                                                                                                                                                                                                                                                                ",
"                                                                                                                                                                                                                                                                                                                                                                                                                                                                                                                                                                                                                                                                                                                                                                                ",
"                                                                                                                                                                                                                                                                                                                                                                                                                                                                                                                                                                                                                                                                                                                                                                                ",
"                                                                                                                                                                                                                                                                                                                                                                                                                                                                                                                                                                                                                                                                                                                                                                                ",
"                                                                                                                                                                                                                                                                                                                                                                                                                                                                                                                                                                                                                                                                                                                                                                                ",
"                                                                                                                                                                                                                                                                                                                                                                                                                                                                                                                                                                                                                                                                                                                                                                                ",
"                                                                                                                                                                                                                                                                                                                                                                                                                                                                                                                                                                                                                                                                                                                                                                                ",
"                                                                                                                                                                                                                                                                                                                                                                                                                                                                                                                                                                                                                                                                                                                                                                                ",
"                                                                                                                                                                                                                                                                                                                                                                                                                                                                                                                                                                                                                                                                                                                                                                                ",
"                                                                                                                                                                                                                                                                                                                                                                                                                                                                                                                                                                                                                                                                                                                                                                                ",
"                                                                                                                                                                                                                                                                                                                                                                                                                                                                                                                                                                                                                                                                                                                                                                                ",
"                                                                                                                                                                                                                                                                                                                                                                                                                                                                                                                                                                                                                                                                                                                                                                                ",
"                                                                                                                                                                                                                                                                                                                                                                                                                                                                                                                                                                                                                                                                                                                                                                                ",
"                                                                                                                                                                                                                                                                                                                                                                                                                                                                                                                                                                                                                                                                                                                                                                                ",
"                                                                                                                                                                                                                                                                                                                                                                                                                                                                                                                                                                                                                                                                                                                                                                                ",
"                                                                                                                                                                                                                                                                                                                                                                                                                                                                                                                                                                                                                                                                                                                                                                                ",
"                                                                                                                                                                                                                                                                                                                                                                                                                                                                                                                                                                                                                                                                                                                                                                                ",
"                                                                                                                                                                                                                                                                                                                                                                                                                                                                                                                                                                                                                                                                                                                                                                                ",
"                                                                                                                                                                                                                                                                                                                                                                                                                                                                                                                                                                                                                                                                                                                                                                                ",
"                                                                                                                                                                                                                                                                                                                                                                                                                                                                                                                                                                                                                                                                                                                                                                                ",
"                                                                                                                                                                                                                                                                                                                                                                                                                                                                                                                                                                                                                                                                                                                                                                                ",
"                                                                                                                                                                                                                                                                                                                                                                                                                                                                                                                                                                                                                                                                                                                                                                                ",
"                                                                                                                                                                                                                                                                                                                                                                                                                                                                                                                                                                                                                                                                                                                                                                                ",
"                                                                                                                                                                                                                                                                                                                                                                                                                                                                                                                                                                                                                                                                                                                                                                                ",
"                                                                                                                                                                                                                                                                                                                                                                                                                                                                                                                                                                                                                                                                                                                                                                                ",
"                                                                                                                                                                                                                                                                                                                                                                                                                                                                                                                                                                                                                                                                                                                                                                                ",
"                                                                                                                                                                                                                                                                                                                                                                                                                                                                                                                                                                                                                                                                                                                                                                                ",
"                                                                                                                                                                                                                                                                                                                                                                                                                                                                                                                                                                                                                                                                                                                                                                                ",
"                                                                                                                                                                                                                                                                                                                                                                                                                                                                                                                                                                                                                                                                                                                                                                                ",
"                                                                                                                                                                                                                                                                                                                                                                                                                                                                                                                                                                                                                                                                                                                                                                                ",
"                                                                                                                                                                                                                                                                                                                                                                                                                                                                                                                                                                                                                                                                                                                                                                                ",
"                                                                                                                                                                                                                                                                                                                                                                                                                                                                                                                                                                                                                                                                                                                                                                                ",
"                                                                                                                                                                                                                                                                                                                                    + d l n n n n n n n n n n n n n n n l ,                             . 6 l n n n n n n n n n n n n n n n l 6 +                           . l _ i.i.i.i.i.i.i.i.i.i.i.i.i.i.i.i.i.) ,                                                                                                                                                                                                                                                         ",
"                                                                                                                                                                                                                                                                                                                                , i.R.R.R.R.R.R.R.R.R.R.R.R.R.R.R.R.R.R.R.R.v.n                     + _ R.R.R.R.R.R.R.R.R.R.R.R.R.R.R.R.R.R.R.R.R._ +                     l m.R.R.R.R.R.R.R.R.R.R.R.R.R.R.R.R.R.R.R.R.R.v.;                                                                                                                                                                                                                                                     ",
"                                                                                                                                                                                                                                                                                                                              n R.R.R.R.R.R.R.R.R.R.R.R.R.R.R.R.R.R.R.R.R.R.R.R.v.+               ; m.R.R.R.R.R.R.R.R.R.R.R.R.R.R.R.R.R.R.R.R.R.R.R.v.;                 ) R.R.R.R.R.R.R.R.R.R.R.R.R.R.R.R.R.R.R.R.R.R.R.R.R.d                                                                                                                                                                                                                                                   ",
"                                                                                                                                                                                                                                                                                                                            l R.R.R.R.R.R.R.R.R.R.R.R.R.R.R.R.R.R.R.R.R.R.R.R.R.R.v..           + m.R.R.R.R.R.R.R.R.R.R.R.R.R.R.R.R.R.R.R.R.R.R.R.R.R.m.;             n R.R.R.R.R.R.R.R.R.R.R.R.R.R.R.R.R.R.R.R.R.R.R.R.R.R.R.;                                                                                                                                                                                                                                                 ",
"                                                                                                                                                                                                                                                                                                                          + m.R.R.R.R.R.R.R.R.R.R.R.R.R.R.R.R.R.R.R.R.R.R.R.R.R.R.R.n           v.R.R.R.R.R.R.R.R.R.R.R.R.R.R.R.R.R.R.R.R.R.R.R.R.R.R.R.i.          + R.R.R.R.R.R.R.R.R.R.R.R.R.R.R.R.R.R.R.R.R.R.R.R.R.R.R.R.i.                                                                                                                                                                                                                                                ",
"                                                                                                                                                                                                                                                                                                                          ) R.R.R.R.R.R.R.R.R.R.R.R.R.R.R.R.R.R.R.R.R.R.R.R.R.R.R.R.m..       , R.R.R.R.R.R.R.R.R.R.R.R.R.R.R.R.R.R.R.R.R.R.R.R.R.R.R.R.R.,         l R.R.R.R.R.R.R.R.R.R.R.R.R.R.R.R.R.R.R.R.R.R.R.R.R.R.R.R.R.,                                                                                                                                                                                                                                               ",
"                                                                                                                                                                                                                                                                                                                          c.R.R.R.R.R.R.R.R.R.R.R.R.R.R.R.R.R.R.R.R.R.R.R.R.R.R.R.R.R.,       ) R.R.R.R.R.R.R.R.R.R.R.R.R.R.R.R.R.R.R.R.R.R.R.R.R.R.R.R.R.)         i.R.R.R.R.R.R.R.R.R.R.R.R.R.R.R.R.R.R.R.R.R.R.R.R.R.R.R.R.R.l                                                                                                                                                                                                                                               ",
"                                                                                                                                                                                                                                                                                                                          R.R.R.R.R.R.R.R.R.R.R.R.R.R.R.R.R.R.R.R.R.R.R.R.R.R.R.R.R.R.l       i.R.R.R.R.R.R.R.R.R.R.R.R.R.R.R.R.R.R.R.R.R.R.R.R.R.R.R.R.R.3.        v.R.R.R.R.R.R.R.R.R.R.R.R.R.R.R.R.R.R.R.R.R.R.R.R.R.R.R.R.R._                                                                                                                                                                                                                                               ",
"                                                                                                                                                                                                                                                                                                                          R.R.R.R.R.R.R.R.R.R.R.R.R.R.R.R.R.R.R.R.R.R.R.R.R.R.R.R.R.R.n       i.R.R.R.R.R.R.R.R.R.R.R.R.R.R.R.R.R.R.R.R.R.R.R.R.R.R.R.R.R.i.        v.R.R.R.R.R.R.R.R.R.R.R.R.R.R.R.R.R.R.R.R.R.R.R.R.R.R.R.R.R._                                                                                                                                                                                                                                               ",
"                                                                                                                                                                                                                                                                                                                          R.R.R.R.R.R.R.R.R.R.R.R.R.R.R.R.R.R.R.R.R.R.R.R.R.R.R.R.R.R.n       i.R.R.R.R.R.R.R.R.R.R.R.R.R.R.R.R.R.R.R.R.R.R.R.R.R.R.R.R.R.i.        v.R.R.R.R.R.R.R.R.R.R.R.R.R.R.R.R.R.R.R.R.R.R.R.R.R.R.R.R.R._                                                                                                                                                                                                                                               ",
"                                                                                                                                                                              1 1                                                                                                                                         R.R.R.R.R.R.R.R.R.R.R.R.R.R.R.R.R.R.R.R.R.R.R.R.R.R.R.R.R.R.n       i.R.R.R.R.R.R.R.R.R.R.R.R.R.R.R.R.R.R.R.R.R.R.R.R.R.R.R.R.R.i.        v.R.R.R.R.R.R.R.R.R.R.R.R.R.R.R.R.R.R.R.R.R.R.R.R.R.R.R.R.R._                                                                                                                                                                                                                                               ",
"                                                                                                              M V         a w.O                     ^.t.                      Q.t.                                                                                                                                        R.R.R.R.R.R.R.R.R.R.R.R.R.R.R.R.7.T.R.R.R.R.R.R.R.R.R.R.R.R.n       i.R.R.R.R.R.R.R.R.R.R.R.n.c.R.R.R.c.c.R.R.R.R.R.R.R.R.R.R.R.i.        v.R.R.R.R.R.R.R.R.R.R.R.R.<.b.R.R.R.R.R.R.R.R.R.R.R.R.R.R.R._                                                                                                                                                                                                                                               ",
"                                                                                                              g.Q.        w.^.@                     Q.r.                      Q.t.              - t.1                                                                                                                     R.R.R.R.R.R.R.R.R.R.R.R.R.R.R.R.r n.R.R.R.R.R.R.R.R.R.R.R.R.n       i.R.R.R.R.R.R.R.R.R.R.R.7.( R.R.7.y n.R.R.R.R.R.R.R.R.R.R.R.i.        v.R.R.R.R.R.R.R.R.R.R.R.R.y c.R.R.R.R.R.R.R.R.R.R.R.R.R.R.R._                                                                                                                                                                                                                                               ",
"                                                                                                              g.Q.        w.^.@                                               Q.t.              M ^.a                                                                                                                     R.R.R.R.R.R.R.R.R.R.R.R.R.R.R.R.r n.R.R.R.R.R.R.R.R.R.R.R.R.n       i.R.R.R.R.R.R.R.R.R.R.R.7.( R.b.t n.R.R.R.R.R.R.R.R.R.R.R.R.i.        v.R.R.R.R.R.R.R.R.R.R.R.R.y c.R.R.R.R.R.R.R.R.R.R.R.R.R.R.R._                                                                                                                                                                                                                                               ",
"                                                                                                              g.Q.        w.^.@       M t.e.1       g.w.      f t.e.M w.a     Q.t.C g.g.f     M g.^.g.e.                                                                                                                  R.R.R.R.R.R.R.R.R.R.R.R.R.R.R.R.r n.R.R.R.R.R.R.R.R.R.R.R.R.n       i.R.R.R.R.R.R.R.R.R.R.R.7.( b.y b.R.R.R.R.R.R.R.R.R.R.R.R.R.i.        v.R.R.R.R.R.R.R.R.R.R.R.R.y c.R.R.R.R.R.R.R.R.R.R.R.R.R.R.R._                                                                                                                                                                                                                                               ",
"                                                                                                              g.Q.        w.^.@     e.^.W.Q.^.f     ^.t.    e.^.~.Q.^.^.w.    Q.~.~.g.Q.^.a   r.~.^.Q.g.                                                                                                                  R.R.R.R.R.R.R.R.R.R.R.R.R.R.R.R.r n.R.R.R.R.R.R.R.R.R.R.R.R.n       i.R.R.R.R.R.R.R.R.R.R.R.7.y y b.R.R.R.R.R.R.R.R.R.R.R.R.R.R.i.        v.R.R.R.R.R.R.R.R.R.R.R.R.y c.R.R.R.R.R.R.R.R.R.R.R.R.R.R.R._                                                                                                                                                                                                                                               ",
"                                                                                                              g.^.Q.Q.Q.Q.~.^.@   a ^.w.  O Q.g.    ^.t.  - ^.d.    r.^.w.    Q.^.-   1 ^.r.    M ^.a                                                                                                                     R.R.R.R.R.R.R.R.R.R.R.R.R.R.R.R.r n.R.R.R.R.R.R.R.R.R.R.R.R.n       i.R.R.R.R.R.R.R.R.R.R.R.7.p p 2.R.R.R.R.R.R.R.R.R.R.R.R.R.R.i.        v.R.R.R.R.R.R.R.R.R.R.R.R.y c.R.R.R.R.R.R.R.R.R.R.R.R.R.R.R._                                                                                                                                                                                                                                               ",
"                                                                                                              g.^.g.g.g.g.Q.^.@   w.^.f a a d.^.O   ^.t.  f ^.a     O ^.w.    Q.g.      ^.t.    M ^.a                                                                                                                     R.R.R.R.R.R.R.R.R.R.R.R.R.R.R.R.r n.R.R.R.R.R.R.R.R.R.R.R.R.n       i.R.R.R.R.R.R.R.R.R.R.R.7.( T.y 2.R.R.R.R.R.R.R.R.R.R.R.R.R.i.        v.R.R.R.R.R.R.R.R.R.R.R.R.y c.R.R.R.R.R.R.R.R.R.R.R.R.R.R.R._                                                                                                                                                                                                                                               ",
"                                                                                                              g.Q.        w.^.@   s.^.^.^.^.^.^.@   ^.t.  M ^.a       ^.w.    Q.t.      ^.t.    M ^.a                                                                                                                     R.R.R.R.R.R.R.R.R.R.R.R.c.9.R.R.r n.R.R.R.R.R.R.R.R.R.R.R.R.n       i.R.R.R.R.R.R.R.R.R.R.R.7.( R.n.y 2.R.R.R.R.R.R.R.R.R.R.R.R.i.        v.R.R.R.R.R.R.R.R.R.R.R.R.y c.R.R.R.R.R.R.R.R.R.R.R.R.R.R.R._                                                                                                                                                                                                                                               ",
"                                                                                                              g.Q.        w.^.@   r.^.1 - - - -     ^.t.  f ^.f     - ^.w.    Q.t.      ^.t.    M ^.a                                                                                                                     R.R.R.R.R.R.R.R.R.R.R.R.c.t <.( p R.R.R.R.R.R.R.R.R.R.R.R.R.n       i.R.R.R.R.R.R.R.R.R.R.R.7.( R.R.n.y 2.R.R.R.R.R.R.R.R.R.R.R.i.        v.R.R.R.R.R.R.R.R.R.R.R.R.y r r t t 7.R.R.R.R.R.R.R.R.R.R.R._                                                                                                                                                                                                                                               ",
"                                                                                                              g.Q.        w.^.@   f ^.V             ^.t.  O ~.W.1 - d.^.w.    Q.t.      ^.t.    M ^.a                                                                                                                     R.R.R.R.R.R.R.R.R.R.R.R.R.n.2.7.T.R.R.R.R.R.R.R.R.R.R.R.R.R.n       i.R.R.R.R.R.R.R.R.R.R.R.n.9.R.R.R.n.7.T.R.R.R.R.R.R.R.R.R.R.i.        v.R.R.R.R.R.R.R.R.R.R.R.R.R.R.R.R.R.R.R.R.R.R.R.R.R.R.R.R.R._                                                                                                                                                                                                                                               ",
"                                                                                                              g.Q.        w.^.@   O Q.^.t.w.t.V     ^.t.    M ~.^.^.Q.^.w.    Q.t.      ^.t.    a ^.g.t.                                                                                                                  R.R.R.R.R.R.R.R.R.R.R.R.R.R.R.R.R.R.R.R.R.R.R.R.R.R.R.R.R.R.n       i.R.R.R.R.R.R.R.R.R.R.R.R.R.R.R.R.R.R.R.R.R.R.R.R.R.R.R.R.R.i.        v.R.R.R.R.R.R.R.R.R.R.R.R.R.R.R.R.R.R.R.R.R.R.R.R.R.R.R.R.R._                                                                                                                                                                                                                                               ",
"                                                                                                              r.t.        M g.O     - s.W.Q.g.a     g.V       - f M M ^.f     r.M       t.M       s.Q.W.                                                                                                                  R.R.R.R.R.R.R.R.R.R.R.R.R.R.R.R.R.R.R.R.R.R.R.R.R.R.R.R.R.R.n       i.R.R.R.R.R.R.R.R.R.R.R.R.R.R.R.R.R.R.R.R.R.R.R.R.R.R.R.R.R.i.        v.R.R.R.R.R.R.R.R.R.R.R.R.R.R.R.R.R.R.R.R.R.R.R.R.R.R.R.R.R._                                                                                                                                                                                                                                               ",
"                                                                                                                                                            g.g.t.t.~.Q.                                                                                                                                                  R.R.R.R.R.R.R.R.R.R.R.R.R.R.R.R.R.R.R.R.R.R.R.R.R.R.R.R.R.R.n       i.R.R.R.R.R.R.R.R.R.R.R.R.R.R.R.R.R.R.R.R.R.R.R.R.R.R.R.R.R.i.        v.R.R.R.R.R.R.R.R.R.R.R.R.R.R.R.R.R.R.R.R.R.R.R.R.R.R.R.R.R.)                                                                                                                                                                                                                                               ",
"                                                                                                                                                            V g.Q.W.w.O                                                                                                                                                   m.R.R.R.R.R.R.R.R.R.R.R.R.R.R.R.R.R.R.R.R.R.R.R.R.R.R.R.R.R.6       _ R.R.R.R.R.R.R.R.R.R.R.R.R.R.R.R.R.R.R.R.R.R.R.R.R.R.R.R.R.3.        i.R.R.R.R.R.R.R.R.R.R.R.R.R.R.R.R.R.R.R.R.R.R.R.R.R.R.R.R.R.l                                                                                                                                                                                                                                               ",
"                                                                                                                                                                                                                                                                                                                          3.R.R.R.R.R.R.R.R.R.R.R.R.R.R.R.R.R.R.R.R.R.R.R.R.R.R.R.R.R.;       l R.R.R.R.R.R.R.R.R.R.R.R.R.R.R.R.R.R.R.R.R.R.R.R.R.R.R.R.R.d         n R.R.R.R.R.R.R.R.R.R.R.R.R.R.R.R.R.R.R.R.R.R.R.R.R.R.R.R.R.;                                                                                                                                                                                                                                               ",
"                                                                                                                                                                                                                                                                                                                          , R.R.R.R.R.R.R.R.R.R.R.R.R.R.R.R.R.R.R.R.R.R.R.R.R.R.R.R.c.        . m.R.R.R.R.R.R.R.R.R.R.R.R.R.R.R.R.R.R.R.R.R.R.R.R.R.R.R.R.+         . m.R.R.R.R.R.R.R.R.R.R.R.R.R.R.R.R.R.R.R.R.R.R.R.R.R.R.R.c.                                                                                                                                                                                                                                                ",
"                                                                                                                                                                                                                                                                                                                            i.R.R.R.R.R.R.R.R.R.R.R.R.R.R.R.R.R.R.R.R.R.R.R.R.R.R.R.,           n R.R.R.R.R.R.R.R.R.R.R.R.R.R.R.R.R.R.R.R.R.R.R.R.R.R.R.n             l R.R.R.R.R.R.R.R.R.R.R.R.R.R.R.R.R.R.R.R.R.R.R.R.R.R.R.+                                                                                                                                                                                                                                                 ",
"                                                                                                                                                                                                                                                                                                                            + v.R.R.R.R.R.R.R.R.R.R.R.R.R.R.R.R.R.R.R.R.R.R.R.R.R.n               _ R.R.R.R.R.R.R.R.R.R.R.R.R.R.R.R.R.R.R.R.R.R.R.R.R.i.                ) R.R.R.R.R.R.R.R.R.R.R.R.R.R.R.R.R.R.R.R.R.R.R.R.R.d                                                                                                                                                                                                                                                   ",
"                                                                                                                                                                                                                                                                                                                              + v.R.R.R.R.R.R.R.R.R.R.R.R.R.R.R.R.R.R.R.R.R.R.m.l                   ) R.R.R.R.R.R.R.R.R.R.R.R.R.R.R.R.R.R.R.R.R.R.R.)                     l v.R.R.R.R.R.R.R.R.R.R.R.R.R.R.R.R.R.R.R.R.R.c.,                                                                                                                                                                                                                                                     ",
"                                                                                                                                                                                                                                                                                                                                  d 3.m.R.R.R.R.R.R.R.R.R.R.R.R.R.R.R.R.m.c.n .                       + _ c.R.R.R.R.R.R.R.R.R.R.R.R.R.R.R.R.R.v.) ,                         . d ) i.i.i.i.i.i.i.i.i.i.i.i.i.i.i.i.3.) ,                                                                                                                                                                                                                                                         ",
"                                                                                                                                                                                                                                                                                                                                                                                                                                                                                                                                                                                                                                                                                                                                                                                ",
"                                                                                                                                                                                                                                                                                                                                                                                                                                                                                                                                                                                                                                                                                                                                                                                ",
"                                                                                                                                                                                                                                                                                                                                                                                                                                                                                                                                                                                                                                                                                                                                                                                ",
"                                                                                                                                                                                                                                                                                                                                                                                                                                                                                                                                                                                                                                                                                                                                                                                ",
"                                                                                                                                                                                                                                                                                                                                                                                                                                                                                                                                                                                                                                                                                                                                                                                ",
"                                                                                                                                                                                                                                                                                                                                                                                                                                                                                                                                                                                                                                                                                                                                                                                ",
"                                                                                                                                                                                                                                                                                                                                                                                                                                                                                                                                                                                                                                                                                                                                                                                ",
"                                                                                                                                                                                                                                                                                                                                                                                                                                                                                                                                                                                                                                                                                                                                                                                ",
"                                                                                                                                                                                                                                                                                                                                                                                                                                                                                                                                                                                                                                                                                                                                                                                ",
"                                                                                                                                                                                                                                                                                                                                                                                                                                                                                                                                                                                                                                                                                                                                                                                ",
"                                                                                                                                                                                                                                                                                                                                                                                                                                                                                                                                                                                                                                                                                                                                                                                ",
"                                                                                                                                                                                                                                                                                                                                                                                                                                                                                                                                                                                                                                                                                                                                                                                ",
"                                                                                                                                                                                                                                                                                                                                                                                                                                                                                                                                                                                                                                                                                                                                                                                ",
"                                                                                                                                                                                                                                                                                                                                                                                                                                                                                                                                                                                                                                                                                                                                                                                ",
"                                                                                                                                                                                                                                                                                                                                                                                                                                                                                                                                                                                                                                                                                                                                                                                ",
"                                                                                                                                                                                                                                                                                                                                                                                                                                                                                                                                                                                                                                                                                                                                                                                ",
"                                                                                                                                                                                                                                                                                                                                                                                                                                                                                                                                                                                                                                                                                                                                                                                ",
"                                                                                                                                                                                                                                                                                                                                                                                                                                                                                                                                                                                                                                                                                                                                                                                ",
"                                                                                                                                                                                                                                                                                                                                                                                                                                                                                                                                                                                                                                                                                                                                                                                ",
"                                                                                                                                                                                                                                                                                                                                                                                                                                                                                                                                                                                                                                                                                                                                                                                ",
"                                                                                                                                                                                                                                                                                                                                                                                                                                                                                                                                                                                                                                                                                                                                                                                ",
"                                                                                                                                                                                                                                                                                                                                                                                                                                                                                                                                                                                                                                                                                                                                                                                ",
"                                                                                                                                                                                                                                                                                                                                                                                                                                                                                                                                                                                                                                                                                                                                                                                ",
"                                                                                                                                                                                                                                                                                                                                                                                                                                                                                                                                                                                                                                                                                                                                                                                ",
"                                                                                                                                                                                                                                                                                                                                                                                                                                                                                                                                                                                                                                                                                                                                                                                ",
"                                                                                                                                                                                                                                                                                                                                                                                                                                                                                                                                                                                                                                                                                                                                                                                ",
"                                                                                                                                                                                                                                                                                                                                                                                                                                                                                                                                                                                                                                                                                                                                                                                ",
"                                                                                                                                                                                                                                                                                                                                                                                                                                                                                                                                                                                                                                                                                                                                                                                ",
"                                                                                                                                                                                                                                                                                                                                                                                                                                                                                                                                                                                                                                                                                                                                                                                ",
"                                                                                                                                                                                                                                                                                                                                                                                                                                                                                                                                                                                                                                                                                                                                                                                ",
"                                                                                                                                                                                                                                                                                                                                                                                                                                                                                                                                                                                                                                                                                                                                                                                ",
"                                                                                                                                                                                                                                                                                                                                                                                                                                                                                                                                                                                                                                                                                                                                                                                ",
"                                                                                                                                                                                                                                                                                                                                                                                                                                                                                                                                                                                                                                                                                                                                                                                ",
"                                                                                                                                                                                                                                                                                                                                                                                                                                                                                                                                                                                                                                                                                                                                                                                ",
"                                                                                                                                                                                                                                                                                                                                                                                                                                                                                                                                                                                                                                                                                                                                                                                ",
"                                                                                                                                                                                                                                                                                                                                                                                                                                                                                                                                                                                                                                                                                                                                                                                ",
"                                                                                                                                                                                                                                                                                                                                                                                                                                                                                                                                                                                                                                                                                                                                                                                ",
"                                                                                                                                                                                                                                                                                                                                                                                                                                                                                                                                                                                                                                                                                                                                                                                ",
"                                                                                                                                                                                                                                                                                                                                                                                                                                                                                                                                                                                                                                                                                                                                                                                ",
"                                                                                                                                                                                                                                                                                                                                                                                                                                                                                                                                                                                                                                                                                                                                                                                ",
"                                                                                                                                                                                                                                                                                                                                                                                                                                                                                                                                                                                                                                                                                                                                                                                ",
"                                                                                                                                                                                                                                                                                                                                                                                                                                                                                                                                                                                                                                                                                                                                                                                ",
"                                                                                                                                                                                                                                                                                                                                                                                                                                                                                                                                                                                                                                                                                                                                                                                ",
"                                                                                                                                                                                                                                                                                                                                                                                                                                                                                                                                                                                                                                                                                                                                                                                ",
"                                                                                                                                                                                                                                                                                                                                                                                                                                                                                                                                                                                                                                                                                                                                                                                ",
"                                                                                                                                                                                                                                                                                                                                                                                                                                                                                                                                                                                                                                                                                                                                                                                ",
"                                                                                                                                                                                                                                                                                                                                                                                                                                                                                                                                                                                                                                                                                                                                                                                ",
"                                                                                                                                                                                                                                                                                                                                                                                                                                                                                                                                                                                                                                                                                                                                                                                ",
"                                                                                                                                                                                                                                                                                                                                                                                                                                                                                                                                                                                                                                                                                                                                                                                ",
"                                                                                                                                                                                                                                                                                                                                                                                                                                                                                                                                                                                                                                                                                                                                                                                ",
"                                                                                                                                                                                                                                                                                                                                                                                                                                                                                                                                                                                                                                                                                                                                                                                ",
"                                                                                                                                                                                                                                                                                                                                                                                                                                                                                                                                                                                                                                                                                                                                                                                ",
"                                                                                                                                                                                                                                                                                                                                                                                                                                                                                                                                                                                                                                                                                                                                                                                ",
"                                                                                                                                                                                                                                                                                                                                                                                                                                                                                                                                                                                                                                                                                                                                                                                ",
"                                                                                                                                                                                                                                                                                                                                                                                                                                                                                                                                                                                                                                                                                                                                                                                ",
"                                                                                                                                                                                                                                                                                                                                                                                                                                                                                                                                                                                                                                                                                                                                                                                ",
"                                                                                                                                                                                                                                                                                                                                                                                                                                                                                                                                                                                                                                                                                                                                                                                ",
"                                                                                                                                                                                                                                                                                                                                                                                                                                                                                                                                                                                                                                                                                                                                                                                ",
"                                                                                                                                                                                                                                                                                                                                                                                                                                                                                                                                                                                                                                                                                                                                                                                ",
"                                                                                                                                                                                                                                                                                                                                                                                                                                                                                                                                                                                                                                                                                                                                                                                ",
"                                                                                                                                                                                                                                                                                                                                                                                                                                                                                                                                                                                                                                                                                                                                                                                ",
"                                                                                                                                                                                                                                                                                                                                                                                                                                                                                                                                                                                                                                                                                                                                                                                ",
"                                                                                                                                                                                                                                                                                                                                                                                                                                                                                                                                                                                                                                                                                                                                                                                ",
"                                                                                                                                                                                                                                                                                                                                                                                                                                                                                                                                                                                                                                                                                                                                                                                ",
"                                                                                                                                                                                                                                                                                                                                                                                                                                                                                                                                                                                                                                                                                                                                                                                ",
"                                                                                                                                                                                                                                                                                                                                                                                                                                                                                                                                                                                                                                                                                                                                                                                ",
"                                                                                                                                                                                                                                                                                                                                                                                                                                                                                                                                                                                                                                                                                                                                                                                ",
"                                                                                                                                                                                                                                                                                                                                                                                                                                                                                                                                                                                                                                                                                                                                                                                ",
"                                                                                                                                                                                                                                                                                                                                                                                                                                                                                                                                                                                                                                                                                                                                                                                ",
"                                                                                                                                                                                                                                                                                                                                                                                                                                                                                                                                                                                                                                                                                                                                                                                ",
"                                                                                                                                                                                                                                                                                                                                                                                                                                                                                                                                                                                                                                                                                                                                                                                ",
"                                                                                                                                                                                                                                                                                                                                                                                                                                                                                                                                                                                                                                                                                                                                                                                ",
"                                                                                                                                                                                                                                                                                                                                                                                                                                                                                                                                                                                                                                                                                                                                                                                ",
"                                                                                                                                                                                                                                                                                                                                                                                                                                                                                                                                                                                                                                                                                                                                                                                ",
"                                                                                                                                                                                                                                                                                                                                                                                                                                                                                                                                                                                                                                                                                                                                                                                ",
"                                                                                                                                                                                                                                                                                                                                                                                                                                                                                                                                                                                                                                                                                                                                                                                ",
"                                                                                                                                                                                                                                                                                                                                                                                                                                                                                                                                                                                                                                                                                                                                                                                ",
"                                                                                                                                                                                                                                                                                                                                                                                                                                                                                                                                                                                                                                                                                                                                                                                ",
"                                                                                                                                                                                                                                                                                                                                                                                                                                                                                                                                                                                                                                                                                                                                                                                ",
"                                                                                                                                                                                                                                                                                                                                                                                                                                                                                                                                                                                                                                                                                                                                                                                ",
"                                                                                                                                                                                                                                                                                                                                                                                                                                                                                                                                                                                                                                                                                                                                                                                ",
"                                                                                                                                                                                                                                                                                                                                                                                                                                                                                                                                                                                                                                                                                                                                                                                ",
"                                                                                                                                                                                                                                                                                                                                                                                                                                                                                                                                                                                                                                                                                                                                                                                ",
"                                                                                                                                                                                                                                                                                                                                                                                                                                                                                                                                                                                                                                                                                                                                                                                ",
"                                                                                                                                                                                                                                                                                                                                                                                                                                                                                                                                                                                                                                                                                                                                                                                ",
"                                                                                                                                                                                                                                                                                                                                                                                                                                                                                                                                                                                                                                                                                                                                                                                ",
"                                                                                                                                                                                                                                                                                                                                                                                                                                                                                                                                                                                                                                                                                                                                                                                ",
"                                                                                                                                                                                                                                                                                                                                                                                                                                                                                                                                                                                                                                                                                                                                                                                ",
"                                                                                                                                                                                                                                                                                                                                                                                                                                                                                                                                                                                                                                                                                                                                                                                ",
"                                                                                                                                                                                                                                                                                                                                                                                                                                                                                                                                                                                                                                                                                                                                                                                ",
"                                                                                                                                                                                                                                                                                                                                                                                                                                                                                                                                                                                                                                                                                                                                                                                ",
"                                                                                                                                                                                                                                                                                                                                                                                                                                                                                                                                                                                                                                                                                                                                                                                ",
"                                                                                                                                                                                                                                                                                                                                                                                                                                                                                                                                                                                                                                                                                                                                                                                ",
"                                                                                                                                                                                                                                                                                                                                                                                                                                                                                                                                                                                                                                                                                                                                                                                ",
"                                                                                                                                                                                                                                                                                                                                                                                                                                                                                                                                                                                                                                                                                                                                                                                ",
"                                                                                                                                                                                                                                                                                                                                                                                                                                                                                                                                                                                                                                                                                                                                                                                ",
"                                                                                                                                                                                                                                                                                                                                                                                                                                                                                                                                                                                                                                                                                                                                                                                ",
"                                                                                                                                                                                                                                                                                                                                                                                                                                                                                                                                                                                                                                                                                                                                                                                ",
"                                                                                                                                                                                                                                                                                                                                                                                                                                                                                                                                                                                                                                                                                                                                                                                ",
"                                                                                                                                                                                                                                                                                                                                                                                                                                                                                                                                                                                                                                                                                                                                                                                ",
"                                                                                                                                                                                                                                                                                                                                                                                                                                                                                                                                                                                                                                                                                                                                                                                ",
"                                                                                                                                                                                                                                                                                                                                                                                                                                                                                                                                                                                                                                                                                                                                                                                ",
"                                                                                                                                                                                                                                                                                                                                                                                                                                                                                                                                                                                                                                                                                                                                                                                ",
"                                                                                                                                                                                                                                                                                                                                                                                                                                                                                                                                                                                                                                                                                                                                                                                ",
"                                                                                                                                                                                                                                                                                                                                                                                                                                                                                                                                                                                                                                                                                                                                                                                ",
"                                                                                                                                                                                                                                                                                                                                                                                                                                                                                                                                                                                                                                                                                                                                                                                ",
"                                                                                                                                                                                                                                                                                                                                                                                                                                                                                                                                                                                                                                                                                                                                                                                ",
"                                                                                                                                                                                                                                                                                                                                                                                                                                                                                                                                                                                                                                                                                                                                                                                ",
"                                                                                                                                                                                                                                                                                                                                                                                                                                                                                                                                                                                                                                                                                                                                                                                ",
"                                                                                                                                                                                                                                                                                                                                                                                                                                                                                                                                                                                                                                                                                                                                                                                ",
"                                                                                                                                                                                                                                                                                                                                                                                                                                                                                                                                                                                                                                                                                                                                                                                ",
"                                                                                                                                                                                                                                                                                                                                                                                                                                                                                                                                                                                                                                                                                                                                                                                ",
"                                                                                                                                                                                                                                                                                                                                                                                                                                                                                                                                                                                                                                                                                                                                                                                ",
"                                                                                                                                                                                                                                                                                                                                                                                                                                                                                                                                                                                                                                                                                                                                                                                ",
"                                                                                                                                                                                                                                                                                                                                                                                                                                                                                                                                                                                                                                                                                                                                                                                ",
"                                                                                                                                                                                                                                                                                                                                                                                                                                                                                                                                                                                                                                                                                                                                                                                ",
"                                                                                                                                                                                                                                                                                                                                                                                                                                                                                                                                                                                                                                                                                                                                                                                ",
"                                                                                                                                                                                                                                                                                                                                                                                                                                                                                                                                                                                                                                                                                                                                                                                ",
"                                                                                                                                                                                                                                                                                                                                                                                                                                                                                                                                                                                                                                                                                                                                                                                ",
"                                                                                                                                                                                                                                                                                                                                                                                                                                                                                                                                                                                                                                                                                                                                                                                ",
"                                                                                                                                                                                                                                                                                                                                                                                                                                                                                                                                                                                                                                                                                                                                                                                ",
"                                                                                                                                                                                                                                                                                                                                                                                                                                                                                                                                                                                                                                                                                                                                                                                ",
"                                                                                                                                                                                                                                                                                                                                                                                                                                                                                                                                                                                                                                                                                                                                                                                ",
"                                                                                                                                                                                                                                                                                                                                                                                                                                                                                                                                                                                                                                                                                                                                                                                ",
"                                                                                                                                                                                                                                                                                                                                                                                                                                                                                                                                                                                                                                                                                                                                                                                ",
"                                                                                                                                                                                                                                                                                                                                                                                                                                                                                                                                                                                                                                                                                                                                                                                ",
"                                                                                                                                                                                                                                                                                                                                                                                                                                                                                                                                                                                                                                                                                                                                                                                ",
"                                                                                                                                                                                                                                                                                                                                                                                                                                                                                                                                                                                                                                                                                                                                                                                ",
"                                                                                                                                                                                                                                                                                                                                                                                                                                                                                                                                                                                                                                                                                                                                                                                ",
"                                                                                                                                                                                                                                                                                                                                                                                                                                                                                                                                                                                                                                                                                                                                                                                ",
"                                                                                                                                                                                                                                                                                                                                                                                                                                                                                                                                                                                                                                                                                                                                                                                ",
"                                                                                                                                                                                                                                                                                                                                                                                                                                                                                                                                                                                                                                                                                                                                                                                ",
"                                                                                                                                                                                                                                                                                                                                                                                                                                                                                                                                                                                                                                                                                                                                                                                ",
"                                                                                                                                                                                                                                                                                                                                                                                                                                                                                                                                                                                                                                                                                                                                                                                ",
"                                                                                                                                                                                                                                                                                                                                                                                                                                                                                                                                                                                                                                                                                                                                                                                ",
"                                                                                                                                                                                                                                                                                                                                                                                                                                                                                                                                                                                                                                                                                                                                                                                ",
"                                                                                                                                                                                                                                                                                                                                                                                                                                                                                                                                                                                                                                                                                                                                                                                ",
"                                                                                                                                                                                                                                                                                                                                                                                                                                                                                                                                                                                                                                                                                                                                                                                ",
"                                                                                                                                                                                                                                                                                                                                                                                                                                                                                                                                                                                                                                                                                                                                                                                ",
"                                                                                                                                                                                                                                                                                                                                                                                                                                                                                                                                                                                                                                                                                                                                                                                ",
"                                                                                                                                                                                                                                                                                                                                                                                                                                                                                                                                                                                                                                                                                                                                                                                ",
"                                                                                                                                                                                                                                                                                                                                                                                                                                                                                                                                                                                                                                                                                                                                                                                ",
"                                                                                                                                                                                                                                                                                                                                                                                                                                                                                                                                                                                                                                                                                                                                                                                ",
"                                                                                                                                                                                                                                                                                                                                                                                                                                                                                                                                                                                                                                                                                                                                                                                ",
"                                                                                                                                                                                                                                                                                                                                                                                                                                                                                                                                                                                                                                                                                                                                                                                ",
"                                                                                                                                                                                                                                                                                                                                                                                                                                                                                                                                                                                                                                                                                                                                                                                ",
"                                                                                                                                                                                                                                                                                                                                                                                                                                                                                                                                                                                                                                                                                                                                                                                ",
"                                                                                                                                                                                                                                                                                                                                                                                                                                                                                                                                                                                                                                                                                                                                                                                ",
"                                                                                                                                                                                                                                                                                                                                                                                                                                                                                                                                                                                                                                                                                                                                                                                ",
"                                                                                                                                                                                                                                                                                                                                                                                                                                                                                                                                                                                                                                                                                                                                                                                ",
"                                                                                                                                                                                                                                                                                                                                                                                                                                                                                                                                                                                                                                                                                                                                                                                ",
"                                                                                                                                                                                                                                                                                                                                                                                                                                                                                                                                                                                                                                                                                                                                                                                ",
"                                                                                                                                                                                                                                                                                                                                                                                                                                                                                                                                                                                                                                                                                                                                                                                ",
"                                                                                                                                                                                                                                                                                                                                                                                                                                                                                                                                                                                                                                                                                                                                                                                ",
"                                                                                                                                                                                                                                                                                                                                                                                                                                                                                                                                                                                                                                                                                                                                                                                ",
"                                                                                                                                                                                                                                                                                                                                                                                                                                                                                                                                                                                                                                                                                                                                                                                ",
"                                                                                                                                                                                                                                                                                                                                                                                                                                                                                                                                                                                                                                                                                                                                                                                ",
"                                                                                                                                                                                                                                                                                                                                                                                                                                                                                                                                                                                                                                                                                                                                                                                ",
"                                                                                                                                                                                                                                                                                                                                                                                                                                                                                                                                                                                                                                                                                                                                                                                ",
"                                                                                                                                                                                                                                                                                                                                                                                                                                                                                                                                                                                                                                                                                                                                                                                ",
"                                                                                                                                                                                                                                                                                                                                                                                                                                                                                                                                                                                                                                                                                                                                                                                ",
"                                                                                                                                                                                                                                                                                                                                                                                                                                                                                                                                                                                                                                                                                                                                                                                ",
"                                                                                                                                                                                                                                                                                                                                                                                                                                                                                                                                                                                                                                                                                                                                                                                ",
"                                                                                                                                                                                                                                                                                                                                                                                                                                                                                                                                                                                                                                                                                                                                                                                ",
"                                                                                                                                                                                                                                                                                                                                                                                                                                                                                                                                                                                                                                                                                                                                                                                ",
"                                                                                                                                                                                                                                                                                                                                                                                                                                                                                                                                                                                                                                                                                                                                                                                ",
"                                                                                                                                                                                                                                                                                                                                                                                                                                                                                                                                                                                                                                                                                                                                                                                ",
"                                                                                                                                                                                                                                                                                                                                                                                                                                                                                                                                                                                                                                                                                                                                                                                ",
"                                                                                                                                                                                                                                                                                                                                                                                                                                                                                                                                                                                                                                                                                                                                                                                ",
"                                                                                                                                                                                                                                                                                                                                                                                                                                                                                                                                                                                                                                                                                                                                                                                ",
"                                                                                                                                                                                                                                                                                                                                                                                                                                                                                                                                                                                                                                                                                                                                                                                ",
"                                                                                                                                                                                                                                                                                                                                                                                                                                                                                                                                                                                                                                                                                                                                                                                ",
"                                                                                                                                                                                                                                                                                                                                                                                                                                                                                                                                                                                                                                                                                                                                                                                ",
"                                                                                                                                                                                                                                                                                                                                                                                                                                                                                                                                                                                                                                                                                                                                                                                ",
"                                                                                                                                                                                                                                                                                                                                                                                                                                                                                                                                                                                                                                                                                                                                                                                ",
"                                                                                                                                                                                                                                                                                                                                                                                                                                                                                                                                                                                                                                                                                                                                                                                ",
"                                                                                                                                                                                                                                                                                                                                                                                                                                                                                                                                                                                                                                                                                                                                                                                ",
"                                                                                                                                                                                                                                                                                                                                                                                                                                                                                                                                                                                                                                                                                                                                                                                ",
"                                                                                                                                                                                                                                                                                                                                                                                                                                                                                                                                                                                                                                                                                                                                                                                ",
"                                                                                                                                                                                                                                                                                                                                                                                                                                                                                                                                                                                                                                                                                                                                                                                ",
"                                                                                                                                                                                                                                                                                                                                                                                                                                                                                                                                                                                                                                                                                                                                                                                ",
"                                                                                                                                                                                                                                                                                                                                                                                                                                                                                                                                                                                                                                                                                                                                                                                ",
"                                                                                                                                                                                                                                                                                                                                                                                                                                                                                                                                                                                                                                                                                                                                                                                ",
"                                                                                                                                                                                                                                                                                                                                                                                                                                                                                                                                                                                                                                                                                                                                                                                ",
"                                                                                                                                                                                                                                                                                                                                                                                                                                                                                                                                                                                                                                                                                                                                                                                ",
"                                                                                                                                                                                                                                                                                                                                                                                                                                                                                                                                                                                                                                                                                                                                                                                ",
"                                                                                                                                                                                                                                                                                                                                                                                                                                                                                                                                                                                                                                                                                                                                                                                ",
"                                                                                                                                                                                                                                                                                                                                                                                                                                                                                                                                                                                                                                                                                                                                                                                ",
"                                                                                                                                                                                                                                                                                                                                                                                                                                                                                                                                                                                                                                                                                                                                                                                ",
"                                                                                                                                                                                                                                                                                                                                                                                                                                                                                                                                                                                                                                                                                                                                                                                ",
"                                                                                                                                                                                                                                                                                                                                                                                                                                                                                                                                                                                                                                                                                                                                                                                ",
"                                                                                                                                                                                                                                                                                                                                                                                                                                                                                                                                                                                                                                                                                                                                                                                ",
"                                                                                                                                                                                                                                                                                                                                                                                                                                                                                                                                                                                                                                                                                                                                                                                ",
"                                                                                                                                                                                                                                                                                                                                                                                                                                                                                                                                                                                                                                                                                                                                                                                ",
"                                                                                                                                                                                                                                                                                                                                                                                                                                                                                                                                                                                                                                                                                                                                                                                ",
"                                                                                                                                                                                                                                                                                                                                                                                                                                                                                                                                                                                                                                                                                                                                                                                ",
"                                                                                                                                                                                                                                                                                                                                                                                                                                                                                                                                                                                                                                                                                                                                                                                ",
"                                                                                                                                                                                                                                                                                                                                                                                                                                                                                                                                                                                                                                                                                                                                                                                ",
"                                                                                                                                                                                                                                                                                                                                                                                                                                                                                                                                                                                                                                                                                                                                                                                ",
"                                                                                                                                                                                                                                                                                                                                                                                                                                                                                                                                                                                                                                                                                                                                                                                ",
"                                                                                                                                                                                                                                                                                                                                                                                                                                                                                                                                                                                                                                                                                                                                                                                ",
"                                                                                                                                                                                                                                                                                                                                                                                                                                                                                                                                                                                                                                                                                                                                                                                ",
"                                                                                                                                                                                                                                                                                                                                                                                                                                                                                                                                                                                                                                                                                                                                                                                ",
"                                                                                                                                                                                                                                                                                                                                                                                                                                                                                                                                                                                                                                                                                                                                                                                ",
"                                                                                                                                                                                                                                                                                                                                                                                                                                                                                                                                                                                                                                                                                                                                                                                ",
"                                                                                                                                                                                                                                                                                                                                                                                                                                                                                                                                                                                                                                                                                                                                                                                ",
"                                                                                                                                                                                                                                                                                                                                                                                                                                                                                                                                                                                                                                                                                                                                                                                ",
"                                                                                                                                                                                                                                                                                                                                                                                                                                                                                                                                                                                                                                                                                                                                                                                ",
"                                                                                                                                                                                                                                                                                                                                                                                                                                                                                                                                                                                                                                                                                                                                                                                ",
"                                                                                                                                                                                                                                                                                                                                                                                                                                                                                                                                                                                                                                                                                                                                                                                ",
"                                                                                                                                                                                                                                                                                                                                                                                                                                                                                                                                                                                                                                                                                                                                                                                ",
"                                                                                                                                                                                                                                                                                                                                                                                                                                                                                                                                                                                                                                                                                                                                                                                ",
"                                                                                                                                                                                                                                                                                                                                                                                                                                                                                                                                                                                                                                                                                                                                                                                ",
"                                                                                                                                                                                                                                                                                                                                                                                                                                                                                                                                                                                                                                                                                                                                                                                ",
"                                                                                                                                                                                                                                                                                                                                                                                                                                                                                                                                                                                                                                                                                                                                                                                ",
"                                                                                                                                                                                                                                                                                                                                                                                                                                                                                                                                                                                                                                                                                                                                                                                ",
"                                                                                                                                                                                                                                                                                                                                                                                                                                                                                                                                                                                                                                                                                                                                                                                ",
"                                                                                                                                                                                                                                                                                                                                                                                                                                                                                                                                                                                                                                                                                                                                                                                ",
"                                                                                                                                                                                                                                                                                                                                                                                                                                                                                                                                                                                                                                                                                                                                                                                ",
"                                                                                                                                                                                                                                                                                                                                                                                                                                                                                                                                                                                                                                                                                                                                                                                ",
"                                                                                                                                                                                                                                                                                                                                                                                                                                                                                                                                                                                                                                                                                                                                                                                ",
"                                                                                                                                                                                                                                                                                                                                                                                                                                                                                                                                                                                                                                                                                                                                                                                ",
"                                                                                                                                                                                                                                                                                                                                                                                                                                                                                                                                                                                                                                                                                                                                                                                ",
"                                                                                                                                                                                                                                                                                                                                                                                                                                                                                                                                                                                                                                                                                                                                                                                ",
"                                                                                                                                                                                                                                                                                                                                                                                                                                                                                                                                                                                                                                                                                                                                                                                ",
"                                                                                                                                                                                                                                                                                                                                                                                                                                                                                                                                                                                                                                                                                                                                                                                ",
"                                                                                                                                                                                                                                                                                                                                                                                                                                                                                                                                                                                                                                                                                                                                                                                ",
"                                                                                                                                                                                                                                                                                                                                                                                                                                                                                                                                                                                                                                                                                                                                                                                ",
"                                                                                                                                                                                                                                                                                                                                                                                                                                                                                                                                                                                                                                                                                                                                                                                ",
"                                                                                                                                                                                                                                                                                                                                                                                                                                                                                                                                                                                                                                                                                                                                                                                ",
"                                                                                                                                                                                                                                                                                                                                                                                                                                                                                                                                                                                                                                                                                                                                                                                ",
"                                                                                                                                                                                                                                                                                                                                                                                                                                                                                                                                                                                                                                                                                                                                                                                ",
"                                                                                                                                                                                                                                                                                                                                                                                                                                                                                                                                                                                                                                                                                                                                                                                ",
"                                                                                                                                                                                                                                                                                                                                                                                                                                                                                                                                                                                                                                                                                                                                                                                ",
"                                                                                                                                                                                                                                                                                                                                                                                                                                                                                                                                                                                                                                                                                                                                                                                ",
"                                                                                                                                                                                                                                                                                                                                                                                                                                                                                                                                                                                                                                                                                                                                                                                ",
"                                                                                                                                                                                                                                                                                                                                                                                                                                                                                                                                                                                                                                                                                                                                                                                ",
"                                                                                                                                                                                                                                                                                                                                                                                                                                                                                                                                                                                                                                                                                                                                                                                ",
"                                                                                                                                                                                                                                                                                                                                                                                                                                                                                                                                                                                                                                                                                                                                                                                ",
"                                                                                                                                                                                                                                                                                                                                                                                                                                                                                                                                                                                                                                                                                                                                                                                ",
"                                                                                                                                                                                                                                                                                                                                                                                                                                                                                                                                                                                                                                                                                                                                                                                ",
"                                                                                                                                                                                                                                                                                                                                                                                                                                                                                                                                                                                                                                                                                                                                                                                ",
"                                                                                                                                                                                                                                                                                                                                                                                                                                                                                                                                                                                                                                                                                                                                                                                ",
"                                                                                                                                                                                                                                                                                                                                                                                                                                                                                                                                                                                                                                                                                                                                                                                ",
"                                                                                                                                                                                                                                                                                                                                                                                                                                                                                                                                                                                                                                                                                                                                                                                ",
"                                                                                                                                                                                                                                                                                                                                                                                                                                                                                                                                                                                                                                                                                                                                                                                ",
"                                                                                                                                                                                                                                                                                                                                                                                                                                                                                                                                                                                                                                                                                                                                                                                ",
"                                                                                                                                                                                                                                                                                                                                                                                                                                                                                                                                                                                                                                                                                                                                                                                ",
"                                                                                                                                                                                                                                                                                                                                                                                                                                                                                                                                                                                                                                                                                                                                                                                ",
"                                                                                                                                                                                                                                                                                                                                                                                                                                                                                                                                                                                                                                                                                                                                                                                ",
"                                                                                                                                                                                                                                                                                                                                                                                                                                                                                                                                                                                                                                                                                                                                                                                ",
"                                                                                                                                                                                                                                                                                                                                                                                                                                                                                                                                                                                                                                                                                                                                                                                ",
"                                                                                                                                                                                                                                                                                                                                                                                                                                                                                                                                                                                                                                                                                                                                                                                ",
"                                                                                                                                                                                                                                                                                                                                                                                                                                                                                                                                                                                                                                                                                                                                                                                ",
"                                                                                                                                                                                                                                                                                                                                                                                                                                                                                                                                                                                                                                                                                                                                                                                ",
"                                                                                                                                                                                                                                                                                                                                                                                                                                                                                                                                                                                                                                                                                                                                                                                ",
"                                                                                                                                                                                                                                                                                                                                                                                                                                                                                                                                                                                                                                                                                                                                                                                ",
"                                                                                                                                                                                                                                                                                                                                                                                                                                                                                                                                                                                                                                                                                                                                                                                ",
"                                                                                                                                                                                                                                                                                                                                                                                                                                                                                                                                                                                                                                                                                                                                                                                ",
"                                                                                                                                                                                                                                                                                                                                                                                                                                                                                                                                                                                                                                                                                                                                                                                ",
"                                                                                                                                                                                                                                                                                                                                                                                                                                                                                                                                                                                                                                                                                                                                                                                ",
"                                                                                                                                                                                                                                                                                                                                                                                                                                                                                                                                                                                                                                                                                                                                                                                ",
"                                                                                                                                                                                                                                                                                                                                                                                                                                                                                                                                                                                                                                                                                                                                                                                ",
"                                                                                                                                                                                                                                                                                                                                                                                                                                                                                                                                                                                                                                                                                                                                                                                ",
"                                                                                                                                                                                                                                                                                                                                                                                                                                                                                                                                                                                                                                                                                                                                                                                ",
"                                                                                                                                                                                                                                                                                                                                                                                                                                                                                                                                                                                                                                                                                                                                                                                ",
"                                                                                                                                                                                                                                                                                                                                                                                                                                                                                                                                                                                                                                                                                                                                                                                ",
"                                                                                                                                                                                                                                                                                                                                                                                                                                                                                                                                                                                                                                                                                                                                                                                ",
"                                                                                                                                                                                                                                                                                                                                                                                                                                                                                                                                                                                                                                                                                                                                                                                ",
"                                                                                                                                                                                                                                                                                                                                                                                                                                                                                                                                                                                                                                                                                                                                                                                ",
"                                                                                                                                                                                                                                                                                                                                                                                                                                                                                                                                                                                                                                                                                                                                                                                ",
"                                                                                                                                                                                                                                                                                                                                                                                                                                                                                                                                                                                                                                                                                                                                                                                ",
"                                                                                                                                                                                                                                                                                                                                                                                                                                                                                                                                                                                                                                                                                                                                                                                ",
"                                                                                                                                                                                                                                                                                                                                                                                                                                                                                                                                                                                                                                                                                                                                                                                ",
"                                                                                                                                                                                                                                                                                                                                                                                                                                                                                                                                                                                                                                                                                                                                                                                ",
"                                                                                                                                                                                                                                                                                                                                                                                                                                                                                                                                                                                                                                                                                                                                                                                ",
"                                                                                                                                                                                                                                                                                                                                                                                                                                                                                                                                                                                                                                                                                                                                                                                ",
"                                                                                                                                                                                                                                                                                                                                                                                                                                                                                                                                                                                                                                                                                                                                                                                ",
"                                                                                                                                                                                                                                                                                                                                                                                                                                                                                                                                                                                                                                                                                                                                                                                ",
"                                                                                                                                                                                                                                                                                                                                                                                                                                                                                                                                                                                                                                                                                                                                                                                ",
"                                                                                                                                                                                                                                                                                                                                                                                                                                                                                                                                                                                                                                                                                                                                                                                ",
"                                                                                                                                                                                                                                                                                                                                                                                                                                                                                                                                                                                                                                                                                                                                                                                ",
"                                                                                                                                                                                                                                                                                                                                                                                                                                                                                                                                                                                                                                                                                                                                                                                ",
"                                                                                                                                                                                                                                                                                                                                                                                                                                                                                                                                                                                                                                                                                                                                                                                ",
"                                                                                                                                                                                                                                                                                                                                                                                                                                                                                                                                                                                                                                                                                                                                                                                ",
"                                                                                                                                                                                                                                                                                                                                                                                                                                                                                                                                                                                                                                                                                                                                                                                ",
"                                                                                                                                                                                                                                                                                                                                                                                                                                                                                                                                                                                                                                                                                                                                                                                ",
"                                                                                                                                                                                                                                                                                                                                                                                                                                                                                                                                                                                                                                                                                                                                                                                ",
"                                                                                                                                                                                                                                                                                                                                                                                                                                                                                                                                                                                                                                                                                                                                                                                ",
"                                                                                                                                                                                                                                                                                                                                                                                                                                                                                                                                                                                                                                                                                                                                                                                ",
"                                                                                                                                                                                                                                                                                                                                                                                                                                                                                                                                                                                                                                                                                                                                                                                ",
"                                                                                                                                                                                                                                                                                                                                                                                                                                                                                                                                                                                                                                                                                                                                                                                ",
"                                                                                                                                                                                                                                                                                                                                                                                                                                                                                                                                                                                                                                                                                                                                                                                ",
"                                                                                                                                                                                                                                                                                                                                                                                                                                                                                                                                                                                                                                                                                                                                                                                ",
"                                                                                                                                                                                                                                                                                                                                                                                                                                                                                                                                                                                                                                                                                                                                                                                ",
"                                                                                                                                                                                                                                                                                                                                                                                                                                                                                                                                                                                                                                                                                                                                                                                ",
"                                                                                                                                                                                                                                                                                                                                                                                                                                                                                                                                                                                                                                                                                                                                                                                ",
"                                                                                                                                                                                                                                                                                                                                                                                                                                                                                                                                                                                                                                                                                                                                                                                ",
"                                                                                                                                                                                                                                                                                                                                                                                                                                                                                                                                                                                                                                                                                                                                                                                ",
"                                                                                                                                                                                                                                                                                                                                                                                                                                                                                                                                                                                                                                                                                                                                                                                ",
"                                                                                                                                                                                                                                                                                                                                                                                                                                                                                                                                                                                                                                                                                                                                                                                ",
"                                                                                                                                                                                                                                                                                                                                                                                                                                                                                                                                                                                                                                                                                                                                                                                ",
"                                                                                                                                                                                                                                                                                                                                                                                                                                                                                                                                                                                                                                                                                                                                                                                ",
"                                                                                                                                                                                                                                                                                                                                                                                                                                                                                                                                                                                                                                                                                                                                                                                ",
"                                                                                                                                                                                                                                                                                                                                                                                                                                                                                                                                                                                                                                                                                                                                                                                ",
"                                                                                                                                                                                                                                                                                                                                                                                                                                                                                                                                                                                                                                                                                                                                                                                ",
"                                                                                                                                                                                                                                                                                                                                                                                                                                                                                                                                                                                                                                                                                                                                                                                ",
"                                                                                                                                                                                                                                                                                                                                                                                                                                                                                                                                                                                                                                                                                                                                                                                ",
"                                                                                                                                                                                                                                                                                                                                                                                                                                                                                                                                                                                                                                                                                                                                                                                ",
"                                                                                                                                                                                                                                                                                                                                                                                                                                                                                                                                                                                                                                                                                                                                                                                ",
"                                                                                                                                                                                                                                                                                                                                                                                                                                                                                                                                                                                                                                                                                                                                                                                ",
"                                                                                                                                                                                                                                                                                                                                                                                                                                                                                                                                                                                                                                                                                                                                                                                ",
"                                                                                                                                                                                                                                                                                                                                                                                                                                                                                                                                                                                                                                                                                                                                                                                ",
"                                                                                                                                                                                                                                                                                                                                                                                                                                                                                                                                                                                                                                                                                                                                                                                ",
"                                                                                                                                                                                                                                                                                                                                                                                                                                                                                                                                                                                                                                                                                                                                                                                ",
"                                                                                                                                                                                                                                                                                                                                                                                                                                                                                                                                                                                                                                                                                                                                                                                ",
"                                                                                                                                                                                                                                                                                                                                                                                                                                                                                                                                                                                                                                                                                                                                                                                ",
"                                                                                                                                                                                                                                                                                                                                                                                                                                                                                                                                                                                                                                                                                                                                                                                ",
"                                                                                                                                                                                                                                                                                                                                                                                                                                                                                                                                                                                                                                                                                                                                                                                ",
"                                                                                                                                                                                                                                                                                                                                                                                                                                                                                                                                                                                                                                                                                                                                                                                ",
"                                                                                                                                                                                                                                                                                                                                                                                                                                                                                                                                                                                                                                                                                                                                                                                ",
"                                                                                                                                                                                                                                                                                                                                                                                                                                                                                                                                                                                                                                                                                                                                                                                ",
"                                                                                                                                                                                                                                                                                                                                                                                                                                                                                                                                                                                                                                                                                                                                                                                ",
"                                                                                                                                                                                                                                                                                                                                                                                                                                                                                                                                                                                                                                                                                                                                                                                ",
"                                                                                                                                                                                                                                                                                                                                                                                                                                                                                                                                                                                                                                                                                                                                                                                ",
"                                                                                                                                                                                                                                                                                                                                                                                                                                                                                                                                                                                                                                                                                                                                                                                ",
"                                                                                                                                                                                                                                                                                                                                                                                                                                                                                                                                                                                                                                                                                                                                                                                ",
"                                                                                                                                                                                                                                                                                                                                                                                                                                                                                                                                                                                                                                                                                                                                                                                ",
"                                                                                                                                                                                                                                                                                                                                                                                                                                                                                                                                                                                                                                                                                                                                                                                ",
"                                                                                                                                                                                                                                                                                                                                                                                                                                                                                                                                                                                                                                                                                                                                                                                ",
"                                                                                                                                                                                                                                                                                                                                                                                                                                                                                                                                                                                                                                                                                                                                                                                ",
"                                                                                                                                                                                                                                                                                                                                                                                                                                                                                                                                                                                                                                                                                                                                                                                ",
"                                                                                                                                                                                                                                                                                                                                                                                                                                                                                                                                                                                                                                                                                                                                                                                ",
"                                                                                                                                                                                                                                                                                                                                                                                                                                                                                                                                                                                                                                                                                                                                                                                ",
"                                                                                                                                                                                                                                                                                                                                                                                                                                                                                                                                                                                                                                                                                                                                                                                ",
"                                                                                                                                                                                                                                                                                                                                                                                                                                                                                                                                                                                                                                                                                                                                                                                ",
"                                                                                                                                                                                                                                                                                                                                                                                                                                                                                                                                                                                                                                                                                                                                                                                ",
"                                                                                                                                                                                                                                                                                                                                                                                                                                                                                                                                                                                                                                                                                                                                                                                ",
"                                                                                                                                                                                                                                                                                                                                                                                                                                                                                                                                                                                                                                                                                                                                                                                ",
"                                                                                                                                                                                                                                                                                                                                                                                                                                                                                                                                                                                                                                                                                                                                                                                ",
"                                                                                                                                                                                                                                                                                                                                                                                                                                                                                                                                                                                                                                                                                                                                                                                ",
"                                                                                                                                                                                                                                                                                                                                                                                                                                                                                                                                                                                                                                                                                                                                                                                ",
"                                                                                                                                                                                                                                                                                                                                                                                                                                                                                                                                                                                                                                                                                                                                                                                ",
"                                                                                                                                                                                                                                                                                                                                                                                                                                                                                                                                                                                                                                                                                                                                                                                ",
"                                                                                                                                                                                                                                                                                                                                                                                                                                                                                                                                                                                                                                                                                                                                                                                ",
"                                                                                                                                                                                                                                                                                                                                                                                                                                                                                                                                                                                                                                                                                                                                                                                ",
"                                                                                                                                                                                                                                                                                                                                                                                                                                                                                                                                                                                                                                                                                                                                                                                ",
"                                                                                                                                                                                                                                                                                                                                                                                                                                                                                                                                                                                                                                                                                                                                                                                ",
"                                                                                                                                                                                                                                                                                                                                                                                                                                                                                                                                                                                                                                                                                                                                                                                ",
"                                                                                                                                                                                                                                                                                                                                                                                                                                                                                                                                                                                                                                                                                                                                                                                ",
"                                                                                                                                                                                                                                                                                                                                                                                                                                                                                                                                                                                                                                                                                                                                                                                ",
"                                                                                                                                                                                                                                                                                                                                                                                                                                                                                                                                                                                                                                                                                                                                                                                ",
"                                                                                                                                                                                                                                                                                                                                                                                                                                                                                                                                                                                                                                                                                                                                                                                ",
"                                                                                                                                                                                                                                                                                                                                                                                                                                                                                                                                                                                                                                                                                                                                                                                ",
"                                                                                                                                                                                                                                                                                                                                                                                                                                                                                                                                                                                                                                                                                                                                                                                ",
"                                                                                                                                                                                                                                                                                                                                                                                                                                                                                                                                                                                                                                                                                                                                                                                ",
"                                                                                                                                                                                                                                                                                                                                                                                                                                                                                                                                                                                                                                                                                                                                                                                ",
"                                                                                                                                                                                                                                                                                                                                                                                                                                                                                                                                                                                                                                                                                                                                                                                ",
"                                                                                                                                                                                                                                                                                                                                                                                                                                                                                                                                                                                                                                                                                                                                                                                ",
"                                                                                                                                                                                                                                                                                                                                                                                                                                                                                                                                                                                                                                                                                                                                                                                ",
"                                                                                                                                                                                                                                                                                                                                                                                                                                                                                                                                                                                                                                                                                                                                                                                ",
"                                                                                                                                                                                                                                                                                                                                                                                                                                                                                                                                                                                                                                                                                                                                                                                ",
"                                                                                                                                                                                                                                                                                                                                                                                                                                                                                                                                                                                                                                                                                                                                                                                ",
"                                                                                                                                                                                                                                                                                                                                                                                                                                                                                                                                                                                                                                                                                                                                                                                ",
"                                                                                                                                                                                                                                                                                                                                                                                                                                                                                                                                                                                                                                                                                                                                                                                ",
"                                                                                                                                                                                                                                                                                                                                                                                                                                                                                                                                                                                                                                                                                                                                                                                ",
"                                                                                                                                                                                                                                                                                                                                                                                                                                                                                                                                                                                                                                                                                                                                                                                ",
"                                                                                                                                                                                                                                                                                                                                                                                                                                                                                                                                                                                                                                                                                                                                                                                ",
"                                                                                                                                                                                                                                                                                                                                                                                                                                                                                                                                                                                                                                                                                                                                                                                ",
"                                                                                                                                                                                                                                                                                                                                                                                                                                                                                                                                                                                                                                                                                                                                                                                ",
"                                                                                                                                                                                                                                                                                                                                                                                                                                                                                                                                                                                                                                                                                                                                                                                ",
"                                                                                                                                                                                                                                                                                                                                                                                                                                                                                                                                                                                                                                                                                                                                                                                ",
"                                                                                                                                                                                                                                                                                                                                                                                                                                                                                                                                                                                                                                                                                                                                                                                ",
"                                                                                                                                                                                                                                                                                                                                                                                                                                                                                                                                                                                                                                                                                                                                                                                ",
"                                                                                                                                                                                                                                                                                                                                                                                                                                                                                                                                                                                                                                                                                                                                                                                ",
"                                                                                                                                                                                                                                                                                                                                                                                                                                                                                                                                                                                                                                                                                                                                                                                ",
"                                                                                                                                                                                                                                                                                                                                                                                                                                                                                                                                                                                                                                                                                                                                                                                ",
"                                                                                                                                                                                                                                                                                                                                                                                                                                                                                                                                                                                                                                                                                                                                                                                ",
"                                                                                                                                                                                                                                                                                                                                                                                                                                                                                                                                                                                                                                                                                                                                                                                ",
"                                                                                                                                                                                                                                                                                                                                                                                                                                                                                                                                                                                                                                                                                                                                                                                ",
"                                                                                                                                                                                                                                                                                                                                                                                                                                                                                                                                                                                                                                                                                                                                                                                ",
"                                                                                                                                                                                                                                                                                                                                                                                                                                                                                                                                                                                                                                                                                                                                                                                ",
"                                                                                                                                                                                                                                                                                                                                                                                                                                                                                                                                                                                                                                                                                                                                                                                ",
"                                                                                                                                                                                                                                                                                                                                                                                                                                                                                                                                                                                                                                                                                                                                                                                ",
"                                                                                                                                                                                                                                                                                                                                                                                                                                                                                                                                                                                                                                                                                                                                                                                ",
"                                                                                                                                                                                                                                                                                                                                                                                                                                                                                                                                                                                                                                                                                                                                                                                ",
"                                                                                                                                                                                                                                                                                                                                                                                                                                                                                                                                                                                                                                                                                                                                                                                ",
"                                                                                                                                                                                                                                                                                                                                                                                                                                                                                                                                                                                                                                                                                                                                                                                ",
"                                                                                                                                                                                                                                                                                                                                                                                                                                                                                                                                                                                                                                                                                                                                                                                ",
"                                                                                                                                                                                                                                                                                                                                                                                                                                                                                                                                                                                                                                                                                                                                                                                ",
"                                                                                                                                                                                                                                                                                                                                                                                                                                                                                                                                                                                                                                                                                                                                                                                ",
"                                                                                                                                                                                                                                                                                                                                                                                                                                                                                                                                                                                                                                                                                                                                                                                ",
"                                                                                                                                                                                                                                                                                                                                                                                                                                                                                                                                                                                                                                                                                                                                                                                ",
"                                                                                                                                                                                                                                                                                                                                                                                                                                                                                                                                                                                                                                                                                                                                                                                ",
"                                                                                                                                                                                                                                                                                                                                                                                                                                                                                                                                                                                                                                                                                                                                                                                ",
"                                                                                                                                                                                                                                                                                                                                                                                                                                                                                                                                                                                                                                                                                                                                                                                ",
"                                                                                                                                                                                                                                                                                                                                                                                                                                                                                                                                                                                                                                                                                                                                                                                ",
"                                                                                                                                                                                                                                                                                                                                                                                                                                                                                                                                                                                                                                                                                                                                                                                ",
"                                                                                                                                                                                                                                                                                                                                                                                                                                                                                                                                                                                                                                                                                                                                                                                ",
"                                                                                                                                                                                                                                                                                                                                                                                                                                                                                                                                                                                                                                                                                                                                                                                ",
"                                                                                                                                                                                                                                                                                                                                                                                                                                                                                                                                                                                                                                                                                                                                                                                ",
"                                                                                                                                                                                                                                                                                                                                                                                                                                                                                                                                                                                                                                                                                                                                                                                ",
"                                                                                                                                                                                                                                                                                                                                                                                                                                                                                                                                                                                                                                                                                                                                                                                ",
"                                                                                                                                                                                                                                                                                                                                                                                                                                                                                                                                                                                                                                                                                                                                                                                ",
"                                                                                                                                                                                                                                                                                                                                                                                                                                                                                                                                                                                                                                                                                                                                                                                ",
"                                                                                                                                                                                                                                                                                                                                                                                                                                                                                                                                                                                                                                                                                                                                                                                ",
"                                                                                                                                                                                                                                                                                                                                                                                                                                                                                                                                                                                                                                                                                                                                                                                ",
"                                                                                                                                                                                                                                                                                                                                                                                                                                                                                                                                                                                                                                                                                                                                                                                ",
"                                                                                                                                                                                                                                                                                                                                                                                                                                                                                                                                                                                                                                                                                                                                                                                ",
"                                                                                                                                                                                                                                                                                                                                                                                                                                                                                                                                                                                                                                                                                                                                                                                ",
"                                                                                                                                                                                                                                                                                                                                                                                                                                                                                                                                                                                                                                                                                                                                                                                ",
"                                                                                                                                                                                                                                                                                                                                                                                                                                                                                                                                                                                                                                                                                                                                                                                ",
"                                                                                                                                                                                                                                                                                                                                                                                                                                                                                                                                                                                                                                                                                                                                                                                ",
"                                                                                                                                                                                                                                                                                                                                                                                                                                                                                                                                                                                                                                                                                                                                                                                ",
"                                                                                                                                                                                                                                                                                                                                                                                                                                                                                                                                                                                                                                                                                                                                                                                ",
"                                                                                                                                                                                                                                                                                                                                                                                                                                                                                                                                                                                                                                                                                                                                                                                ",
"                                                                                                                                                                                                                                                                                                                                                                                                                                                                                                                                                                                                                                                                                                                                                                                ",
"                                                                                                                                                                                                                                                                                                                                                                                                                                                                                                                                                                                                                                                                                                                                                                                ",
"                                                                                                                                                                                                                                                                                                                                                                                                                                                                                                                                                                                                                                                                                                                                                                                ",
"                                                                                                                                                                                                                                                                                                                                                                                                                                                                                                                                                                                                                                                                                                                                                                                ",
"                                                                                                                                                                                                                                                                                                                                                                                                                                                                                                                                                                                                                                                                                                                                                                                ",
"                                                                                                                                                                                                                                                                                                                                                                                                                                                                                                                                                                                                                                                                                                                                                                                ",
"                                                                                                                                                                                                                                                                                                                                                                                                                                                                                                                                                                                                                                                                                                                                                                                ",
"                                                                                                                                                                                                                                                                                                                                                                                                                                                                                                                                                                                                                                                                                                                                                                                ",
"                                                                                                                                                                                                                                                                                                                                                                                                                                                                                                                                                                                                                                                                                                                                                                                ",
"                                                                                                                                                                                                                                                                                                                                                                                                                                                                                                                                                                                                                                                                                                                                                                                ",
"                                                                                                                                                                                                                                                                                                                                                                                                                                                                                                                                                                                                                                                                                                                                                                                ",
"                                                                                                                                                                                                                                                                                                                                                                                                                                                                                                                                                                                                                                                                                                                                                                                ",
"                                                                                                                                                                                                                                                                                                                                                                                                                                                                                                                                                                                                                                                                                                                                                                                ",
"                                                                                                                                                                                                                                                                                                                                                                                                                                                                                                                                                                                                                                                                                                                                                                                ",
"                                                                                                                                                                                                                                                                                                                                                                                                                                                                                                                                                                                                                                                                                                                                                                                ",
"                                                                                                                                                                                                                                                                                                                                                                                                                                                                                                                                                                                                                                                                                                                                                                                ",
"                                                                                                                                                                                                                                                                                                                                                                                                                                                                                                                                                                                                                                                                                                                                                                                ",
"                                                                                                                                                                                                                                                                                                                                                                                                                                                                                                                                                                                                                                                                                                                                                                                ",
"                                                                                                                                                                                                                                                                                                                                                                                                                                                                                                                                                                                                                                                                                                                                                                                ",
"                                                                                                                                                                                                                                                                                                                                                                                                                                                                                                                                                                                                                                                                                                                                                                                ",
"                                                                                                                                                                                                                                                                                                                                                                                                                                                                                                                                                                                                                                                                                                                                                                                ",
"                                                                                                                                                                                                                                                                                                                                                                                                                                                                                                                                                                                                                                                                                                                                                                                ",
"                                                                                                                                                                                                                                                                                                                                                                                                                                                                                                                                                                                                                                                                                                                                                                                ",
"                                                                                                                                                                                                                                                                                                                                                                                                                                                                                                                                                                                                                                                                                                                                                                                ",
"                                                                                                                                                                                                                                                                                                                                                                                                                                                                                                                                                                                                                                                                                                                                                                                ",
"                                                                                                                                                                                                                                                                                                                                                                                                                                                                                                                                                                                                                                                                                                                                                                                ",
"                                                                                                                                                                                                                                                                                                                                                                                                                                                                                                                                                                                                                                                                                                                                                                                ",
"                                                                                                                                                                                                                                                                                                                                                                                                                                                                                                                                                                                                                                                                                                                                                                                ",
"                                                                                                                                                                                                                                                                                                                                                                                                                                                                                                                                                                                                                                                                                                                                                                                ",
"                                                                                                                                                                                                                                                                                                                                                                                                                                                                                                                                                                                                                                                                                                                                                                                ",
"                                                                                                                                                                                                                                                                                                                                                                                                                                                                                                                                                                                                                                                                                                                                                                                ",
"                                                                                                                                                                                                                                                                                                                                                                                                                                                                                                                                                                                                                                                                                                                                                                                ",
"                                                                                                                                                                                                                                                                                                                                                                                                                                                                                                                                                                                                                                                                                                                                                                                ",
"                                                                                                                                                                                                                                                                                                                                                                                                                                                                                                                                                                                                                                                                                                                                                                                ",
"                                                                                                                                                                                                                                                                                                                                                                                                                                                                                                                                                                                                                                                                                                                                                                                ",
"                                                                                                                                                                                                                                                                                                                                                                                                                                                                                                                                                                                                                                                                                                                                                                                ",
"                                                                                                                                                                                                                                                                                                                                                                                                                                                                                                                                                                                                                                                                                                                                                                                ",
"                                                                                                                                                                                                                                                                                                                                                                                                                                                                                                                                                                                                                                                                                                                                                                                ",
"                                                                                                                                                                                                                                                                                                                                                                                                                                                                                                                                                                                                                                                                                                                                                                                ",
"                                                                                                                                                                                                                                                                                                                                                                                                                                                                                                                                                                                                                                                                                                                                                                                ",
"                                                                                                                                                                                                                                                                                                                                                                                                                                                                                                                                                                                                                                                                                                                                                                                ",
"                                                                                                                                                                                                                                                                                                                                                                                                                                                                                                                                                                                                                                                                                                                                                                                ",
"                                                                                                                                                                                                                                                                                                                                                                                                                                                                                                                                                                                                                                                                                                                                                                                ",
"                                                                                                                                                                                                                                                                                                                                                                                                                                                                                                                                                                                                                                                                                                                                                                                ",
"                                                                                                                                                                                                                                                                                                                                                                                                                                                                                                                                                                                                                                                                                                                                                                                ",
"                                                                                                                                                                                                                                                                                                                                                                                                                                                                                                                                                                                                                                                                                                                                                                                "
};
